;Sliced by ideaMaker 4.2.3.5600, 2022-10-12 11:35:45 UTC+0200
;Dimension: 300.000 300.000 400.000 0.400
;Plate Shape: 0
;Origin Center: 0
;Extruder Offset #1: 25.000 0.000
;Filament Diameter #1: 1.750
;Filament Diameter #2: 1.750
;Filament Compensation #1: 100.00
;Filament Compensation #2: 90.00
;Filament Density #1: 1240.00
;Filament Density #2: 1240.00
;Filament Type #1: Sunlu
;Filament Type #2: 
;Filament Name #1: Sunlu Grey PLA
;Filament Name #2: 
;Firmware: Marlin
;Bounding Box: 136.401 163.600 138.200 161.800 0.000 37.850
;Model Gap: 0.000
M92 E415.00000
M221 T0 S100.00
M140 S60.00
M104 T0 S210.00
M109 T0 S210.00
T0
M190 S60.00
M107
G28 ; home all axes
G29 ; Autoleveling processing ; à commenter si M420 actif
;M420 S1 Z10 ; Autolevel enable ; à commenter si G29 actif
;vous avez 2 choix, soit activer le G29 pour faire un autoleveling du plateau avant chaque impression
;C'est la méthode recvommandé par ARtillery3Dexpert.fr
;soit activer la ligne qui commance par M420 pour faire un rappel de la derniere mesure du plateau
;pour gagner du temp ( non recommandé par artillery3Dexpert.fr )
M500 ; sauvegarde eeprom
M117 Purge extruder
G92 E0 ; reset extruder
G1 Z1.0 F3000 ; move z up little to prevent scratching of surface
G1 X2 Y20 Z0.3 F5000.0 ; move to start-line position
G1 X2 Y200.0 Z0.3 F1500.0 E15 ; draw 1st line
G1 X2 Y200.0 Z0.4 F5000.0 ; move to side a little
G1 X2 Y20 Z0.4 F1500.0 E30 ; draw 2nd line
G92 E0 ; reset extruder
G1 Z1.0 F3000 ; move z up little to prevent scratching of surface
;TOTAL_NUM: 1
;PRINTING_TIME: 0
;REMAINING_TIME: 1478
M83
;LAYER:0
;Z:0.250
;HEIGHT:0.250
M106 S0
;PRINTING: NON-OBJECT
;PRINTING_ID: -1
G1 F2400 E-1.0000
M204 S1300.00
M205 X7.00 Y7.00
G0 F7200 X137.739 Y139.194
G0 F900 Z0.250
G0 F7200 X137.809 Y139.265
M204 S1250.00
;TYPE:SKIRT
;WIDTH:0.480
G1 F2400 E0.9700
G1 F2400 X138.276 Y138.905 E0.0294
G1 X138.850 Y138.585 E0.0328
G1 X139.338 Y138.397 E0.0261
G1 X139.917 Y138.259 E0.0297
G1 X140.600 Y138.200 E0.0342
G1 X144.634 Y138.201 E0.2013
G1 X145.254 Y138.254 E0.0310
G1 X145.760 Y138.366 E0.0259
G1 X146.319 Y138.570 E0.0297
G1 X146.898 Y138.887 E0.0329
G1 X147.316 Y139.199 E0.0260
G1 X147.780 Y139.660 E0.0326
G1 X148.093 Y140.072 E0.0258
G1 X148.386 Y140.588 E0.0296
G1 X148.603 Y141.136 E0.0294
G1 X148.742 Y141.722 E0.0300
G1 X148.800 Y142.400 E0.0339
G1 X148.798 Y143.668 E0.0633
G1 X148.756 Y144.188 E0.0260
G1 X148.615 Y144.831 E0.0328
G1 X148.430 Y145.319 E0.0260
G1 X148.151 Y145.838 E0.0294
G1 X147.801 Y146.316 E0.0296
G1 X147.387 Y146.738 E0.0295
G1 X146.980 Y147.058 E0.0258
G1 X146.800 Y147.168 E0.0105
G1 X146.800 Y151.400 E0.2111
G1 X153.200 Y151.400 E0.3193
G1 X153.200 Y147.172 E0.2109
G1 X153.102 Y147.113 E0.0057
G1 X152.633 Y146.756 E0.0294
G1 X152.217 Y146.337 E0.0295
G1 X151.902 Y145.921 E0.0260
G1 X151.583 Y145.347 E0.0328
G1 X151.395 Y144.860 E0.0260
G1 X151.248 Y144.210 E0.0332
G1 X151.200 Y143.600 E0.0305
G1 X151.202 Y142.332 E0.0633
G1 X151.234 Y141.878 E0.0227
G1 X151.385 Y141.169 E0.0362
G1 X151.568 Y140.685 E0.0258
G1 X151.846 Y140.166 E0.0294
G1 X152.151 Y139.742 E0.0261
G1 X152.605 Y139.268 E0.0327
G1 X153.072 Y138.907 E0.0294
G1 X153.524 Y138.645 E0.0261
G1 X154.138 Y138.397 E0.0330
G1 X154.790 Y138.248 E0.0334
G1 X155.400 Y138.200 E0.0305
G1 X159.432 Y138.201 E0.2012
G1 X159.988 Y138.244 E0.0278
G1 X160.631 Y138.385 E0.0328
G1 X161.058 Y138.542 E0.0227
G1 X161.638 Y138.849 E0.0327
G1 X162.167 Y139.244 E0.0329
G1 X162.580 Y139.660 E0.0292
G1 X162.858 Y140.020 E0.0227
G1 X163.155 Y140.524 E0.0292
G1 X163.403 Y141.136 E0.0329
G1 X163.552 Y141.790 E0.0335
G1 X163.600 Y142.400 E0.0305
G1 X163.600 Y154.601 E0.6087
G1 X163.541 Y155.467 E0.0433
G1 X163.412 Y156.208 E0.0375
G1 X163.252 Y156.791 E0.0302
G1 X163.028 Y157.396 E0.0322
G1 X162.768 Y157.948 E0.0304
G1 X162.438 Y158.511 E0.0326
G1 X162.114 Y158.970 E0.0280
G1 X161.697 Y159.466 E0.0323
G1 X161.236 Y159.925 E0.0325
G1 X160.739 Y160.337 E0.0322
G1 X160.241 Y160.682 E0.0302
G1 X159.750 Y160.966 E0.0283
G1 X159.163 Y161.241 E0.0323
G1 X158.554 Y161.463 E0.0323
G1 X157.927 Y161.629 E0.0324
G1 X157.299 Y161.736 E0.0318
G1 X156.442 Y161.800 E0.0429
G1 X143.556 Y161.800 E0.6429
G1 X142.671 Y161.732 E0.0443
G1 X142.059 Y161.626 E0.0310
G1 X141.509 Y161.483 E0.0284
G1 X140.840 Y161.244 E0.0354
G1 X140.289 Y160.987 E0.0303
G1 X139.727 Y160.662 E0.0324
G1 X139.263 Y160.339 E0.0282
G1 X138.734 Y159.897 E0.0344
G1 X138.275 Y159.436 E0.0325
G1 X137.863 Y158.939 E0.0322
G1 X137.518 Y158.441 E0.0302
G1 X137.234 Y157.950 E0.0283
G1 X136.959 Y157.363 E0.0323
G1 X136.737 Y156.753 E0.0324
G1 X136.571 Y156.125 E0.0324
G1 X136.466 Y155.505 E0.0314
G1 X136.414 Y154.879 E0.0313
G1 X136.401 Y142.363 E0.6244
G1 X136.454 Y141.742 E0.0311
G1 X136.567 Y141.231 E0.0261
G1 X136.772 Y140.677 E0.0295
G1 X137.087 Y140.102 E0.0327
G1 X137.440 Y139.636 E0.0292
G1 X137.739 Y139.335 E0.0212
G0 F2400 X137.809 Y139.265
M204 S1300.00
G0 F7200 X138.041 Y139.566
G0 F7200 X138.102 Y139.645
M204 S1250.00
G1 F2400 X138.569 Y139.285 E0.0294
G1 X139.026 Y139.031 E0.0261
G1 X139.449 Y138.864 E0.0227
G1 X140.028 Y138.726 E0.0297
G1 X140.600 Y138.680 E0.0286
G1 X144.634 Y138.681 E0.2013
G1 X145.154 Y138.723 E0.0260
G1 X145.599 Y138.818 E0.0227
G1 X146.092 Y138.993 E0.0261
G1 X146.611 Y139.272 E0.0294
G1 X147.029 Y139.584 E0.0260
G1 X147.400 Y139.953 E0.0261
G1 X147.678 Y140.313 E0.0227
G1 X147.940 Y140.765 E0.0261
G1 X148.157 Y141.313 E0.0294
G1 X148.274 Y141.828 E0.0263
G1 X148.320 Y142.400 E0.0286
G1 X148.319 Y143.634 E0.0616
G1 X148.287 Y144.088 E0.0227
G1 X148.164 Y144.665 E0.0294
G1 X148.007 Y145.092 E0.0227
G1 X147.728 Y145.611 E0.0294
G1 X147.416 Y146.029 E0.0260
G1 X147.047 Y146.400 E0.0261
G1 X146.687 Y146.678 E0.0227
G1 X146.320 Y146.892 E0.0212
G1 X146.320 Y151.880 E0.2489
G1 X153.680 Y151.880 E0.3672
G1 X153.680 Y146.889 E0.2490
G1 X153.389 Y146.728 E0.0166
G1 X152.971 Y146.416 E0.0260
G1 X152.600 Y146.047 E0.0261
G1 X152.285 Y145.631 E0.0260
G1 X152.031 Y145.174 E0.0261
G1 X151.843 Y144.687 E0.0260
G1 X151.726 Y144.172 E0.0263
G1 X151.680 Y143.600 E0.0286
G1 X151.681 Y142.366 E0.0616
G1 X151.713 Y141.912 E0.0227
G1 X151.836 Y141.335 E0.0294
G1 X151.993 Y140.908 E0.0227
G1 X152.236 Y140.446 E0.0260
G1 X152.541 Y140.022 E0.0261
G1 X152.902 Y139.645 E0.0260
G1 X153.313 Y139.322 E0.0261
G1 X153.765 Y139.060 E0.0261
G1 X154.249 Y138.864 E0.0261
G1 X154.828 Y138.726 E0.0297
G1 X155.400 Y138.680 E0.0286
G1 X159.400 Y138.680 E0.1996
G1 X159.888 Y138.713 E0.0244
G1 X160.465 Y138.836 E0.0294
G1 X160.892 Y138.993 E0.0227
G1 X161.354 Y139.236 E0.0260
G1 X161.829 Y139.584 E0.0294
G1 X162.200 Y139.953 E0.0261
G1 X162.478 Y140.313 E0.0227
G1 X162.740 Y140.765 E0.0261
G1 X162.957 Y141.313 E0.0294
G1 X163.074 Y141.828 E0.0263
G1 X163.120 Y142.400 E0.0286
G1 X163.120 Y154.601 E0.6087
G1 X163.062 Y155.434 E0.0417
G1 X162.949 Y156.082 E0.0328
G1 X162.801 Y156.626 E0.0281
G1 X162.593 Y157.193 E0.0301
G1 X162.353 Y157.706 E0.0283
G1 X162.045 Y158.235 E0.0305
G1 X161.745 Y158.663 E0.0261
G1 X161.358 Y159.127 E0.0301
G1 X160.929 Y159.556 E0.0303
G1 X160.465 Y159.943 E0.0301
G1 X160.001 Y160.266 E0.0282
G1 X159.510 Y160.550 E0.0283
G1 X158.960 Y160.806 E0.0303
G1 X158.429 Y160.999 E0.0282
G1 X157.845 Y161.156 E0.0302
G1 X157.256 Y161.258 E0.0298
G1 X156.711 Y161.307 E0.0273
G1 X156.421 Y161.320 E0.0145
G1 X143.578 Y161.320 E0.6407
G1 X143.290 Y161.307 E0.0144
G1 X142.715 Y161.254 E0.0288
G1 X142.180 Y161.161 E0.0271
G1 X141.630 Y161.018 E0.0284
G1 X141.043 Y160.809 E0.0311
G1 X140.492 Y160.552 E0.0303
G1 X140.001 Y160.268 E0.0283
G1 X139.537 Y159.945 E0.0282
G1 X139.073 Y159.558 E0.0301
G1 X138.644 Y159.129 E0.0303
G1 X138.257 Y158.665 E0.0301
G1 X137.934 Y158.201 E0.0282
G1 X137.650 Y157.710 E0.0283
G1 X137.394 Y157.160 E0.0303
G1 X137.201 Y156.629 E0.0282
G1 X137.044 Y156.043 E0.0303
G1 X136.944 Y155.465 E0.0293
G1 X136.892 Y154.839 E0.0313
G1 X136.880 Y142.400 E0.6206
G1 X136.923 Y141.846 E0.0277
G1 X137.036 Y141.335 E0.0261
G1 X137.221 Y140.847 E0.0260
G1 X137.472 Y140.389 E0.0261
G1 X137.784 Y139.971 E0.0260
G1 X138.033 Y139.716 E0.0178
G0 F2400 X138.102 Y139.645
M204 S1300.00
G0 F7200 X138.375 Y139.911
G0 F7200 X138.446 Y139.980
M204 S1250.00
G1 F2400 X138.806 Y139.702 E0.0227
G1 X139.202 Y139.477 E0.0227
G1 X139.625 Y139.310 E0.0227
G1 X140.068 Y139.204 E0.0227
G1 X140.600 Y139.160 E0.0266
G1 X144.600 Y139.160 E0.1996
G1 X145.054 Y139.192 E0.0227
G1 X145.499 Y139.287 E0.0227
G1 X145.926 Y139.444 E0.0227
G1 X146.327 Y139.659 E0.0227
G1 X146.694 Y139.928 E0.0227
G1 X147.020 Y140.246 E0.0227
G1 X147.298 Y140.606 E0.0227
G1 X147.523 Y141.002 E0.0227
G1 X147.690 Y141.425 E0.0227
G1 X147.796 Y141.868 E0.0227
G1 X147.840 Y142.400 E0.0266
G1 X147.840 Y143.600 E0.0599
G1 X147.808 Y144.054 E0.0227
G1 X147.713 Y144.499 E0.0227
G1 X147.556 Y144.926 E0.0227
G1 X147.341 Y145.327 E0.0227
G1 X147.072 Y145.694 E0.0227
G1 X146.754 Y146.020 E0.0227
G1 X146.394 Y146.298 E0.0227
G1 X145.998 Y146.523 E0.0227
G1 X145.840 Y146.585 E0.0085
G1 X145.840 Y152.360 E0.2881
G1 X154.160 Y152.360 E0.4151
G1 X154.160 Y146.588 E0.2880
G1 X154.074 Y146.556 E0.0046
G1 X153.673 Y146.341 E0.0227
G1 X153.306 Y146.072 E0.0227
G1 X152.980 Y145.754 E0.0227
G1 X152.702 Y145.394 E0.0227
G1 X152.477 Y144.998 E0.0227
G1 X152.310 Y144.575 E0.0227
G1 X152.204 Y144.132 E0.0227
G1 X152.160 Y143.600 E0.0266
G1 X152.160 Y142.400 E0.0599
G1 X152.192 Y141.946 E0.0227
G1 X152.287 Y141.501 E0.0227
G1 X152.444 Y141.074 E0.0227
G1 X152.659 Y140.673 E0.0227
G1 X152.928 Y140.306 E0.0227
G1 X153.246 Y139.980 E0.0227
G1 X153.606 Y139.702 E0.0227
G1 X154.002 Y139.477 E0.0227
G1 X154.425 Y139.310 E0.0227
G1 X154.868 Y139.204 E0.0227
G1 X155.400 Y139.160 E0.0266
G1 X159.400 Y139.160 E0.1996
G1 X159.854 Y139.192 E0.0227
G1 X160.299 Y139.287 E0.0227
G1 X160.726 Y139.444 E0.0227
G1 X161.127 Y139.659 E0.0227
G1 X161.494 Y139.928 E0.0227
G1 X161.820 Y140.246 E0.0227
G1 X162.098 Y140.606 E0.0227
G1 X162.323 Y141.002 E0.0227
G1 X162.490 Y141.425 E0.0227
G1 X162.596 Y141.868 E0.0227
G1 X162.640 Y142.400 E0.0266
G1 X162.640 Y154.601 E0.6087
G1 X162.583 Y155.400 E0.0400
G1 X162.485 Y155.958 E0.0283
G1 X162.350 Y156.462 E0.0260
G1 X162.158 Y156.991 E0.0281
G1 X161.937 Y157.466 E0.0261
G1 X161.652 Y157.959 E0.0284
G1 X161.352 Y158.387 E0.0261
G1 X160.990 Y158.818 E0.0281
G1 X160.620 Y159.188 E0.0261
G1 X160.189 Y159.550 E0.0281
G1 X159.761 Y159.850 E0.0261
G1 X159.270 Y160.134 E0.0283
G1 X158.796 Y160.355 E0.0261
G1 X158.265 Y160.548 E0.0282
G1 X157.761 Y160.683 E0.0260
G1 X157.213 Y160.780 E0.0278
G1 X156.690 Y160.827 E0.0262
G1 X156.400 Y160.840 E0.0145
G1 X143.600 Y160.840 E0.6386
G1 X143.312 Y160.827 E0.0144
G1 X142.797 Y160.781 E0.0258
G1 X142.262 Y160.688 E0.0271
G1 X141.752 Y160.554 E0.0263
G1 X141.206 Y160.357 E0.0290
G1 X140.732 Y160.136 E0.0261
G1 X140.241 Y159.852 E0.0283
G1 X139.813 Y159.552 E0.0261
G1 X139.382 Y159.190 E0.0281
G1 X139.012 Y158.820 E0.0261
G1 X138.650 Y158.389 E0.0281
G1 X138.350 Y157.961 E0.0261
G1 X138.066 Y157.470 E0.0283
G1 X137.845 Y156.996 E0.0261
G1 X137.652 Y156.465 E0.0282
G1 X137.517 Y155.961 E0.0260
G1 X137.417 Y155.383 E0.0293
G1 X137.370 Y154.800 E0.0292
G1 X137.360 Y142.400 E0.6186
G1 X137.392 Y141.946 E0.0227
G1 X137.487 Y141.501 E0.0227
G1 X137.644 Y141.074 E0.0227
G1 X137.859 Y140.673 E0.0227
G1 X138.128 Y140.306 E0.0227
G1 X138.377 Y140.051 E0.0178
G0 F2400 X138.446 Y139.980
;PRINTING: cover supporte IR.STL
;PRINTING_ID: 0
G1 F2400 E-1.0000
M204 S1300.00
G0 F7200 X142.116 Y156.248
G0 F7200 X142.138 Y156.345
M204 S1000.00
M205 X6.00 Y6.00
;TYPE:WALL-INNER
;WIDTH:0.480
G1 F2400 E0.9700
G1 F2400 X141.857 Y156.064 E0.0198
G1 X141.628 Y155.738 E0.0199
G1 X141.461 Y155.379 E0.0198
G1 X141.359 Y154.998 E0.0197
G1 X141.320 Y154.514 E0.0242
G1 X141.320 Y143.120 E0.5684
G1 X141.880 Y143.120 E0.0279
G1 X141.880 Y152.630 E0.4745
G1 X141.933 Y153.245 E0.0308
G1 X142.101 Y153.870 E0.0323
G1 X142.374 Y154.459 E0.0324
G1 X142.747 Y154.992 E0.0325
G1 X143.206 Y155.451 E0.0324
G1 X143.736 Y155.822 E0.0323
G1 X144.326 Y156.097 E0.0325
G1 X144.951 Y156.264 E0.0323
G1 X145.567 Y156.320 E0.0309
G1 X154.431 Y156.320 E0.4422
G1 X155.045 Y156.267 E0.0307
G1 X155.670 Y156.099 E0.0323
G1 X156.260 Y155.825 E0.0325
G1 X156.793 Y155.451 E0.0325
G1 X157.251 Y154.994 E0.0323
G1 X157.623 Y154.463 E0.0323
G1 X157.897 Y153.873 E0.0325
G1 X158.064 Y153.249 E0.0322
G1 X158.120 Y152.620 E0.0315
G1 X158.120 Y143.120 E0.4740
G1 X158.680 Y143.120 E0.0279
G1 X158.680 Y154.571 E0.5713
G1 X158.643 Y154.994 E0.0212
G1 X158.541 Y155.376 E0.0197
G1 X158.374 Y155.736 E0.0198
G1 X158.145 Y156.062 E0.0199
G1 X157.864 Y156.343 E0.0198
G1 X157.538 Y156.572 E0.0199
G1 X157.179 Y156.739 E0.0198
G1 X156.796 Y156.842 E0.0198
G1 X156.368 Y156.880 E0.0214
G1 X143.631 Y156.880 E0.6355
G1 X143.209 Y156.842 E0.0211
G1 X142.823 Y156.741 E0.0199
G1 X142.464 Y156.574 E0.0198
G1 X142.219 Y156.402 E0.0149
G0 F2400 X142.138 Y156.345
G1 F2400 E-1.0000
M204 S1300.00
M205 X7.00 Y7.00
G0 F7200 X141.892 Y156.638
G0 F7200 X141.828 Y156.714
M204 S1000.00
M205 X6.00 Y6.00
;TYPE:WALL-OUTER
;WIDTH:0.480
G1 F2400 E0.9700
G1 F2400 X141.488 Y156.374 E0.0240
G1 X141.211 Y155.979 E0.0241
G1 X141.008 Y155.544 E0.0239
G1 X140.884 Y155.080 E0.0240
G1 X140.840 Y154.533 E0.0274
G1 X140.840 Y142.640 E0.5933
G1 X144.360 Y142.640 E0.1756
G1 X144.360 Y143.360 E0.0359
G1 X142.360 Y143.360 E0.0998
G1 X142.360 Y152.609 E0.4614
G1 X142.408 Y153.161 E0.0276
G1 X142.554 Y153.706 E0.0281
G1 X142.792 Y154.219 E0.0282
G1 X143.116 Y154.682 E0.0282
G1 X143.516 Y155.082 E0.0282
G1 X143.977 Y155.405 E0.0281
G1 X144.491 Y155.644 E0.0283
G1 X145.035 Y155.790 E0.0281
G1 X145.589 Y155.840 E0.0278
G1 X154.410 Y155.840 E0.4401
G1 X154.961 Y155.792 E0.0276
G1 X155.506 Y155.646 E0.0281
G1 X156.019 Y155.408 E0.0282
G1 X156.483 Y155.082 E0.0283
G1 X156.882 Y154.684 E0.0281
G1 X157.206 Y154.222 E0.0282
G1 X157.444 Y153.709 E0.0282
G1 X157.590 Y153.165 E0.0281
G1 X157.640 Y152.599 E0.0283
G1 X157.640 Y143.360 E0.4609
G1 X155.640 Y143.360 E0.0998
G1 X155.640 Y142.640 E0.0359
G1 X159.160 Y142.640 E0.1756
G1 X159.160 Y154.592 E0.5963
G1 X159.118 Y155.077 E0.0243
G1 X158.994 Y155.541 E0.0240
G1 X158.791 Y155.977 E0.0240
G1 X158.514 Y156.372 E0.0241
G1 X158.174 Y156.712 E0.0240
G1 X157.779 Y156.989 E0.0241
G1 X157.344 Y157.192 E0.0239
G1 X156.880 Y157.316 E0.0240
G1 X156.390 Y157.360 E0.0245
G1 X143.610 Y157.360 E0.6376
G1 X143.126 Y157.317 E0.0242
G1 X142.659 Y157.194 E0.0241
G1 X142.223 Y156.991 E0.0240
G1 X141.909 Y156.771 E0.0191
G0 F2400 X141.828 Y156.714
M204 S1300.00
M205 X7.00 Y7.00
G0 F1200 X141.757 Y156.643
G0 F1200 X141.687 Y156.573
G0 F7200 X142.526 Y156.545
G0 F7200 X142.626 Y156.542
M204 S1250.00
;TYPE:SOLID-FILL
;WIDTH:0.480
G1 F2400 X141.727 Y155.643 E0.0634
G0 F2400 X141.657 Y155.573
M204 S1300.00
G0 F7200 X141.410 Y154.716
G0 F7200 X141.383 Y154.620
M204 S1250.00
G1 F2400 X143.510 Y156.747 E0.1501
G0 F2400 X143.580 Y156.817
M204 S1300.00
G0 F7200 X143.753 Y156.444
G0 F7200 X143.795 Y156.354
M204 S1250.00
G1 F2400 X141.915 Y154.473 E0.1327
G0 F2400 X141.845 Y154.403
G1 F2400 E-1.0000
M204 S1300.00
G0 F7200 X143.616 Y156.175
G0 F7200 X143.686 Y156.245
M204 S1250.00
;TYPE:SOLID-FILL
;WIDTH:0.480
G1 F2400 E0.9700
G1 F2400 X144.297 Y156.517 E0.0278
G1 X145.049 Y156.589 E0.0172
G1 X145.738 Y156.599 E0.0069
G1 X146.416 Y156.599 E0.0056
G1 X147.095 Y156.599 E0.0056
G1 X147.774 Y156.599 E0.0056
G1 X148.453 Y156.599 E0.0056
G1 X149.132 Y156.599 E0.0056
G1 X149.810 Y156.599 E0.0056
G1 X150.489 Y156.599 E0.0056
G1 X151.168 Y156.599 E0.0056
G1 X151.847 Y156.599 E0.0056
G1 X152.526 Y156.599 E0.0056
G1 X153.205 Y156.599 E0.0056
G1 X153.883 Y156.599 E0.0056
G1 X154.545 Y156.582 E0.0056
G1 X155.170 Y156.529 E0.0080
G1 X155.765 Y156.444 E0.0155
G1 X156.299 Y156.639 E0.0284
G1 F2400 E-1.0000
M204 S1300.00
G0 F7200 X144.423 Y155.832
G0 X142.041 Y154.558
G0 F7200 X141.953 Y154.511
M204 S1250.00
G1 F2400 E0.9700
G1 F2400 X141.681 Y153.900 E0.0277
G1 X141.608 Y153.149 E0.0171
G1 X141.599 Y152.460 E0.0069
G1 X141.599 Y151.781 E0.0056
G1 X141.599 Y151.102 E0.0056
