;Sliced by ideaMaker 4.2.3.5600, 2022-10-13 19:22:25 UTC+0200
;Dimension: 300.000 300.000 400.000 0.400
;Plate Shape: 0
;Origin Center: 0
;Extruder Offset #1: 25.000 0.000
;Filament Diameter #1: 1.750
;Filament Diameter #2: 1.750
;Filament Compensation #1: 100.00
;Filament Compensation #2: 90.00
;Filament Density #1: 1240.00
;Filament Density #2: 1240.00
;Filament Type #1: Sunlu
;Filament Type #2: 
;Filament Name #1: Sunlu Grey PLA
;Filament Name #2: 
;Firmware: Marlin
;Bounding Box: 154.923 176.923 143.073 165.073 0.000 15.850
;Model Gap: 0.000
M92 E415.00000
M221 T0 S100.00
M140 S60.00
M104 T0 S210.00
M109 T0 S210.00
T0
M190 S60.00
M107
G28 ; home all axes
G29 ; Autoleveling processing ; à commenter si M420 actif
;M420 S1 Z10 ; Autolevel enable ; à commenter si G29 actif
;vous avez 2 choix, soit activer le G29 pour faire un autoleveling du plateau avant chaque impression
;C'est la méthode recvommandé par ARtillery3Dexpert.fr
;soit activer la ligne qui commance par M420 pour faire un rappel de la derniere mesure du plateau
;pour gagner du temp ( non recommandé par artillery3Dexpert.fr )
M500 ; sauvegarde eeprom
M117 Purge extruder
G92 E0 ; reset extruder
G1 Z1.0 F3000 ; move z up little to prevent scratching of surface
G1 X2 Y20 Z0.3 F5000.0 ; move to start-line position
G1 X2 Y200.0 Z0.3 F1500.0 E15 ; draw 1st line
G1 X2 Y200.0 Z0.4 F5000.0 ; move to side a little
G1 X2 Y20 Z0.4 F1500.0 E30 ; draw 2nd line
G92 E0 ; reset extruder
G1 Z1.0 F3000 ; move z up little to prevent scratching of surface
;TOTAL_NUM: 1
;PRINTING_TIME: 0
;REMAINING_TIME: 401
M83
;LAYER:0
;Z:0.250
;HEIGHT:0.250
M106 S0
;PRINTING: NON-OBJECT
;PRINTING_ID: -1
G1 F2400 E-1.0000
M204 S1300.00
M205 X7.00 Y7.00
G0 F7200 X156.051 Y148.251
G0 F900 Z0.250
G0 F7200 X156.123 Y148.319
M204 S1250.00
;TYPE:SKIRT
;WIDTH:0.480
G1 F2400 E0.9700
G1 F2400 X160.191 Y144.254 E0.2869
G1 X160.642 Y143.876 E0.0294
G1 X161.142 Y143.564 E0.0294
G1 X161.676 Y143.327 E0.0291
G1 X162.112 Y143.195 E0.0227
G1 X162.800 Y143.084 E0.0348
G1 X163.087 Y143.073 E0.0143
G1 X168.774 Y143.074 E0.2837
G1 X169.394 Y143.127 E0.0310
G1 X169.900 Y143.239 E0.0259
G1 X170.393 Y143.414 E0.0261
G1 X170.978 Y143.722 E0.0330
G1 X171.485 Y144.095 E0.0314
G1 X171.709 Y144.304 E0.0153
G1 X175.741 Y148.339 E0.2846
G1 X176.121 Y148.792 E0.0295
G1 X176.434 Y149.294 E0.0295
G1 X176.648 Y149.769 E0.0260
G1 X176.801 Y150.263 E0.0258
G1 X176.900 Y150.840 E0.0292
G1 X176.923 Y151.237 E0.0198
G1 X176.922 Y156.927 E0.2839
G1 X176.869 Y157.548 E0.0311
G1 X176.738 Y158.121 E0.0293
G1 X176.555 Y158.605 E0.0258
G1 X176.277 Y159.124 E0.0294
G1 X175.938 Y159.590 E0.0287
G1 X175.723 Y159.828 E0.0160
G1 X171.656 Y163.892 E0.2868
G1 X171.209 Y164.268 E0.0291
G1 X170.827 Y164.516 E0.0227
G1 X170.300 Y164.770 E0.0292
G1 X169.601 Y164.982 E0.0364
G1 X169.098 Y165.057 E0.0254
G1 X168.780 Y165.073 E0.0159
G1 X163.070 Y165.072 E0.2849
G1 X162.449 Y165.019 E0.0311
G1 X161.876 Y164.888 E0.0293
G1 X161.392 Y164.705 E0.0258
G1 X160.873 Y164.427 E0.0294
G1 X160.406 Y164.087 E0.0288
G1 X160.154 Y163.858 E0.0170
G1 X156.105 Y159.808 E0.2857
G1 X155.728 Y159.360 E0.0292
G1 X155.480 Y158.978 E0.0227
G1 X155.225 Y158.449 E0.0293
G1 X155.014 Y157.751 E0.0364
G1 X154.939 Y157.248 E0.0254
G1 X154.923 Y156.930 E0.0159
G1 X154.924 Y151.220 E0.2849
G1 X154.977 Y150.599 E0.0311
G1 X155.108 Y150.026 E0.0293
G1 X155.291 Y149.542 E0.0258
G1 X155.569 Y149.023 E0.0294
G1 X155.908 Y148.557 E0.0287
G1 X156.056 Y148.393 E0.0110
G0 F2400 X156.123 Y148.319
M204 S1300.00
G0 F7200 X156.405 Y148.574
G0 F7200 X156.479 Y148.641
M204 S1250.00
G1 F2400 X160.502 Y144.619 E0.2838
G1 X160.899 Y144.281 E0.0260
G1 X161.340 Y144.001 E0.0261
G1 X161.815 Y143.786 E0.0260
G1 X162.251 Y143.654 E0.0227
G1 X162.820 Y143.564 E0.0287
G1 X163.087 Y143.553 E0.0133
G1 X168.774 Y143.554 E0.2837
G1 X169.294 Y143.596 E0.0260
G1 X169.739 Y143.691 E0.0227
G1 X170.232 Y143.866 E0.0261
G1 X170.751 Y144.145 E0.0294
G1 X171.159 Y144.448 E0.0254
G1 X171.370 Y144.643 E0.0143
G1 X175.376 Y148.651 E0.2827
G1 X175.716 Y149.049 E0.0261
G1 X175.996 Y149.491 E0.0261
G1 X176.210 Y149.966 E0.0260
G1 X176.342 Y150.402 E0.0227
G1 X176.426 Y150.917 E0.0260
G1 X176.443 Y151.237 E0.0160
G1 X176.443 Y156.890 E0.2820
G1 X176.400 Y157.444 E0.0277
G1 X176.287 Y157.955 E0.0261
G1 X176.130 Y158.382 E0.0227
G1 X175.887 Y158.844 E0.0260
G1 X175.582 Y159.268 E0.0261
G1 X175.367 Y159.506 E0.0160
G1 X171.345 Y163.527 E0.2837
G1 X170.948 Y163.865 E0.0260
G1 X170.566 Y164.113 E0.0227
G1 X170.095 Y164.336 E0.0260
G1 X169.530 Y164.507 E0.0295
G1 X169.027 Y164.582 E0.0254
G1 X168.760 Y164.593 E0.0133
G1 X163.107 Y164.593 E0.2820
G1 X162.553 Y164.550 E0.0277
G1 X162.042 Y164.437 E0.0261
G1 X161.615 Y164.280 E0.0227
G1 X161.153 Y164.037 E0.0260
G1 X160.729 Y163.732 E0.0261
G1 X160.477 Y163.503 E0.0170
G1 X156.470 Y159.496 E0.2827
G1 X156.131 Y159.099 E0.0260
G1 X155.883 Y158.717 E0.0227
G1 X155.659 Y158.244 E0.0261
G1 X155.489 Y157.680 E0.0294
G1 X155.414 Y157.177 E0.0254
G1 X155.403 Y156.910 E0.0133
G1 X155.403 Y151.257 E0.2820
G1 X155.446 Y150.703 E0.0277
G1 X155.559 Y150.192 E0.0261
G1 X155.716 Y149.765 E0.0227
G1 X155.959 Y149.303 E0.0260
G1 X156.264 Y148.879 E0.0261
G1 X156.412 Y148.715 E0.0110
G0 F2400 X156.479 Y148.641
M204 S1300.00
G0 F7200 X156.759 Y148.899
G0 F7200 X156.832 Y148.966
M204 S1250.00
G1 F2400 X160.816 Y144.982 E0.2811
G1 X161.160 Y144.684 E0.0227
G1 X161.542 Y144.436 E0.0227
G1 X161.954 Y144.245 E0.0227
G1 X162.390 Y144.113 E0.0227
G1 X162.840 Y144.044 E0.0227
G1 X163.107 Y144.033 E0.0133
G1 X168.740 Y144.033 E0.2810
G1 X169.194 Y144.065 E0.0227
G1 X169.639 Y144.160 E0.0227
G1 X170.066 Y144.317 E0.0227
G1 X170.467 Y144.532 E0.0227
G1 X170.834 Y144.801 E0.0227
G1 X171.031 Y144.982 E0.0133
G1 X175.014 Y148.966 E0.2811
G1 X175.313 Y149.310 E0.0227
G1 X175.560 Y149.692 E0.0227
G1 X175.751 Y150.105 E0.0227
G1 X175.883 Y150.541 E0.0227
G1 X175.952 Y150.990 E0.0227
G1 X175.963 Y151.257 E0.0133
G1 X175.963 Y156.890 E0.2810
G1 X175.931 Y157.344 E0.0227
G1 X175.836 Y157.789 E0.0227
G1 X175.679 Y158.216 E0.0227
G1 X175.464 Y158.617 E0.0227
G1 X175.195 Y158.984 E0.0227
G1 X175.014 Y159.181 E0.0133
G1 X171.031 Y163.164 E0.2810
G1 X170.687 Y163.462 E0.0227
G1 X170.305 Y163.710 E0.0227
G1 X169.893 Y163.901 E0.0227
G1 X169.457 Y164.033 E0.0227
G1 X169.007 Y164.102 E0.0227
G1 X168.740 Y164.113 E0.0133
G1 X163.107 Y164.113 E0.2810
G1 X162.653 Y164.081 E0.0227
G1 X162.208 Y163.986 E0.0227
G1 X161.781 Y163.829 E0.0227
G1 X161.380 Y163.614 E0.0227
G1 X161.013 Y163.345 E0.0227
G1 X160.816 Y163.164 E0.0133
G1 X156.832 Y159.181 E0.2811
G1 X156.534 Y158.838 E0.0227
G1 X156.286 Y158.456 E0.0227
G1 X156.095 Y158.043 E0.0227
G1 X155.963 Y157.607 E0.0227
G1 X155.894 Y157.157 E0.0227
G1 X155.883 Y156.890 E0.0133
G1 X155.883 Y151.257 E0.2810
G1 X155.915 Y150.803 E0.0227
G1 X156.010 Y150.358 E0.0227
G1 X156.167 Y149.931 E0.0227
G1 X156.382 Y149.530 E0.0227
G1 X156.651 Y149.163 E0.0227
G1 X156.765 Y149.039 E0.0084
G0 F2400 X156.832 Y148.966
;PRINTING: prodact.STL
;PRINTING_ID: 0
G1 F2400 E-1.0000
M204 S1300.00
G0 F7200 X159.807 Y156.498
G0 F7200 X159.843 Y156.591
M204 S1000.00
M205 X6.00 Y6.00
;TYPE:WALL-INNER
;WIDTH:0.480
G1 F2400 E0.9700
G1 F2400 X159.843 Y151.556 E0.2512
G1 X163.406 Y147.993 E0.2514
G1 X168.441 Y147.993 E0.2512
G1 X172.003 Y151.556 E0.2514
G1 X172.003 Y156.591 E0.2512
G1 X168.441 Y160.153 E0.2513
G1 X163.406 Y160.153 E0.2512
G1 X159.913 Y156.661 E0.2464
G0 F2400 X159.843 Y156.591
G1 F2400 E-1.0000
M204 S1300.00
M205 X7.00 Y7.00
G0 F7200 X159.455 Y156.752
G0 F7200 X159.363 Y156.790
M204 S1000.00
M205 X6.00 Y6.00
;TYPE:WALL-OUTER
;WIDTH:0.480
G1 F2400 E0.9700
G1 F2400 X159.363 Y151.357 E0.2711
G1 X163.207 Y147.513 E0.2712
G1 X168.640 Y147.513 E0.2711
G1 X172.483 Y151.357 E0.2712
G1 X172.483 Y156.790 E0.2711
G1 X168.640 Y160.633 E0.2711
G1 X163.207 Y160.633 E0.2711
G1 X159.433 Y156.860 E0.2662
G0 F2400 X159.363 Y156.790
M204 S1300.00
M205 X7.00 Y7.00
G0 F1200 X159.363 Y156.690
G0 F1200 X159.363 Y156.590
G0 F7200 X159.854 Y156.259
G0 F7200 X159.937 Y156.204
M204 S1250.00
;TYPE:SOLID-FILL
;WIDTH:0.480
G1 F2400 X163.720 Y159.987 E0.2669
G0 F2400 X163.790 Y160.057
M204 S1300.00
G0 F7200 X164.369 Y160.057
G0 F7200 X164.469 Y160.057
M204 S1250.00
G1 F2400 X160.007 Y155.595 E0.3148
G0 F2400 X159.937 Y155.525
M204 S1300.00
G0 F7200 X159.937 Y154.946
G0 F7200 X159.937 Y154.846
M204 S1250.00
G1 F2400 X165.078 Y159.987 E0.3627
G0 F2400 X165.148 Y160.057
M204 S1300.00
G0 F7200 X165.727 Y160.057
G0 F7200 X165.827 Y160.057
M204 S1250.00
G1 F2400 X160.007 Y154.237 E0.4106
G0 F2400 X159.937 Y154.167
M204 S1300.00
G0 F7200 X159.937 Y153.588
G0 F7200 X159.937 Y153.488
M204 S1250.00
G1 F2400 X166.435 Y159.987 E0.4585
G0 F2400 X166.505 Y160.057
M204 S1300.00
G0 F7200 X167.084 Y160.057
G0 F7200 X167.184 Y160.057
M204 S1250.00
G1 F2400 X160.007 Y152.880 E0.5064
G0 F2400 X159.937 Y152.810
M204 S1300.00
G0 F7200 X159.937 Y152.231
G0 F7200 X159.937 Y152.131
M204 S1250.00
G1 F2400 X167.793 Y159.987 E0.5543
G0 F2400 X167.863 Y160.057
M204 S1300.00
G0 F7200 X168.372 Y159.997
G0 F7200 X168.471 Y159.986
M204 S1250.00
G1 F2400 X160.079 Y151.593 E0.5921
G0 F2400 X160.009 Y151.523
M204 S1300.00
G0 F7200 X160.278 Y151.254
G0 F7200 X160.348 Y151.184
M204 S1250.00
G1 F2400 X168.741 Y159.577 E0.5922
G0 F2400 X168.811 Y159.647
M204 S1300.00
G0 F7200 X169.080 Y159.377
G0 F7200 X169.150 Y159.307
M204 S1250.00
G1 F2400 X160.757 Y150.914 E0.5922
G0 F2400 X160.687 Y150.844
M204 S1300.00
G0 F7200 X160.957 Y150.575
G0 F7200 X161.027 Y150.505
M204 S1250.00
G1 F2400 X169.419 Y158.898 E0.5921
G0 F2400 X169.489 Y158.968
M204 S1300.00
G0 F7200 X169.759 Y158.698
G0 F7200 X169.829 Y158.628
M204 S1250.00
G1 F2400 X161.436 Y150.236 E0.5921
G0 F2400 X161.366 Y150.166
M204 S1300.00
G0 F7200 X161.636 Y149.896
G0 F7200 X161.706 Y149.826
M204 S1250.00
G1 F2400 X170.098 Y158.219 E0.5921
G0 F2400 X170.168 Y158.289
M204 S1300.00
G0 F7200 X170.438 Y158.019
G0 F7200 X170.508 Y157.949
M204 S1250.00
G1 F2400 X162.115 Y149.557 E0.5921
G0 F2400 X162.045 Y149.487
M204 S1300.00
G0 F7200 X162.314 Y149.217
G0 F7200 X162.384 Y149.147
M204 S1250.00
G1 F2400 X170.777 Y157.540 E0.5922
G0 F2400 X170.847 Y157.610
M204 S1300.00
G0 F7200 X171.117 Y157.341
G0 F7200 X171.187 Y157.271
M204 S1250.00
G1 F2400 X162.794 Y148.878 E0.5922
G0 F2400 X162.724 Y148.808
M204 S1300.00
G0 F7200 X162.993 Y148.539
G0 F7200 X163.063 Y148.469
M204 S1250.00
G1 F2400 X171.456 Y156.861 E0.5921
G0 F2400 X171.526 Y156.931
M204 S1300.00
G0 F7200 X171.795 Y156.662
G0 F7200 X171.865 Y156.592
M204 S1250.00
G1 F2400 X163.473 Y148.199 E0.5921
G0 F2400 X163.403 Y148.129
M204 S1300.00
G0 F7200 X163.941 Y148.094
G0 F7200 X164.040 Y148.088
M204 S1250.00
G1 F2400 X171.836 Y155.883 E0.5500
G0 F2400 X171.906 Y155.953
M204 S1300.00
G0 F7200 X171.906 Y155.374
G0 F7200 X171.906 Y155.274
M204 S1250.00
G1 F2400 X164.789 Y148.158 E0.5021
G0 F2400 X164.719 Y148.088
M204 S1300.00
G0 F7200 X165.298 Y148.088
G0 F7200 X165.398 Y148.088
M204 S1250.00
G1 F2400 X171.836 Y154.526 E0.4542
G0 F2400 X171.906 Y154.596
M204 S1300.00
G0 F7200 X171.906 Y154.017
G0 F7200 X171.906 Y153.917
M204 S1250.00
G1 F2400 X166.147 Y148.158 E0.4063
G0 F2400 X166.077 Y148.088
M204 S1300.00
G0 F7200 X166.656 Y148.088
G0 F7200 X166.756 Y148.088
M204 S1250.00
G1 F2400 X171.836 Y153.168 E0.3584
G0 F2400 X171.906 Y153.238
M204 S1300.00
G0 F7200 X171.906 Y152.659
G0 F7200 X171.906 Y152.559
M204 S1250.00
G1 F2400 X167.505 Y148.158 E0.3105
G0 F2400 X167.435 Y148.088
M204 S1300.00
G0 F7200 X168.013 Y148.088
G0 F7200 X168.113 Y148.088
M204 S1250.00
G1 F2400 X171.836 Y151.810 E0.2626
G0 F2400 X171.906 Y151.880
;PRINTING_TIME: 18
;REMAINING_TIME: 383
;LAYER:1
;Z:0.450
;HEIGHT:0.200
M106 S128
;PRINTING: prodact.STL
;PRINTING_ID: 0
G1 F2400 E-1.0000
M204 S1300.00
G0 F900 Z0.450
G0 F7200 X159.816 Y156.606
G0 F7200 X159.723 Y156.642
M204 S1000.00
M205 X6.00 Y6.00
;TYPE:WALL-INNER
;WIDTH:0.400
G1 F2400 E0.9700
G1 F2600 X159.723 Y151.505 E0.1709
G1 X163.355 Y147.873 E0.1708
G1 X168.492 Y147.873 E0.1709
G1 X172.123 Y151.505 E0.1708
G1 X172.123 Y156.642 E0.1709
G1 X168.492 Y160.273 E0.1708
G1 X163.355 Y160.273 E0.1709
G1 X159.793 Y156.712 E0.1675
G0 F2600 X159.723 Y156.642
G1 F2400 E-1.0000
M204 S1300.00
M205 X7.00 Y7.00
G0 F7200 X159.415 Y156.770
G0 F7200 X159.323 Y156.808
M204 S1000.00
M205 X6.00 Y6.00
;TYPE:WALL-OUTER
;WIDTH:0.400
G1 F2400 E0.9700
G1 F2400 X159.323 Y151.339 E0.1819
G1 X163.189 Y147.473 E0.1818
G1 X168.658 Y147.473 E0.1819
G1 X172.523 Y151.339 E0.1818
G1 X172.523 Y156.808 E0.1819
G1 X168.658 Y160.673 E0.1818
G1 X163.189 Y160.673 E0.1819
G1 X159.393 Y156.878 E0.1785
G0 F2400 X159.323 Y156.808
M204 S1300.00
M205 X7.00 Y7.00
G0 F1200 X159.323 Y156.708
G0 F1200 X159.323 Y156.608
G1 F2400 E-1.0000
G0 F7200 X159.423 Y156.608
G0 X163.496 Y148.242
G0 F7200 X163.539 Y148.153
M204 S1250.00
;TYPE:SOLID-FILL
;WIDTH:0.400
G1 F2400 E0.9700
G1 F3200 X160.002 Y151.690 E0.1664
G1 X160.002 Y152.256 E0.0188
G1 X164.105 Y148.153 E0.1930
G1 X164.671 Y148.153 E0.0188
G1 X160.002 Y152.822 E0.2196
G1 X160.002 Y153.387 E0.0188
G1 X165.236 Y148.153 E0.2462
G1 X165.802 Y148.153 E0.0188
G1 X160.002 Y153.953 E0.2728
G1 X160.002 Y154.519 E0.0188
G1 X166.368 Y148.153 E0.2994
G1 X166.933 Y148.153 E0.0188
G1 X160.002 Y155.084 E0.3260
G1 X160.002 Y155.650 E0.0188
G1 X167.499 Y148.153 E0.3526
G1 X168.065 Y148.153 E0.0188
G1 X160.002 Y156.216 E0.3793
G1 X160.002 Y156.527 E0.0103
G1 X160.129 Y156.654 E0.0060
G1 X168.502 Y148.280 E0.3939
G1 X168.785 Y148.563 E0.0133
G1 X160.412 Y156.937 E0.3939
G1 X160.694 Y157.220 E0.0133
G1 X169.068 Y148.846 E0.3939
G1 X169.351 Y149.129 E0.0133
G1 X160.977 Y157.503 E0.3939
G1 X161.260 Y157.785 E0.0133
G1 X169.634 Y149.412 E0.3939
G1 X169.917 Y149.695 E0.0133
G1 X161.543 Y158.068 E0.3939
G1 X161.826 Y158.351 E0.0133
G1 X170.199 Y149.978 E0.3938
G1 X170.482 Y150.260 E0.0133
G1 X162.109 Y158.634 E0.3939
G1 X162.392 Y158.917 E0.0133
G1 X170.765 Y150.543 E0.3939
G1 X171.048 Y150.826 E0.0133
G1 X162.674 Y159.200 E0.3939
G1 X162.957 Y159.482 E0.0133
G1 X171.331 Y151.109 E0.3939
G1 X171.614 Y151.392 E0.0133
G1 X163.240 Y159.765 E0.3939
G1 X163.468 Y159.992 E0.0107
G1 X163.579 Y159.992 E0.0037
G1 X171.841 Y151.730 E0.3886
G1 X171.841 Y152.295 E0.0188
G1 X164.144 Y159.992 E0.3620
G1 X164.710 Y159.992 E0.0188
G1 X171.841 Y152.861 E0.3354
G1 X171.841 Y153.427 E0.0188
G1 X165.276 Y159.992 E0.3088
G1 X165.841 Y159.992 E0.0188
G1 X171.841 Y153.993 E0.2822
G1 X171.841 Y154.558 E0.0188
G1 X166.407 Y159.992 E0.2556
G1 X166.973 Y159.992 E0.0188
G1 X171.841 Y155.124 E0.2290
G1 X171.841 Y155.690 E0.0188
G1 X167.539 Y159.992 E0.2024
G1 X168.104 Y159.992 E0.0188
G1 X171.771 Y156.325 E0.1725
G0 F3200 X171.841 Y156.255
M204 S1300.00
G0 F7200 X171.937 Y156.370
G0 F7200 X172.001 Y156.447
M204 S1000.00
M205 X6.00 Y6.00
;TYPE:SOLID-FILL
;WIDTH:0.183
G1 F2600 X171.951 Y156.571 E0.0020
G1 X168.421 Y160.101 E0.0760
G1 X168.390 Y160.114 E0.0005
G0 F2600 X168.359 Y160.126
G0 F2600 X168.298 Y160.152
G1 F2400 E-1.0000
M204 S1300.00
M205 X7.00 Y7.00
G0 F7200 X171.912 Y156.468
G0 F7200 X171.982 Y156.397
M204 S1250.00
;TYPE:SOLID-FILL
;WIDTH:0.400
G1 F2400 E0.9700
G1 F2600 X172.042 Y156.337 E0.0028
G1 F2400 E-1.0000
M204 S1300.00
G0 F7200 X163.527 Y148.021
G0 F7200 X163.456 Y147.952
M204 S1250.00
G1 F2400 E0.9700
G1 F2600 X163.397 Y148.012 E0.0028
;PRINTING_TIME: 29
;REMAINING_TIME: 372
;LAYER:2
;Z:0.650
;HEIGHT:0.200
M106 S255
;PRINTING: prodact.STL
;PRINTING_ID: 0
G1 F2400 E-1.0000
M204 S1300.00
G0 F900 Z0.650
G0 F7200 X159.762 Y156.550
G0 F7200 X159.723 Y156.642
M204 S1000.00
M205 X6.00 Y6.00
;TYPE:WALL-INNER
;WIDTH:0.400
G1 F2400 E0.9700
G1 F2800 X159.723 Y151.505 E0.1709
G1 X163.355 Y147.873 E0.1708
G1 X168.492 Y147.873 E0.1709
G1 X172.123 Y151.505 E0.1708
G1 X172.123 Y156.642 E0.1709
G1 X168.492 Y160.273 E0.1708
G1 X163.355 Y160.273 E0.1709
G1 X159.793 Y156.712 E0.1675
G0 F2800 X159.723 Y156.642
G1 F2400 E-1.0000
M204 S1300.00
M205 X7.00 Y7.00
G0 F7200 X159.415 Y156.770
G0 F7200 X159.323 Y156.808
M204 S1000.00
M205 X6.00 Y6.00
;TYPE:WALL-OUTER
;WIDTH:0.400
