;Sliced by ideaMaker 4.2.3.5600, 2022-10-12 11:31:58 UTC+0200
;Dimension: 300.000 300.000 400.000 0.400
;Plate Shape: 0
;Origin Center: 0
;Extruder Offset #1: 25.000 0.000
;Filament Diameter #1: 1.750
;Filament Diameter #2: 1.750
;Filament Compensation #1: 100.00
;Filament Compensation #2: 90.00
;Filament Density #1: 1240.00
;Filament Density #2: 1240.00
;Filament Type #1: Sunlu
;Filament Type #2: 
;Filament Name #1: Sunlu Grey PLA
;Filament Name #2: 
;Firmware: Marlin
;Bounding Box: 134.640 165.460 139.247 160.960 0.000 36.850
;Model Gap: 0.000
M92 E415.00000
M221 T0 S100.00
M140 S60.00
M104 T0 S210.00
M109 T0 S210.00
T0
M190 S60.00
M107
G28 ; home all axes
G29 ; Autoleveling processing ; à commenter si M420 actif
;M420 S1 Z10 ; Autolevel enable ; à commenter si G29 actif
;vous avez 2 choix, soit activer le G29 pour faire un autoleveling du plateau avant chaque impression
;C'est la méthode recvommandé par ARtillery3Dexpert.fr
;soit activer la ligne qui commance par M420 pour faire un rappel de la derniere mesure du plateau
;pour gagner du temp ( non recommandé par artillery3Dexpert.fr )
M500 ; sauvegarde eeprom
M117 Purge extruder
G92 E0 ; reset extruder
G1 Z1.0 F3000 ; move z up little to prevent scratching of surface
G1 X2 Y20 Z0.3 F5000.0 ; move to start-line position
G1 X2 Y200.0 Z0.3 F1500.0 E15 ; draw 1st line
G1 X2 Y200.0 Z0.4 F5000.0 ; move to side a little
G1 X2 Y20 Z0.4 F1500.0 E30 ; draw 2nd line
G92 E0 ; reset extruder
G1 Z1.0 F3000 ; move z up little to prevent scratching of surface
;TOTAL_NUM: 1
;PRINTING_TIME: 0
;REMAINING_TIME: 1555
M83
;LAYER:0
;Z:0.250
;HEIGHT:0.250
M106 S0
;PRINTING: NON-OBJECT
;PRINTING_ID: -1
G1 F2400 E-1.0000
M204 S1300.00
M205 X7.00 Y7.00
G0 F7200 X139.877 Y140.849
G0 F900 Z0.250
G0 F7200 X139.947 Y140.919
M204 S1250.00
;TYPE:SKIRT
;WIDTH:0.480
G1 F2400 E0.9700
G1 F2400 X140.524 Y140.472 E0.0364
G1 X140.979 Y140.217 E0.0260
G1 X141.458 Y140.022 E0.0258
G1 X142.024 Y139.875 E0.0292
G1 X142.800 Y139.800 E0.0389
G1 X145.544 Y139.800 E0.1369
G1 X145.864 Y139.627 E0.0181
G1 X146.418 Y139.420 E0.0295
G1 X147.001 Y139.292 E0.0298
G1 X147.570 Y139.247 E0.0285
G1 X152.395 Y139.247 E0.2407
G1 X153.053 Y139.301 E0.0329
G1 X153.564 Y139.414 E0.0261
G1 X154.053 Y139.589 E0.0259
G1 X154.463 Y139.800 E0.0230
G1 X157.273 Y139.803 E0.1402
G1 X157.858 Y139.854 E0.0293
G1 X158.431 Y139.985 E0.0293
G1 X158.915 Y140.168 E0.0258
G1 X159.377 Y140.411 E0.0260
G1 X159.858 Y140.751 E0.0294
G1 X160.335 Y141.209 E0.0330
G1 X160.735 Y141.736 E0.0330
G1 X160.989 Y142.193 E0.0261
G1 X161.182 Y142.673 E0.0258
G1 X161.341 Y143.317 E0.0331
G1 X161.400 Y144.000 E0.0342
G1 X161.400 Y145.954 E0.0975
G1 X161.676 Y146.095 E0.0155
G1 X162.132 Y146.372 E0.0266
G1 X162.668 Y146.815 E0.0347
G1 X163.599 Y147.742 E0.0655
G1 X164.011 Y148.223 E0.0316
G1 X164.213 Y148.524 E0.0181
G1 X164.326 Y148.729 E0.0117
G1 X164.499 Y148.950 E0.0140
G1 X164.802 Y149.457 E0.0295
G1 X165.028 Y149.996 E0.0292
G1 X165.151 Y150.434 E0.0227
G1 X165.198 Y150.742 E0.0155
G1 X165.319 Y151.108 E0.0192
G1 X165.421 Y151.620 E0.0260
G1 X165.460 Y152.180 E0.0280
G1 X165.460 Y153.617 E0.0717
G1 X165.406 Y154.275 E0.0329
G1 X165.295 Y154.777 E0.0256
G1 X165.207 Y155.041 E0.0139
G1 X165.187 Y155.187 E0.0074
G1 X165.084 Y155.630 E0.0227
G1 X164.879 Y156.181 E0.0293
G1 X164.601 Y156.698 E0.0293
G1 X164.335 Y157.051 E0.0221
G1 X164.212 Y157.280 E0.0130
G1 X163.919 Y157.698 E0.0255
G1 X163.645 Y158.010 E0.0207
G1 X162.649 Y159.004 E0.0702
G1 X162.250 Y159.343 E0.0261
G1 X161.770 Y159.650 E0.0284
G1 X161.547 Y159.831 E0.0143
G1 X161.128 Y160.101 E0.0249
G1 X160.556 Y160.384 E0.0318
G1 X159.980 Y160.571 E0.0302
G1 X158.840 Y160.848 E0.0585
G1 X158.301 Y160.937 E0.0273
G1 X157.875 Y160.960 E0.0213
G1 X152.440 Y160.953 E0.2712
G1 X151.920 Y160.918 E0.0260
G1 X151.206 Y160.764 E0.0364
G1 X150.719 Y160.579 E0.0260
G1 X150.200 Y160.300 E0.0294
G1 X149.849 Y160.047 E0.0216
G1 X149.576 Y160.251 E0.0170
G1 X149.060 Y160.543 E0.0296
G1 X148.442 Y160.780 E0.0330
G1 X147.859 Y160.907 E0.0298
G1 X147.256 Y160.954 E0.0302
G1 X142.336 Y160.954 E0.2455
G1 X141.720 Y160.900 E0.0309
G1 X140.165 Y160.639 E0.0787
G1 X139.722 Y160.532 E0.0227
G1 X139.263 Y160.366 E0.0244
G1 X138.853 Y160.169 E0.0227
G1 X138.362 Y159.851 E0.0292
G1 X137.877 Y159.423 E0.0323
G1 X137.508 Y159.188 E0.0218
G1 X137.059 Y158.811 E0.0292
G1 X136.252 Y158.005 E0.0569
G1 X135.926 Y157.626 E0.0249
G1 X135.765 Y157.400 E0.0138
G1 X135.598 Y157.112 E0.0166
G1 X135.479 Y156.963 E0.0095
G1 X135.231 Y156.581 E0.0227
G1 X134.994 Y156.101 E0.0267
G1 X134.782 Y155.494 E0.0321
G1 X134.672 Y154.921 E0.0291
G1 X134.640 Y154.418 E0.0251
G1 X134.643 Y151.311 E0.1550
G1 X134.694 Y150.730 E0.0291
G1 X134.789 Y150.285 E0.0227
G1 X135.006 Y149.671 E0.0325
G1 X135.277 Y149.141 E0.0297
G1 X135.589 Y148.701 E0.0269
G1 X135.690 Y148.517 E0.0105
G1 X135.986 Y148.096 E0.0257
G1 X136.298 Y147.745 E0.0234
G1 X137.003 Y147.041 E0.0497
G1 X137.394 Y146.699 E0.0259
G1 X138.086 Y146.260 E0.0409
G1 X138.607 Y145.999 E0.0291
G1 X138.601 Y143.978 E0.1008
G1 X138.651 Y143.354 E0.0312
G1 X138.764 Y142.845 E0.0260
G1 X138.937 Y142.358 E0.0258
G1 X139.280 Y141.713 E0.0364
G1 X139.631 Y141.246 E0.0291
G1 X139.878 Y140.991 E0.0177
G0 F2400 X139.947 Y140.919
M204 S1300.00
G0 F7200 X140.221 Y141.184
G0 F7200 X140.292 Y141.253
M204 S1250.00
G1 F2400 X140.759 Y140.891 E0.0295
G1 X141.214 Y140.636 E0.0260
G1 X141.636 Y140.468 E0.0227
G1 X142.142 Y140.340 E0.0260
G1 X142.800 Y140.280 E0.0330
G1 X145.670 Y140.280 E0.1432
G1 X146.036 Y140.075 E0.0209
G1 X146.524 Y139.888 E0.0261
G1 X147.039 Y139.771 E0.0263
G1 X147.608 Y139.726 E0.0285
G1 X152.395 Y139.727 E0.2388
G1 X152.949 Y139.770 E0.0277
G1 X153.460 Y139.883 E0.0261
G1 X153.887 Y140.040 E0.0227
G1 X154.343 Y140.280 E0.0257
G1 X157.234 Y140.281 E0.1442
G1 X157.754 Y140.323 E0.0260
G1 X158.265 Y140.436 E0.0261
G1 X158.692 Y140.593 E0.0227
G1 X159.154 Y140.836 E0.0260
G1 X159.578 Y141.141 E0.0261
G1 X159.955 Y141.502 E0.0260
G1 X160.315 Y141.969 E0.0294
G1 X160.569 Y142.426 E0.0261
G1 X160.736 Y142.849 E0.0227
G1 X160.874 Y143.428 E0.0297
G1 X160.920 Y144.000 E0.0286
G1 X160.920 Y146.000 E0.0998
G1 X160.901 Y146.239 E0.0120
G1 X161.427 Y146.505 E0.0294
G1 X161.883 Y146.782 E0.0266
G1 X162.359 Y147.182 E0.0310
G1 X163.260 Y148.082 E0.0635
G1 X163.614 Y148.492 E0.0270
G1 X163.793 Y148.756 E0.0159
G1 X163.927 Y148.999 E0.0138
G1 X164.089 Y149.200 E0.0129
G1 X164.361 Y149.646 E0.0261
G1 X164.566 Y150.126 E0.0260
G1 X164.689 Y150.564 E0.0227
G1 X164.728 Y150.852 E0.0145
G1 X164.848 Y151.202 E0.0185
G1 X164.950 Y151.714 E0.0260
G1 X164.980 Y152.180 E0.0233
G1 X164.980 Y153.617 E0.0717
G1 X164.937 Y154.171 E0.0277
G1 X164.826 Y154.673 E0.0256
G1 X164.736 Y154.933 E0.0137
G1 X164.719 Y155.078 E0.0073
G1 X164.616 Y155.521 E0.0227
G1 X164.430 Y156.011 E0.0261
G1 X164.180 Y156.468 E0.0260
G1 X163.932 Y156.787 E0.0202
G1 X163.817 Y157.007 E0.0124
G1 X163.558 Y157.381 E0.0227
G1 X163.284 Y157.693 E0.0207
G1 X162.335 Y158.641 E0.0669
G1 X161.991 Y158.939 E0.0227
G1 X161.485 Y159.263 E0.0300
G1 X161.287 Y159.428 E0.0129
G1 X160.868 Y159.698 E0.0249
G1 X160.346 Y159.952 E0.0290
G1 X159.866 Y160.105 E0.0251
G1 X158.762 Y160.374 E0.0567
G1 X158.223 Y160.463 E0.0273
G1 X157.876 Y160.480 E0.0173
G1 X152.441 Y160.473 E0.2712
G1 X151.953 Y160.439 E0.0244
G1 X151.376 Y160.315 E0.0294
G1 X150.889 Y160.130 E0.0260
G1 X150.431 Y159.879 E0.0261
G1 X150.064 Y159.609 E0.0227
G1 X149.851 Y159.407 E0.0146
G1 X149.697 Y159.558 E0.0108
G1 X149.336 Y159.835 E0.0227
G1 X148.884 Y160.096 E0.0260
G1 X148.336 Y160.312 E0.0294
G1 X147.821 Y160.429 E0.0263
G1 X147.256 Y160.474 E0.0283
G1 X142.377 Y160.476 E0.2434
G1 X141.799 Y160.427 E0.0289
G1 X140.278 Y160.172 E0.0769
G1 X139.835 Y160.065 E0.0227
G1 X139.471 Y159.933 E0.0193
G1 X139.061 Y159.736 E0.0227
G1 X138.625 Y159.450 E0.0260
G1 X138.164 Y159.036 E0.0309
G1 X137.817 Y158.820 E0.0204
G1 X137.368 Y158.443 E0.0292
G1 X136.615 Y157.691 E0.0531
G1 X136.317 Y157.347 E0.0227
G1 X136.156 Y157.121 E0.0138
G1 X135.992 Y156.836 E0.0164
G1 X135.882 Y156.702 E0.0086
G1 X135.634 Y156.320 E0.0227
G1 X135.446 Y155.939 E0.0212
G1 X135.253 Y155.400 E0.0286
G1 X135.151 Y154.889 E0.0260
G1 X135.120 Y154.418 E0.0235
G1 X135.121 Y151.350 E0.1531
G1 X135.163 Y150.830 E0.0260
G1 X135.258 Y150.385 E0.0227
G1 X135.435 Y149.886 E0.0264
G1 X135.669 Y149.418 E0.0261
G1 X135.996 Y148.956 E0.0282
G1 X136.083 Y148.793 E0.0092
G1 X136.379 Y148.372 E0.0257
G1 X136.637 Y148.085 E0.0193
G1 X137.342 Y147.381 E0.0497
G1 X137.709 Y147.061 E0.0243
G1 X138.301 Y146.689 E0.0349
G1 X139.110 Y146.283 E0.0452
G1 X139.087 Y146.013 E0.0135
G1 X139.080 Y144.013 E0.0998
G1 X139.120 Y143.458 E0.0278
G1 X139.233 Y142.949 E0.0260
G1 X139.388 Y142.521 E0.0227
G1 X139.665 Y141.999 E0.0295
G1 X139.976 Y141.580 E0.0260
G1 X140.223 Y141.325 E0.0177
G0 F2400 X140.292 Y141.253
M204 S1300.00
G0 F7200 X140.566 Y141.518
G0 F7200 X140.637 Y141.587
M204 S1250.00
G1 F2400 X140.997 Y141.308 E0.0227
G1 X141.392 Y141.082 E0.0227
G1 X141.814 Y140.914 E0.0227
G1 X142.256 Y140.806 E0.0227
G1 X142.800 Y140.760 E0.0272
G1 X145.798 Y140.760 E0.1496
G1 X146.212 Y140.522 E0.0238
G1 X146.636 Y140.355 E0.0227
G1 X147.078 Y140.249 E0.0227
G1 X147.608 Y140.206 E0.0265
G1 X152.395 Y140.207 E0.2388
G1 X152.849 Y140.239 E0.0227
G1 X153.294 Y140.334 E0.0227
G1 X153.721 Y140.491 E0.0227
G1 X154.122 Y140.706 E0.0227
G1 X154.196 Y140.760 E0.0046
G1 X157.200 Y140.760 E0.1499
G1 X157.654 Y140.792 E0.0227
G1 X158.099 Y140.887 E0.0227
G1 X158.526 Y141.044 E0.0227
G1 X158.927 Y141.259 E0.0227
G1 X159.294 Y141.528 E0.0227
G1 X159.620 Y141.846 E0.0227
G1 X159.898 Y142.206 E0.0227
G1 X160.123 Y142.602 E0.0227
G1 X160.290 Y143.025 E0.0227
G1 X160.396 Y143.468 E0.0227
G1 X160.440 Y144.000 E0.0266
G1 X160.440 Y146.000 E0.0998
G1 X160.394 Y146.522 E0.0261
G1 X161.183 Y146.918 E0.0440
G1 X161.575 Y147.150 E0.0227
G1 X162.020 Y147.522 E0.0289
G1 X162.921 Y148.422 E0.0635
G1 X163.219 Y148.765 E0.0227
G1 X163.373 Y148.988 E0.0135
G1 X163.530 Y149.272 E0.0162
G1 X163.681 Y149.453 E0.0118
G1 X163.921 Y149.839 E0.0227
G1 X164.104 Y150.256 E0.0227
G1 X164.227 Y150.694 E0.0227
G1 X164.257 Y150.962 E0.0135
G1 X164.378 Y151.300 E0.0179
G1 X164.471 Y151.746 E0.0227
G1 X164.500 Y152.180 E0.0217
G1 X164.500 Y153.617 E0.0717
G1 X164.468 Y154.071 E0.0227
G1 X164.373 Y154.516 E0.0227
G1 X164.263 Y154.833 E0.0167
G1 X164.251 Y154.969 E0.0068
G1 X164.148 Y155.412 E0.0227
G1 X163.983 Y155.837 E0.0227
G1 X163.761 Y156.234 E0.0227
G1 X163.525 Y156.528 E0.0188
G1 X163.422 Y156.734 E0.0115
G1 X163.163 Y157.108 E0.0227
G1 X162.926 Y157.373 E0.0177
G1 X162.021 Y158.278 E0.0639
G1 X161.677 Y158.576 E0.0227
G1 X161.200 Y158.875 E0.0281
G1 X161.027 Y159.025 E0.0114
G1 X160.608 Y159.295 E0.0249
G1 X160.199 Y159.495 E0.0227
G1 X159.752 Y159.639 E0.0234
G1 X158.648 Y159.908 E0.0567
G1 X158.199 Y159.984 E0.0227
G1 X157.877 Y160.000 E0.0161
G1 X152.442 Y159.993 E0.2712
G1 X151.988 Y159.960 E0.0227
G1 X151.543 Y159.865 E0.0227
G1 X151.116 Y159.707 E0.0227
G1 X150.715 Y159.492 E0.0227
G1 X150.348 Y159.222 E0.0227
G1 X150.023 Y158.904 E0.0227
G1 X149.850 Y158.678 E0.0142
G1 X149.723 Y158.851 E0.0107
G1 X149.405 Y159.177 E0.0227
G1 X149.044 Y159.454 E0.0227
G1 X148.648 Y159.678 E0.0227
G1 X148.224 Y159.845 E0.0227
G1 X147.782 Y159.951 E0.0227
G1 X147.256 Y159.994 E0.0263
G1 X142.416 Y159.998 E0.2415
G1 X141.878 Y159.954 E0.0269
G1 X140.391 Y159.705 E0.0752
G1 X139.948 Y159.598 E0.0227
G1 X139.679 Y159.500 E0.0143
G1 X139.269 Y159.303 E0.0227
G1 X138.891 Y159.051 E0.0227
G1 X138.452 Y158.649 E0.0297
G1 X138.071 Y158.412 E0.0224
G1 X137.679 Y158.078 E0.0257
G1 X136.978 Y157.377 E0.0495
G1 X136.680 Y157.033 E0.0227
G1 X136.549 Y156.846 E0.0114
G1 X136.385 Y156.555 E0.0167
G1 X136.285 Y156.441 E0.0076
G1 X136.037 Y156.059 E0.0227
G1 X135.878 Y155.730 E0.0182
G1 X135.723 Y155.302 E0.0227
G1 X135.630 Y154.856 E0.0227
G1 X135.600 Y154.418 E0.0219
G1 X135.600 Y151.384 E0.1514
G1 X135.632 Y150.930 E0.0227
G1 X135.727 Y150.485 E0.0227
G1 X135.866 Y150.097 E0.0206
G1 X136.066 Y149.688 E0.0227
G1 X136.322 Y149.312 E0.0227
G1 X136.398 Y149.227 E0.0057
G1 X136.478 Y149.066 E0.0090
G1 X136.737 Y148.692 E0.0227
G1 X136.976 Y148.425 E0.0179
G1 X137.681 Y147.721 E0.0497
G1 X138.024 Y147.423 E0.0227
G1 X138.516 Y147.118 E0.0289
G1 X139.619 Y146.564 E0.0616
G1 X139.567 Y146.011 E0.0277
G1 X139.560 Y144.011 E0.0998
G1 X139.590 Y143.557 E0.0227
G1 X139.684 Y143.112 E0.0227
G1 X139.839 Y142.684 E0.0227
G1 X140.053 Y142.282 E0.0227
G1 X140.321 Y141.914 E0.0227
G1 X140.568 Y141.659 E0.0177
G0 F2400 X140.637 Y141.587
;PRINTING: support IR.STL
;PRINTING_ID: 0
G1 F2400 E-1.0000
M204 S1300.00
G0 F7200 X143.463 Y145.202
G0 F7200 X143.524 Y145.280
M204 S1000.00
M205 X6.00 Y6.00
;TYPE:WALL-INNER
;WIDTH:0.480
G1 F2400 E0.9700
G1 F2400 X143.523 Y144.720 E0.0279
G1 X145.280 Y144.720 E0.0877
G1 X145.280 Y145.280 E0.0279
G1 X143.624 Y145.280 E0.0826
G0 F2400 X143.524 Y145.280
G1 F2400 E-1.0000
M204 S1300.00
M205 X7.00 Y7.00
G0 F7200 X143.116 Y145.690
G0 F7200 X143.046 Y145.760
M204 S1000.00
M205 X6.00 Y6.00
;TYPE:WALL-OUTER
;WIDTH:0.480
G1 F2400 E0.9700
G1 F2400 X143.041 Y144.240 E0.0758
G1 X145.760 Y144.240 E0.1357
G1 X145.760 Y146.240 E0.0998
G1 X146.460 Y146.240 E0.0349
G1 X146.460 Y149.060 E0.1407
G1 X143.040 Y149.060 E0.1706
G1 X143.040 Y148.345 E0.0357
G1 X145.640 Y148.339 E0.1297
G1 X145.640 Y145.760 E0.1287
G1 X143.146 Y145.760 E0.1244
G0 F2400 X143.046 Y145.760
M204 S1300.00
M205 X7.00 Y7.00
G0 F1200 X143.046 Y145.660
G0 F1200 X143.046 Y145.560
G1 F2400 E-1.0000
G0 F7200 X145.309 Y145.811
G0 X145.976 Y146.413
G0 F7200 X146.050 Y146.480
M204 S1000.00
M205 X6.00 Y6.00
;TYPE:SOLID-FILL
;WIDTH:0.340
G1 F2400 E0.9700
G1 F2400 X146.050 Y148.578 E0.0741
G1 X146.043 Y148.643 E0.0023
G1 X145.988 Y148.661 E0.0020
G1 X145.934 Y148.680 E0.0020
;WIDTH:0.279
G1 X145.880 Y148.699 E0.0017
G1 X143.380 Y148.702 E0.0725
G0 F2400 X143.280 Y148.702
G1 F2400 E-1.0000
M204 S1300.00
M205 X7.00 Y7.00
G0 F7200 X154.625 Y145.308
G0 F7200 X154.720 Y145.280
M204 S1000.00
M205 X6.00 Y6.00
;TYPE:WALL-INNER
;WIDTH:0.480
G1 F2400 E0.9700
G1 F2400 X154.720 Y144.720 E0.0279
G1 X156.480 Y144.720 E0.0878
G1 X156.480 Y145.280 E0.0279
G1 X154.820 Y145.280 E0.0828
G0 F2400 X154.720 Y145.280
G1 F2400 E-1.0000
M204 S1300.00
M205 X7.00 Y7.00
G0 F7200 X154.420 Y145.680
G0 F7200 X154.360 Y145.760
M204 S1000.00
M205 X6.00 Y6.00
;TYPE:WALL-OUTER
;WIDTH:0.480
G1 F2400 E0.9700
G1 F2400 X154.360 Y148.340 E0.1287
G1 X156.960 Y148.340 E0.1297
G1 X156.960 Y149.054 E0.0356
G1 X153.540 Y149.060 E0.1706
G1 X153.540 Y146.240 E0.1407
G1 X154.240 Y146.240 E0.0349
G1 X154.240 Y144.240 E0.0998
G1 X156.960 Y144.240 E0.1357
G1 X156.960 Y145.760 E0.0758
G1 X154.460 Y145.760 E0.1247
G0 F2400 X154.360 Y145.760
M204 S1300.00
M205 X7.00 Y7.00
G0 F1200 X154.360 Y145.860
G0 F1200 X154.360 Y145.960
G0 F7200 X154.011 Y146.402
G0 F7200 X153.950 Y146.480
M204 S1000.00
M205 X6.00 Y6.00
;TYPE:SOLID-FILL
;WIDTH:0.352
G1 F2400 X153.950 Y148.580 E0.0768
G1 X153.955 Y148.643 E0.0023
G1 X154.119 Y148.699 E0.0063
;WIDTH:0.240
G1 X156.620 Y148.696 E0.0624
G0 F2400 X156.720 Y148.696
;PRINTING: NON-OBJECT
;PRINTING_ID: -1
G1 F2400 E-1.0000
M204 S1300.00
M205 X7.00 Y7.00
G0 F7200 X158.272 Y150.360
G0 F7200 X158.340 Y150.433
M204 S1250.00
;TYPE:SUPPORT
;WIDTH:0.480
G1 F2400 E0.9700
G1 F2400 X158.340 Y149.377 E0.0527
G1 X159.567 Y149.991 E0.0685
G1 X160.420 Y150.843 E0.0601
G1 X160.420 Y151.044 E0.0100
G1 X160.820 Y151.442 E0.0282
G1 X160.820 Y152.043 E0.0300
G1 X161.020 Y152.242 E0.0141
G1 X161.020 Y153.558 E0.0657
G1 X160.820 Y153.757 E0.0141
G1 X160.820 Y154.358 E0.0300
G1 X160.420 Y154.756 E0.0282
G1 X160.420 Y154.957 E0.0100
G1 X159.567 Y155.810 E0.0602
G1 X159.167 Y156.010 E0.0223
G1 X158.918 Y156.260 E0.0176
G1 X157.876 Y156.520 E0.0536
G1 X152.680 Y156.520 E0.2592
G1 X152.680 Y150.441 E0.3033
G1 X158.240 Y150.433 E0.2774
G0 F2400 X158.340 Y150.433
M204 S1300.00
G0 F7200 X158.750 Y150.843
G0 F7200 X158.820 Y150.913
M204 S1250.00
;TYPE:SUPPORT
;WIDTH:0.480
G1 F2400 X158.820 Y150.155 E0.0378
