;Sliced by ideaMaker 4.2.3.5600, 2022-10-13 19:24:45 UTC+0200
;Dimension: 300.000 300.000 400.000 0.400
;Plate Shape: 0
;Origin Center: 0
;Extruder Offset #1: 25.000 0.000
;Filament Diameter #1: 1.750
;Filament Diameter #2: 1.750
;Filament Compensation #1: 100.00
;Filament Compensation #2: 90.00
;Filament Density #1: 1240.00
;Filament Density #2: 1240.00
;Filament Type #1: Sunlu
;Filament Type #2: 
;Filament Name #1: Sunlu Grey PLA
;Filament Name #2: 
;Firmware: Marlin
;Bounding Box: 130.315 169.685 130.332 169.663 0.000 8.050
;Model Gap: 0.000
M92 E415.00000
M221 T0 S100.00
M140 S60.00
M104 T0 S210.00
M109 T0 S210.00
T0
M190 S60.00
M107
G28 ; home all axes
G29 ; Autoleveling processing ; à commenter si M420 actif
;M420 S1 Z10 ; Autolevel enable ; à commenter si G29 actif
;vous avez 2 choix, soit activer le G29 pour faire un autoleveling du plateau avant chaque impression
;C'est la méthode recvommandé par ARtillery3Dexpert.fr
;soit activer la ligne qui commance par M420 pour faire un rappel de la derniere mesure du plateau
;pour gagner du temp ( non recommandé par artillery3Dexpert.fr )
M500 ; sauvegarde eeprom
M117 Purge extruder
G92 E0 ; reset extruder
G1 Z1.0 F3000 ; move z up little to prevent scratching of surface
G1 X2 Y20 Z0.3 F5000.0 ; move to start-line position
G1 X2 Y200.0 Z0.3 F1500.0 E15 ; draw 1st line
G1 X2 Y200.0 Z0.4 F5000.0 ; move to side a little
G1 X2 Y20 Z0.4 F1500.0 E30 ; draw 2nd line
G92 E0 ; reset extruder
G1 Z1.0 F3000 ; move z up little to prevent scratching of surface
;TOTAL_NUM: 1
;PRINTING_TIME: 0
;REMAINING_TIME: 1385
M83
;LAYER:0
;Z:0.250
;HEIGHT:0.250
M106 S0
;PRINTING: NON-OBJECT
;PRINTING_ID: -1
G1 F2400 E-1.0000
M204 S1300.00
M205 X7.00 Y7.00
G0 F7200 X135.131 Y136.958
G0 F900 Z0.250
G0 F7200 X135.201 Y137.029
M204 S1250.00
;TYPE:SKIRT
;WIDTH:0.480
G1 F2400 E0.9700
G1 F2400 X135.646 Y136.589 E0.0312
G1 X136.117 Y136.238 E0.0293
G1 X136.513 Y136.014 E0.0227
G1 X136.656 Y135.951 E0.0078
G1 X136.971 Y135.433 E0.0302
G1 X137.401 Y134.920 E0.0334
G1 X137.854 Y134.520 E0.0301
G1 X138.370 Y134.131 E0.0322
G1 X138.751 Y133.882 E0.0227
G1 X139.409 Y133.575 E0.0362
G1 X139.844 Y133.442 E0.0227
G1 X139.996 Y133.411 E0.0077
G1 X140.411 Y132.977 E0.0300
G1 X140.940 Y132.569 E0.0333
G1 X141.465 Y132.275 E0.0300
G1 X142.053 Y132.005 E0.0323
G1 X142.478 Y131.843 E0.0227
G1 X143.184 Y131.685 E0.0361
G1 X143.637 Y131.647 E0.0227
G1 X143.801 Y131.649 E0.0082
G1 X144.292 Y131.318 E0.0295
G1 X144.828 Y131.058 E0.0297
G1 X145.481 Y130.855 E0.0341
G1 X146.080 Y130.724 E0.0306
G1 X146.701 Y130.641 E0.0313
G1 X147.156 Y130.639 E0.0227
G1 X147.735 Y130.708 E0.0291
G1 X147.898 Y130.746 E0.0084
G1 X148.458 Y130.525 E0.0300
G1 X149.038 Y130.389 E0.0297
G1 X149.711 Y130.332 E0.0337
G1 X150.325 Y130.333 E0.0306
G1 X150.944 Y130.386 E0.0310
G1 X151.389 Y130.481 E0.0227
G1 X151.943 Y130.673 E0.0293
G1 X152.093 Y130.746 E0.0083
G1 X152.683 Y130.650 E0.0298
G1 X153.280 Y130.641 E0.0298
G1 X153.952 Y130.730 E0.0338
G1 X154.519 Y130.855 E0.0290
G1 X155.147 Y131.048 E0.0328
G1 X155.561 Y131.237 E0.0227
G1 X156.059 Y131.544 E0.0292
G1 X156.188 Y131.646 E0.0082
G1 X156.778 Y131.680 E0.0295
G1 X157.291 Y131.778 E0.0261
G1 X158.009 Y132.031 E0.0380
G1 X158.569 Y132.292 E0.0308
G1 X159.107 Y132.599 E0.0309
G1 X159.520 Y132.914 E0.0259
G1 X159.893 Y133.281 E0.0261
G1 X159.996 Y133.406 E0.0081
G1 X160.512 Y133.546 E0.0267
G1 X161.052 Y133.776 E0.0293
G1 X161.684 Y134.169 E0.0371
G1 X162.176 Y134.544 E0.0309
G1 X162.638 Y134.960 E0.0310
G1 X162.973 Y135.355 E0.0258
G1 X163.259 Y135.792 E0.0261
G1 X163.336 Y135.945 E0.0085
G1 X163.928 Y136.268 E0.0336
G1 X164.403 Y136.630 E0.0298
G1 X164.771 Y136.999 E0.0260
G1 X165.221 Y137.526 E0.0346
G1 X165.585 Y138.035 E0.0312
G1 X165.852 Y138.552 E0.0290
G1 X166.010 Y138.979 E0.0227
G1 X166.051 Y139.140 E0.0083
G1 X166.561 Y139.584 E0.0337
G1 X166.945 Y140.038 E0.0297
G1 X167.268 Y140.547 E0.0301
G1 X167.571 Y141.125 E0.0326
G1 X167.800 Y141.667 E0.0294
G1 X167.951 Y142.233 E0.0292
G1 X168.013 Y142.684 E0.0227
G1 X168.018 Y142.846 E0.0081
G1 X168.376 Y143.320 E0.0296
G1 X168.694 Y143.907 E0.0333
G1 X168.904 Y144.485 E0.0307
G1 X169.075 Y145.110 E0.0323
G1 X169.165 Y145.556 E0.0227
G1 X169.206 Y146.278 E0.0361
G1 X169.169 Y146.732 E0.0227
G1 X169.141 Y146.886 E0.0078
G1 X169.389 Y147.427 E0.0297
G1 X169.574 Y148.070 E0.0334
G1 X169.652 Y148.677 E0.0305
G1 X169.685 Y149.322 E0.0322
G1 X169.678 Y149.777 E0.0227
G1 X169.564 Y150.493 E0.0362
G1 X169.431 Y150.928 E0.0227
G1 X169.370 Y151.075 E0.0079
G1 X169.494 Y151.648 E0.0292
G1 X169.538 Y152.244 E0.0298
G1 X169.485 Y152.930 E0.0343
G1 X169.391 Y153.504 E0.0290
G1 X169.233 Y154.140 E0.0327
G1 X169.067 Y154.564 E0.0227
G1 X168.787 Y155.079 E0.0292
G1 X168.693 Y155.214 E0.0082
G1 X168.691 Y155.800 E0.0292
G1 X168.621 Y156.317 E0.0260
G1 X168.406 Y157.050 E0.0381
G1 X168.191 Y157.590 E0.0290
G1 X167.900 Y158.178 E0.0327
G1 X167.646 Y158.557 E0.0228
G1 X167.264 Y158.999 E0.0291
G1 X167.140 Y159.111 E0.0083
G1 X167.013 Y159.686 E0.0294
G1 X166.833 Y160.176 E0.0260
G1 X166.466 Y160.843 E0.0380
G1 X166.121 Y161.351 E0.0306
G1 X165.729 Y161.837 E0.0312
G1 X165.400 Y162.152 E0.0227
G1 X164.930 Y162.500 E0.0292
G1 X164.788 Y162.583 E0.0082
G1 X164.563 Y163.074 E0.0269
G1 X164.205 Y163.626 E0.0328
G1 X163.757 Y164.130 E0.0336
G1 X163.311 Y164.552 E0.0306
G1 X162.875 Y164.905 E0.0280
G1 X162.436 Y165.178 E0.0258
G1 X161.902 Y165.418 E0.0292
G1 X161.742 Y165.469 E0.0084
G1 X161.379 Y165.945 E0.0299
G1 X161.010 Y166.313 E0.0260
G1 X160.401 Y166.761 E0.0377
G1 X159.903 Y167.060 E0.0290
G1 X159.379 Y167.323 E0.0293
G1 X158.887 Y167.496 E0.0260
G1 X158.312 Y167.617 E0.0293
G1 X158.151 Y167.631 E0.0081
G1 X157.743 Y167.983 E0.0269
G1 X157.184 Y168.335 E0.0330
G1 X156.568 Y168.603 E0.0335
G1 X156.017 Y168.789 E0.0290
G1 X155.379 Y168.948 E0.0328
G1 X154.927 Y169.000 E0.0227
G1 X154.341 Y168.994 E0.0292
G1 X154.176 Y168.973 E0.0083
G1 X153.583 Y169.278 E0.0333
G1 X153.018 Y169.467 E0.0297
G1 X152.420 Y169.580 E0.0304
G1 X151.771 Y169.649 E0.0326
G1 X151.183 Y169.661 E0.0293
G1 X150.601 Y169.592 E0.0292
G1 X150.159 Y169.483 E0.0227
G1 X150.005 Y169.428 E0.0082
G1 X149.352 Y169.600 E0.0337
G1 X148.761 Y169.663 E0.0297
G1 X148.235 Y169.649 E0.0263
G1 X147.509 Y169.570 E0.0364
G1 X146.931 Y169.455 E0.0294
G1 X146.378 Y169.262 E0.0292
G1 X145.971 Y169.060 E0.0227
G1 X145.835 Y168.975 E0.0080
G1 X145.161 Y169.003 E0.0337
G1 X144.567 Y168.937 E0.0298
G1 X143.983 Y168.789 E0.0301
G1 X143.364 Y168.577 E0.0326
G1 X142.826 Y168.340 E0.0293
G1 X142.329 Y168.033 E0.0291
G1 X141.974 Y167.748 E0.0227
G1 X141.860 Y167.635 E0.0080
G1 X141.259 Y167.535 E0.0304
G1 X140.625 Y167.325 E0.0333
G1 X140.097 Y167.060 E0.0295
G1 X139.571 Y166.743 E0.0306
G1 X139.170 Y166.463 E0.0244
G1 X138.642 Y165.969 E0.0361
G1 X138.356 Y165.615 E0.0227
G1 X138.264 Y165.474 E0.0084
G1 X137.699 Y165.245 E0.0304
G1 X137.127 Y164.905 E0.0332
G1 X136.663 Y164.528 E0.0298
G1 X136.218 Y164.105 E0.0306
G1 X135.888 Y163.745 E0.0244
G1 X135.478 Y163.148 E0.0361
G1 X135.276 Y162.740 E0.0227
G1 X135.221 Y162.592 E0.0079
G1 X134.724 Y162.253 E0.0300
G1 X134.336 Y161.903 E0.0261
G1 X133.883 Y161.355 E0.0355
G1 X133.516 Y160.813 E0.0327
G1 X133.238 Y160.327 E0.0279
G1 X133.039 Y159.848 E0.0259
G1 X132.888 Y159.284 E0.0291
G1 X132.864 Y159.120 E0.0083
G1 X132.492 Y158.732 E0.0268
G1 X132.111 Y158.194 E0.0329
G1 X131.826 Y157.628 E0.0316
G1 X131.570 Y156.982 E0.0347
G1 X131.416 Y156.484 E0.0260
G1 X131.325 Y155.974 E0.0258
G1 X131.299 Y155.387 E0.0293
G1 X131.311 Y155.225 E0.0081
G1 X131.009 Y154.721 E0.0293
G1 X130.802 Y154.242 E0.0260
G1 X130.609 Y153.504 E0.0381
G1 X130.515 Y152.930 E0.0290
G1 X130.463 Y152.274 E0.0328
G1 X130.485 Y151.820 E0.0227
G1 X130.584 Y151.244 E0.0292
G1 X130.631 Y151.085 E0.0083
G1 X130.457 Y150.578 E0.0267
G1 X130.344 Y150.001 E0.0293
G1 X130.315 Y149.338 E0.0331
G1 X130.348 Y148.677 E0.0330
G1 X130.423 Y148.088 E0.0296
G1 X130.555 Y147.585 E0.0259
G1 X130.776 Y147.045 E0.0291
G1 X130.858 Y146.898 E0.0084
G1 X130.796 Y146.362 E0.0269
G1 X130.809 Y145.779 E0.0291
G1 X130.941 Y145.044 E0.0373
G1 X131.096 Y144.484 E0.0290
G1 X131.298 Y143.925 E0.0297
G1 X131.535 Y143.463 E0.0259
G1 X131.867 Y142.982 E0.0292
G1 X131.978 Y142.856 E0.0084
G1 X132.061 Y142.181 E0.0339
G1 X132.222 Y141.607 E0.0297
G1 X132.461 Y141.059 E0.0298
G1 X132.733 Y140.546 E0.0290
G1 X133.091 Y139.988 E0.0331
G1 X133.475 Y139.548 E0.0291
G1 X133.814 Y139.244 E0.0227
G1 X133.943 Y139.148 E0.0080
G1 X134.168 Y138.506 E0.0339
G1 X134.449 Y137.982 E0.0297
G1 X134.802 Y137.496 E0.0300
G1 X135.137 Y137.105 E0.0257
G0 F2400 X135.201 Y137.029
M204 S1300.00
G0 F7200 X135.490 Y137.276
G0 F7200 X135.566 Y137.341
M204 S1250.00
G1 F2400 X135.935 Y136.972 E0.0260
G1 X136.353 Y136.656 E0.0261
G1 X136.749 Y136.432 E0.0227
G1 X137.013 Y136.323 E0.0142
G1 X137.104 Y136.126 E0.0108
G1 X137.342 Y135.738 E0.0227
G1 X137.720 Y135.279 E0.0297
G1 X138.143 Y134.903 E0.0282
G1 X138.633 Y134.533 E0.0306
G1 X139.014 Y134.284 E0.0227
G1 X139.549 Y134.034 E0.0295
G1 X139.984 Y133.901 E0.0227
G1 X140.264 Y133.852 E0.0142
G1 X140.393 Y133.682 E0.0106
G1 X140.708 Y133.354 E0.0227
G1 X141.175 Y132.987 E0.0296
G1 X141.666 Y132.711 E0.0281
G1 X142.224 Y132.454 E0.0306
G1 X142.649 Y132.292 E0.0227
G1 X143.224 Y132.163 E0.0294
G1 X143.677 Y132.125 E0.0227
G1 X143.969 Y132.137 E0.0146
G1 X144.128 Y132.001 E0.0104
G1 X144.506 Y131.748 E0.0227
G1 X144.972 Y131.516 E0.0260
G1 X145.584 Y131.324 E0.0320
G1 X146.183 Y131.193 E0.0306
G1 X146.703 Y131.121 E0.0262
G1 X147.158 Y131.119 E0.0227
G1 X147.675 Y131.184 E0.0260
G1 X147.958 Y131.259 E0.0146
G1 X148.148 Y131.157 E0.0108
G1 X148.572 Y130.991 E0.0227
G1 X149.080 Y130.867 E0.0261
G1 X149.710 Y130.812 E0.0316
G1 X150.324 Y130.813 E0.0306
G1 X150.844 Y130.855 E0.0260
G1 X151.289 Y130.950 E0.0227
G1 X151.782 Y131.125 E0.0261
G1 X152.040 Y131.259 E0.0145
G1 X152.246 Y131.201 E0.0107
G1 X152.695 Y131.130 E0.0227
G1 X153.218 Y131.117 E0.0261
G1 X153.849 Y131.199 E0.0317
G1 X154.416 Y131.324 E0.0290
G1 X154.948 Y131.485 E0.0277
G1 X155.362 Y131.674 E0.0227
G1 X155.805 Y131.951 E0.0261
G1 X156.028 Y132.136 E0.0145
G1 X156.234 Y132.124 E0.0103
G1 X156.688 Y132.151 E0.0227
G1 X157.201 Y132.249 E0.0261
G1 X157.807 Y132.467 E0.0321
G1 X158.334 Y132.711 E0.0290
G1 X158.819 Y132.983 E0.0277
G1 X159.183 Y133.256 E0.0227
G1 X159.556 Y133.623 E0.0261
G1 X159.733 Y133.850 E0.0144
G1 X159.943 Y133.884 E0.0106
G1 X160.381 Y134.008 E0.0227
G1 X160.861 Y134.216 E0.0261
G1 X161.394 Y134.552 E0.0314
G1 X161.857 Y134.903 E0.0290
G1 X162.274 Y135.273 E0.0278
G1 X162.571 Y135.618 E0.0227
G1 X162.857 Y136.055 E0.0261
G1 X162.984 Y136.322 E0.0148
G1 X163.184 Y136.401 E0.0107
G1 X163.640 Y136.652 E0.0260
G1 X164.063 Y136.969 E0.0264
G1 X164.431 Y137.338 E0.0260
G1 X164.833 Y137.808 E0.0309
G1 X165.160 Y138.258 E0.0278
G1 X165.402 Y138.719 E0.0260
G1 X165.560 Y139.146 E0.0227
G1 X165.627 Y139.433 E0.0147
G1 X165.804 Y139.552 E0.0106
G1 X166.197 Y139.896 E0.0261
G1 X166.540 Y140.296 E0.0263
G1 X166.843 Y140.771 E0.0281
G1 X167.130 Y141.315 E0.0307
G1 X167.337 Y141.794 E0.0260
G1 X167.475 Y142.298 E0.0261
G1 X167.537 Y142.749 E0.0227
G1 X167.540 Y143.039 E0.0145
G1 X167.682 Y143.188 E0.0103
G1 X167.956 Y143.552 E0.0227
G1 X168.243 Y144.073 E0.0297
G1 X168.441 Y144.612 E0.0286
G1 X168.604 Y145.205 E0.0307
G1 X168.694 Y145.651 E0.0227
G1 X168.728 Y146.239 E0.0294
G1 X168.691 Y146.693 E0.0227
G1 X168.633 Y146.973 E0.0143
G1 X168.740 Y147.149 E0.0103
G1 X168.929 Y147.563 E0.0227
G1 X169.098 Y148.133 E0.0297
G1 X169.173 Y148.702 E0.0286
G1 X169.205 Y149.315 E0.0306
G1 X169.198 Y149.770 E0.0227
G1 X169.105 Y150.353 E0.0295
G1 X168.972 Y150.788 E0.0227
G1 X168.854 Y151.050 E0.0143
G1 X168.920 Y151.243 E0.0102
G1 X169.016 Y151.688 E0.0227
G1 X169.059 Y152.208 E0.0260
G1 X169.011 Y152.852 E0.0322
G1 X168.917 Y153.426 E0.0290
G1 X168.786 Y153.965 E0.0277
G1 X168.620 Y154.389 E0.0227
G1 X168.367 Y154.847 E0.0261
G1 X168.194 Y155.081 E0.0145
G1 X168.217 Y155.281 E0.0100
G1 X168.215 Y155.736 E0.0227
G1 X168.145 Y156.253 E0.0260
G1 X167.960 Y156.872 E0.0322
G1 X167.745 Y157.412 E0.0290
G1 X167.501 Y157.911 E0.0277
G1 X167.247 Y158.290 E0.0228
G1 X166.903 Y158.682 E0.0260
G1 X166.683 Y158.873 E0.0145
G1 X166.662 Y159.075 E0.0101
G1 X166.562 Y159.520 E0.0228
G1 X166.382 Y160.010 E0.0260
G1 X166.069 Y160.573 E0.0321
G1 X165.724 Y161.081 E0.0306
G1 X165.397 Y161.490 E0.0261
G1 X165.068 Y161.805 E0.0227
G1 X164.647 Y162.113 E0.0260
G1 X164.391 Y162.253 E0.0146
G1 X164.323 Y162.458 E0.0108
G1 X164.129 Y162.869 E0.0227
G1 X163.846 Y163.308 E0.0261
G1 X163.427 Y163.781 E0.0315
G1 X162.981 Y164.203 E0.0306
G1 X162.574 Y164.531 E0.0261
G1 X162.186 Y164.768 E0.0227
G1 X161.708 Y164.979 E0.0261
G1 X161.427 Y165.061 E0.0146
G1 X161.318 Y165.244 E0.0106
G1 X161.040 Y165.605 E0.0227
G1 X160.671 Y165.973 E0.0260
G1 X160.154 Y166.349 E0.0319
G1 X159.656 Y166.648 E0.0290
G1 X159.220 Y166.870 E0.0244
G1 X158.728 Y167.043 E0.0260
G1 X158.217 Y167.146 E0.0260
G1 X157.930 Y167.164 E0.0143
G1 X157.783 Y167.322 E0.0108
G1 X157.434 Y167.615 E0.0227
G1 X156.992 Y167.895 E0.0261
G1 X156.414 Y168.148 E0.0315
G1 X155.863 Y168.334 E0.0290
G1 X155.324 Y168.471 E0.0277
G1 X154.872 Y168.523 E0.0227
G1 X154.349 Y168.514 E0.0261
G1 X154.061 Y168.470 E0.0145
G1 X153.891 Y168.586 E0.0103
G1 X153.427 Y168.824 E0.0260
G1 X152.928 Y168.996 E0.0263
G1 X152.368 Y169.103 E0.0284
G1 X151.757 Y169.169 E0.0307
G1 X151.236 Y169.184 E0.0260
G1 X150.716 Y169.126 E0.0261
G1 X150.274 Y169.017 E0.0227
G1 X150.001 Y168.912 E0.0146
G1 X149.803 Y168.991 E0.0106
G1 X149.297 Y169.123 E0.0261
G1 X148.774 Y169.183 E0.0263
G1 X148.248 Y169.169 E0.0263
G1 X147.598 Y169.098 E0.0326
G1 X147.086 Y169.001 E0.0260
G1 X146.591 Y168.832 E0.0261
G1 X146.184 Y168.630 E0.0227
G1 X145.942 Y168.470 E0.0145
G1 X145.730 Y168.506 E0.0107
G1 X145.210 Y168.526 E0.0260
G1 X144.684 Y168.472 E0.0264
G1 X144.137 Y168.334 E0.0281
G1 X143.554 Y168.136 E0.0307
G1 X143.075 Y167.930 E0.0260
G1 X142.629 Y167.659 E0.0260
G1 X142.274 Y167.374 E0.0227
G1 X142.072 Y167.166 E0.0145
G1 X141.855 Y167.155 E0.0108
G1 X141.406 Y167.078 E0.0227
G1 X140.840 Y166.896 E0.0297
G1 X140.344 Y166.648 E0.0277
G1 X139.846 Y166.349 E0.0290
G1 X139.445 Y166.069 E0.0244
G1 X139.015 Y165.667 E0.0294
G1 X138.729 Y165.313 E0.0227
G1 X138.573 Y165.062 E0.0147
G1 X138.362 Y165.003 E0.0109
G1 X137.941 Y164.831 E0.0227
G1 X137.429 Y164.532 E0.0296
G1 X136.994 Y164.180 E0.0279
G1 X136.549 Y163.757 E0.0306
G1 X136.242 Y163.421 E0.0227
G1 X135.908 Y162.935 E0.0294
G1 X135.706 Y162.527 E0.0227
G1 X135.611 Y162.255 E0.0144
G1 X135.421 Y162.155 E0.0107
G1 X135.046 Y161.897 E0.0227
G1 X134.658 Y161.547 E0.0261
G1 X134.280 Y161.086 E0.0297
G1 X133.913 Y160.544 E0.0327
G1 X133.655 Y160.090 E0.0261
G1 X133.484 Y159.668 E0.0227
G1 X133.353 Y159.163 E0.0260
G1 X133.319 Y158.875 E0.0145
G1 X133.153 Y158.736 E0.0108
G1 X132.843 Y158.404 E0.0227
G1 X132.540 Y157.978 E0.0261
G1 X132.255 Y157.412 E0.0316
G1 X132.029 Y156.840 E0.0307
G1 X131.875 Y156.342 E0.0260
G1 X131.798 Y155.893 E0.0227
G1 X131.779 Y155.370 E0.0261
G1 X131.807 Y155.083 E0.0144
G1 X131.683 Y154.922 E0.0101
G1 X131.450 Y154.531 E0.0227
G1 X131.243 Y154.052 E0.0260
G1 X131.083 Y153.426 E0.0322
G1 X130.989 Y152.852 E0.0290
G1 X130.942 Y152.297 E0.0278
G1 X130.964 Y151.843 E0.0227
G1 X131.056 Y151.329 E0.0261
G1 X131.146 Y151.053 E0.0145
G1 X131.056 Y150.860 E0.0106
G1 X130.913 Y150.427 E0.0228
G1 X130.816 Y149.912 E0.0261
G1 X130.795 Y149.321 E0.0295
G1 X130.827 Y148.702 E0.0309
G1 X130.899 Y148.150 E0.0278
G1 X131.018 Y147.711 E0.0227
G1 X131.219 Y147.230 E0.0260
G1 X131.367 Y146.977 E0.0146
G1 X131.320 Y146.767 E0.0107
G1 X131.274 Y146.314 E0.0227
G1 X131.289 Y145.793 E0.0260
G1 X131.404 Y145.172 E0.0315
G1 X131.559 Y144.612 E0.0290
G1 X131.749 Y144.089 E0.0278
G1 X131.960 Y143.685 E0.0227
G1 X132.260 Y143.258 E0.0260
G1 X132.459 Y143.043 E0.0146
G1 X132.458 Y142.824 E0.0109
G1 X132.524 Y142.307 E0.0260
G1 X132.662 Y141.798 E0.0263
G1 X132.885 Y141.284 E0.0280
G1 X133.157 Y140.771 E0.0290
