;Sliced by ideaMaker 4.2.3.5600, 2022-10-13 19:25:17 UTC+0200
;Dimension: 300.000 300.000 400.000 0.400
;Plate Shape: 0
;Origin Center: 0
;Extruder Offset #1: 25.000 0.000
;Filament Diameter #1: 1.750
;Filament Diameter #2: 1.750
;Filament Compensation #1: 100.00
;Filament Compensation #2: 90.00
;Filament Density #1: 1240.00
;Filament Density #2: 1240.00
;Filament Type #1: Sunlu
;Filament Type #2: 
;Filament Name #1: Sunlu Grey PLA
;Filament Name #2: 
;Firmware: Marlin
;Bounding Box: 99.653 200.347 115.800 184.200 0.000 10.050
;Model Gap: 0.000
M92 E415.00000
M221 T0 S100.00
M140 S60.00
M104 T0 S210.00
M109 T0 S210.00
T0
M190 S60.00
M107
G28 ; home all axes
G29 ; Autoleveling processing ; à commenter si M420 actif
;M420 S1 Z10 ; Autolevel enable ; à commenter si G29 actif
;vous avez 2 choix, soit activer le G29 pour faire un autoleveling du plateau avant chaque impression
;C'est la méthode recvommandé par ARtillery3Dexpert.fr
;soit activer la ligne qui commance par M420 pour faire un rappel de la derniere mesure du plateau
;pour gagner du temp ( non recommandé par artillery3Dexpert.fr )
M500 ; sauvegarde eeprom
M117 Purge extruder
G92 E0 ; reset extruder
G1 Z1.0 F3000 ; move z up little to prevent scratching of surface
G1 X2 Y20 Z0.3 F5000.0 ; move to start-line position
G1 X2 Y200.0 Z0.3 F1500.0 E15 ; draw 1st line
G1 X2 Y200.0 Z0.4 F5000.0 ; move to side a little
G1 X2 Y20 Z0.4 F1500.0 E30 ; draw 2nd line
G92 E0 ; reset extruder
G1 Z1.0 F3000 ; move z up little to prevent scratching of surface
;TOTAL_NUM: 1
;PRINTING_TIME: 0
;REMAINING_TIME: 2790
M83
;LAYER:0
;Z:0.250
;HEIGHT:0.250
M106 S0
;PRINTING: NON-OBJECT
;PRINTING_ID: -1
G1 F2400 E-1.0000
M204 S1300.00
M205 X7.00 Y7.00
G0 F7200 X100.947 Y116.834
G0 F900 Z0.250
G0 F7200 X101.012 Y116.909
M204 S1250.00
;TYPE:SKIRT
;WIDTH:0.480
G1 F2400 E0.9700
G1 F2400 X101.469 Y116.546 E0.0291
G1 X102.040 Y116.215 E0.0329
G1 X102.653 Y115.976 E0.0328
G1 X103.166 Y115.859 E0.0263
G1 X103.853 Y115.800 E0.0344
G1 X116.034 Y115.801 E0.6077
G1 X116.593 Y115.845 E0.0280
G1 X117.099 Y115.949 E0.0258
G1 X117.715 Y116.168 E0.0326
G1 X118.234 Y116.446 E0.0294
G1 X118.658 Y116.751 E0.0261
G1 X119.132 Y117.205 E0.0327
G1 X119.493 Y117.672 E0.0294
G1 X119.755 Y118.124 E0.0261
G1 X120.003 Y118.736 E0.0329
G1 X120.142 Y119.322 E0.0300
G1 X120.198 Y119.962 E0.0321
G1 X120.200 Y134.096 E0.7051
G1 X120.782 Y134.317 E0.0311
G1 X121.239 Y134.567 E0.0260
G1 X121.766 Y134.959 E0.0328
G1 X122.132 Y135.324 E0.0258
G1 X122.492 Y135.789 E0.0293
G1 X122.783 Y136.301 E0.0294
G1 X122.980 Y136.784 E0.0260
G1 X123.141 Y137.435 E0.0335
G1 X123.200 Y138.118 E0.0342
G1 X123.200 Y142.300 E0.2086
G1 X176.800 Y142.300 E2.6741
G1 X176.801 Y138.085 E0.2103
G1 X176.854 Y137.461 E0.0312
G1 X176.987 Y136.884 E0.0295
G1 X177.200 Y136.335 E0.0294
G1 X177.487 Y135.821 E0.0294
G1 X177.840 Y135.355 E0.0292
G1 X178.158 Y135.029 E0.0227
G1 X178.616 Y134.664 E0.0292
G1 X179.124 Y134.364 E0.0294
G1 X179.669 Y134.138 E0.0294
G1 X179.800 Y134.101 E0.0068
G1 X179.801 Y119.966 E0.7052
G1 X179.854 Y119.346 E0.0310
G1 X179.966 Y118.840 E0.0259
G1 X180.170 Y118.281 E0.0297
G1 X180.487 Y117.702 E0.0329
G1 X180.844 Y117.233 E0.0294
G1 X181.260 Y116.820 E0.0292
G1 X181.676 Y116.504 E0.0261
G1 X182.253 Y116.183 E0.0329
G1 X182.801 Y115.976 E0.0292
G1 X183.314 Y115.859 E0.0263
G1 X184.000 Y115.800 E0.0344
G1 X196.180 Y115.801 E0.6077
G1 X196.800 Y115.854 E0.0310
G1 X197.306 Y115.966 E0.0259
G1 X197.865 Y116.170 E0.0297
G1 X198.444 Y116.487 E0.0329
G1 X198.913 Y116.844 E0.0294
G1 X199.326 Y117.260 E0.0292
G1 X199.642 Y117.676 E0.0261
G1 X199.933 Y118.189 E0.0294
G1 X200.151 Y118.740 E0.0296
G1 X200.276 Y119.244 E0.0259
G1 X200.344 Y119.957 E0.0357
G1 X200.347 Y122.999 E0.1518
G1 X200.303 Y123.590 E0.0296
G1 X200.180 Y124.167 E0.0294
G1 X200.006 Y124.655 E0.0258
G1 X199.700 Y125.236 E0.0328
G1 X199.396 Y125.660 E0.0260
G1 X198.885 Y126.182 E0.0364
G1 X198.469 Y126.497 E0.0260
G1 X197.957 Y126.787 E0.0294
G1 X197.477 Y126.982 E0.0258
G1 X196.834 Y127.141 E0.0330
G1 X196.147 Y127.200 E0.0344
G1 X191.200 Y127.200 E0.2468
G1 X191.199 Y180.037 E2.6360
G1 X191.146 Y180.658 E0.0311
G1 X191.015 Y181.231 E0.0293
G1 X190.830 Y181.719 E0.0260
G1 X190.513 Y182.298 E0.0329
G1 X190.201 Y182.716 E0.0260
G1 X189.740 Y183.180 E0.0326
G1 X189.380 Y183.458 E0.0227
G1 X188.747 Y183.817 E0.0363
G1 X188.199 Y184.024 E0.0292
G1 X187.686 Y184.141 E0.0263
G1 X187.000 Y184.200 E0.0344
G1 X112.963 Y184.199 E3.6937
G1 X112.342 Y184.146 E0.0311
G1 X111.769 Y184.015 E0.0293
G1 X111.281 Y183.830 E0.0260
G1 X110.702 Y183.513 E0.0329
G1 X110.284 Y183.201 E0.0260
G1 X109.820 Y182.740 E0.0326
G1 X109.542 Y182.380 E0.0227
G1 X109.183 Y181.747 E0.0363
G1 X108.976 Y181.199 E0.0292
G1 X108.859 Y180.686 E0.0263
G1 X108.800 Y180.000 E0.0344
G1 X108.800 Y127.200 E2.6342
G1 X103.854 Y127.200 E0.2468
G1 X103.266 Y127.156 E0.0294
G1 X102.689 Y127.033 E0.0294
G1 X102.139 Y126.832 E0.0292
G1 X101.620 Y126.554 E0.0294
G1 X101.196 Y126.249 E0.0261
G1 X100.719 Y125.791 E0.0330
G1 X100.359 Y125.324 E0.0294
G1 X100.065 Y124.807 E0.0297
G1 X99.872 Y124.327 E0.0258
G1 X99.713 Y123.686 E0.0329
G1 X99.654 Y123.001 E0.0343
G1 X99.653 Y120.001 E0.1497
G1 X99.687 Y119.481 E0.0260
G1 X99.838 Y118.772 E0.0362
G1 X100.022 Y118.283 E0.0261
G1 X100.300 Y117.764 E0.0294
G1 X100.694 Y117.234 E0.0329
G1 X100.942 Y116.980 E0.0177
G0 F2400 X101.012 Y116.909
M204 S1300.00
G0 F7200 X101.284 Y117.175
G0 F7200 X101.355 Y117.245
M204 S1250.00
G1 F2400 X101.765 Y116.923 E0.0260
G1 X102.217 Y116.661 E0.0261
G1 X102.765 Y116.443 E0.0294
G1 X103.208 Y116.337 E0.0227
G1 X103.853 Y116.280 E0.0323
G1 X116.034 Y116.281 E0.6077
G1 X116.554 Y116.323 E0.0260
G1 X116.999 Y116.418 E0.0227
G1 X117.492 Y116.593 E0.0261
G1 X117.954 Y116.836 E0.0260
G1 X118.378 Y117.141 E0.0261
G1 X118.755 Y117.502 E0.0260
G1 X119.078 Y117.913 E0.0261
G1 X119.340 Y118.365 E0.0261
G1 X119.557 Y118.913 E0.0294
G1 X119.674 Y119.428 E0.0263
G1 X119.720 Y120.000 E0.0286
G1 X119.720 Y134.477 E0.7223
G1 X120.063 Y134.554 E0.0175
G1 X120.552 Y134.738 E0.0261
G1 X121.009 Y134.988 E0.0260
G1 X121.430 Y135.302 E0.0262
G1 X121.755 Y135.620 E0.0227
G1 X122.077 Y136.030 E0.0260
G1 X122.339 Y136.482 E0.0261
G1 X122.536 Y136.965 E0.0260
G1 X122.674 Y137.546 E0.0298
G1 X122.720 Y138.118 E0.0286
G1 X122.720 Y142.780 E0.2326
G1 X177.280 Y142.780 E2.7220
G1 X177.281 Y138.085 E0.2342
G1 X177.323 Y137.565 E0.0260
G1 X177.436 Y137.054 E0.0261
G1 X177.621 Y136.566 E0.0260
G1 X177.872 Y136.108 E0.0261
G1 X178.184 Y135.690 E0.0260
G1 X178.502 Y135.364 E0.0227
G1 X178.913 Y135.041 E0.0261
G1 X179.365 Y134.779 E0.0261
G1 X179.849 Y134.583 E0.0261
G1 X180.280 Y134.474 E0.0222
G1 X180.281 Y119.966 E0.7238
G1 X180.323 Y119.446 E0.0260
G1 X180.418 Y119.001 E0.0227
G1 X180.593 Y118.508 E0.0261
G1 X180.872 Y117.989 E0.0294
G1 X181.184 Y117.571 E0.0260
G1 X181.553 Y117.200 E0.0261
G1 X181.913 Y116.922 E0.0227
G1 X182.426 Y116.631 E0.0294
G1 X182.913 Y116.443 E0.0260
G1 X183.356 Y116.337 E0.0227
G1 X184.000 Y116.280 E0.0323
G1 X196.180 Y116.281 E0.6077
G1 X196.700 Y116.323 E0.0260
G1 X197.145 Y116.418 E0.0227
G1 X197.638 Y116.593 E0.0261
G1 X198.157 Y116.872 E0.0294
G1 X198.575 Y117.184 E0.0260
G1 X198.946 Y117.553 E0.0261
G1 X199.224 Y117.913 E0.0227
G1 X199.515 Y118.426 E0.0294
G1 X199.703 Y118.913 E0.0260
G1 X199.809 Y119.356 E0.0227
G1 X199.866 Y119.999 E0.0322
G1 X199.867 Y122.999 E0.1497
G1 X199.824 Y123.553 E0.0277
G1 X199.711 Y124.063 E0.0261
G1 X199.555 Y124.490 E0.0227
G1 X199.277 Y125.009 E0.0294
G1 X199.008 Y125.377 E0.0227
G1 X198.595 Y125.799 E0.0295
G1 X198.179 Y126.114 E0.0260
G1 X197.723 Y126.368 E0.0260
G1 X197.300 Y126.536 E0.0227
G1 X196.792 Y126.663 E0.0261
G1 X196.147 Y126.720 E0.0323
G1 X190.720 Y126.720 E0.2708
G1 X190.720 Y180.000 E2.6581
G1 X190.677 Y180.554 E0.0277
G1 X190.564 Y181.065 E0.0261
G1 X190.407 Y181.492 E0.0227
G1 X190.128 Y182.011 E0.0294
G1 X189.816 Y182.429 E0.0260
G1 X189.447 Y182.800 E0.0261
G1 X189.087 Y183.078 E0.0227
G1 X188.574 Y183.369 E0.0294
G1 X188.087 Y183.557 E0.0260
G1 X187.644 Y183.663 E0.0227
G1 X187.000 Y183.720 E0.0323
G1 X113.000 Y183.720 E3.6919
G1 X112.446 Y183.677 E0.0277
G1 X111.935 Y183.564 E0.0261
G1 X111.508 Y183.407 E0.0227
G1 X110.989 Y183.128 E0.0294
G1 X110.571 Y182.816 E0.0260
G1 X110.200 Y182.447 E0.0261
G1 X109.922 Y182.087 E0.0227
G1 X109.631 Y181.574 E0.0294
G1 X109.443 Y181.087 E0.0260
G1 X109.337 Y180.644 E0.0227
G1 X109.280 Y180.000 E0.0323
G1 X109.280 Y126.720 E2.6581
G1 X103.854 Y126.720 E0.2707
G1 X103.366 Y126.687 E0.0244
G1 X102.789 Y126.564 E0.0294
G1 X102.362 Y126.407 E0.0227
G1 X101.900 Y126.164 E0.0260
G1 X101.476 Y125.859 E0.0261
G1 X101.099 Y125.498 E0.0260
G1 X100.739 Y125.031 E0.0294
G1 X100.485 Y124.574 E0.0261
G1 X100.318 Y124.151 E0.0227
G1 X100.191 Y123.644 E0.0261
G1 X100.134 Y123.001 E0.0322
G1 X100.133 Y120.001 E0.1497
G1 X100.166 Y119.513 E0.0244
G1 X100.289 Y118.937 E0.0294
G1 X100.445 Y118.510 E0.0227
G1 X100.723 Y117.991 E0.0294
G1 X101.037 Y117.570 E0.0262
G1 X101.285 Y117.316 E0.0177
G0 F2400 X101.355 Y117.245
M204 S1300.00
G0 F7200 X101.627 Y117.511
G0 F7200 X101.698 Y117.581
M204 S1250.00
G1 F2400 X102.058 Y117.303 E0.0227
G1 X102.454 Y117.078 E0.0227
G1 X102.877 Y116.910 E0.0227
G1 X103.320 Y116.804 E0.0227
G1 X103.853 Y116.760 E0.0267
G1 X116.000 Y116.760 E0.6060
G1 X116.454 Y116.792 E0.0227
G1 X116.899 Y116.887 E0.0227
G1 X117.326 Y117.044 E0.0227
G1 X117.727 Y117.259 E0.0227
G1 X118.094 Y117.528 E0.0227
G1 X118.420 Y117.846 E0.0227
G1 X118.698 Y118.206 E0.0227
G1 X118.923 Y118.602 E0.0227
G1 X119.090 Y119.025 E0.0227
G1 X119.196 Y119.468 E0.0227
G1 X119.240 Y120.000 E0.0266
G1 X119.240 Y134.895 E0.7431
G1 X119.453 Y134.910 E0.0107
G1 X119.898 Y135.005 E0.0227
G1 X120.325 Y135.161 E0.0227
G1 X120.726 Y135.376 E0.0227
G1 X121.094 Y135.645 E0.0227
G1 X121.419 Y135.963 E0.0227
G1 X121.697 Y136.323 E0.0227
G1 X121.922 Y136.719 E0.0227
G1 X122.090 Y137.142 E0.0227
G1 X122.196 Y137.585 E0.0227
G1 X122.240 Y138.118 E0.0267
G1 X122.240 Y143.260 E0.2565
G1 X177.760 Y143.260 E2.7699
G1 X177.760 Y138.119 E0.2565
G1 X177.792 Y137.665 E0.0227
G1 X177.887 Y137.220 E0.0227
G1 X178.044 Y136.793 E0.0227
G1 X178.259 Y136.392 E0.0227
G1 X178.528 Y136.025 E0.0227
G1 X178.846 Y135.699 E0.0227
G1 X179.206 Y135.421 E0.0227
G1 X179.602 Y135.196 E0.0227
G1 X180.025 Y135.029 E0.0227
G1 X180.468 Y134.923 E0.0227
G1 X180.760 Y134.899 E0.0146
G1 X180.760 Y120.000 E0.7433
G1 X180.792 Y119.546 E0.0227
G1 X180.887 Y119.101 E0.0227
G1 X181.044 Y118.674 E0.0227
G1 X181.259 Y118.273 E0.0227
G1 X181.528 Y117.906 E0.0227
G1 X181.846 Y117.580 E0.0227
G1 X182.206 Y117.302 E0.0227
G1 X182.602 Y117.077 E0.0227
G1 X183.025 Y116.910 E0.0227
G1 X183.468 Y116.804 E0.0227
G1 X184.000 Y116.760 E0.0266
G1 X196.146 Y116.760 E0.6060
G1 X196.600 Y116.792 E0.0227
G1 X197.045 Y116.887 E0.0227
G1 X197.472 Y117.044 E0.0227
G1 X197.873 Y117.259 E0.0227
G1 X198.240 Y117.528 E0.0227
G1 X198.566 Y117.846 E0.0227
G1 X198.844 Y118.206 E0.0227
G1 X199.069 Y118.602 E0.0227
G1 X199.236 Y119.025 E0.0227
G1 X199.342 Y119.468 E0.0227
G1 X199.386 Y119.999 E0.0266
G1 X199.387 Y122.999 E0.1497
G1 X199.355 Y123.453 E0.0227
G1 X199.260 Y123.898 E0.0227
G1 X199.104 Y124.325 E0.0227
G1 X198.889 Y124.726 E0.0227
G1 X198.620 Y125.094 E0.0227
G1 X198.302 Y125.419 E0.0227
G1 X197.942 Y125.697 E0.0227
G1 X197.546 Y125.922 E0.0227
G1 X197.123 Y126.090 E0.0227
G1 X196.680 Y126.196 E0.0227
G1 X196.147 Y126.240 E0.0267
G1 X190.240 Y126.240 E0.2947
G1 X190.240 Y180.000 E2.6821
G1 X190.208 Y180.454 E0.0227
G1 X190.113 Y180.899 E0.0227
G1 X189.956 Y181.326 E0.0227
G1 X189.741 Y181.727 E0.0227
G1 X189.472 Y182.094 E0.0227
G1 X189.154 Y182.420 E0.0227
G1 X188.794 Y182.698 E0.0227
G1 X188.398 Y182.923 E0.0227
G1 X187.975 Y183.090 E0.0227
G1 X187.532 Y183.196 E0.0227
G1 X187.000 Y183.240 E0.0266
G1 X113.000 Y183.240 E3.6919
G1 X112.546 Y183.208 E0.0227
G1 X112.101 Y183.113 E0.0227
G1 X111.674 Y182.956 E0.0227
G1 X111.273 Y182.741 E0.0227
G1 X110.906 Y182.472 E0.0227
G1 X110.580 Y182.154 E0.0227
G1 X110.302 Y181.794 E0.0227
G1 X110.077 Y181.398 E0.0227
G1 X109.910 Y180.975 E0.0227
G1 X109.804 Y180.532 E0.0227
G1 X109.760 Y180.000 E0.0266
G1 X109.760 Y126.240 E2.6821
G1 X103.854 Y126.240 E0.2947
G1 X103.400 Y126.208 E0.0227
G1 X102.955 Y126.113 E0.0227
G1 X102.528 Y125.956 E0.0227
G1 X102.127 Y125.741 E0.0227
G1 X101.760 Y125.472 E0.0227
G1 X101.434 Y125.154 E0.0227
G1 X101.156 Y124.794 E0.0227
G1 X100.931 Y124.398 E0.0227
G1 X100.764 Y123.975 E0.0227
G1 X100.658 Y123.532 E0.0227
G1 X100.614 Y123.001 E0.0266
G1 X100.613 Y120.001 E0.1497
G1 X100.645 Y119.547 E0.0227
G1 X100.740 Y119.102 E0.0227
G1 X100.896 Y118.675 E0.0227
G1 X101.111 Y118.274 E0.0227
G1 X101.380 Y117.906 E0.0227
G1 X101.628 Y117.652 E0.0177
G0 F2400 X101.698 Y117.581
;PRINTING: chassie.STL
;PRINTING_ID: 0
G1 F2400 E-1.0000
M204 S1300.00
G0 F7200 X113.701 Y179.182
G0 F7200 X113.720 Y179.280
M204 S1000.00
M205 X6.00 Y6.00
;TYPE:WALL-INNER
;WIDTH:0.480
G1 F2400 E0.9700
G1 F2400 X113.720 Y125.972 E2.6595
G1 X113.677 Y125.418 E0.0277
G1 X113.540 Y124.850 E0.0292
G1 X113.317 Y124.311 E0.0291
G1 X113.011 Y123.812 E0.0292
G1 X112.631 Y123.369 E0.0291
G1 X112.188 Y122.989 E0.0291
G1 X111.689 Y122.683 E0.0292
G1 X111.150 Y122.460 E0.0291
G1 X110.582 Y122.323 E0.0292
G1 X110.028 Y122.280 E0.0277
G1 X104.574 Y122.280 E0.2721
G1 X104.573 Y120.720 E0.0778
G1 X115.280 Y120.720 E0.5342
G1 X115.280 Y138.839 E0.9040
G1 X118.280 Y138.838 E0.1497
G1 X118.280 Y143.161 E0.2157
G1 X115.280 Y143.161 E0.1497
G1 X115.280 Y147.220 E0.2025
G1 X184.720 Y147.220 E3.4644
G1 X184.720 Y143.162 E0.2025
G1 X181.720 Y143.162 E0.1497
G1 X181.720 Y138.839 E0.2157
G1 X184.720 Y138.838 E0.1497
G1 X184.720 Y120.720 E0.9039
G1 X195.426 Y120.720 E0.5341
G1 X195.427 Y122.280 E0.0778
G1 X189.972 Y122.280 E0.2722
G1 X189.418 Y122.323 E0.0277
G1 X188.850 Y122.460 E0.0292
G1 X188.311 Y122.683 E0.0291
G1 X187.812 Y122.989 E0.0292
G1 X187.369 Y123.369 E0.0291
G1 X186.989 Y123.812 E0.0291
G1 X186.683 Y124.311 E0.0292
G1 X186.460 Y124.850 E0.0291
G1 X186.323 Y125.418 E0.0292
G1 X186.280 Y125.972 E0.0277
G1 X186.280 Y179.280 E2.6595
G1 X113.820 Y179.280 E3.6150
G0 F2400 X113.720 Y179.280
G1 F2400 E-1.0000
M204 S1300.00
M205 X7.00 Y7.00
G0 F7200 X113.310 Y179.690
G0 F7200 X113.240 Y179.760
M204 S1000.00
M205 X6.00 Y6.00
;TYPE:WALL-OUTER
;WIDTH:0.480
G1 F2400 E0.9700
G1 F2400 X113.240 Y125.991 E2.6825
G1 X113.201 Y125.493 E0.0249
G1 X113.082 Y124.999 E0.0254
G1 X112.888 Y124.529 E0.0254
G1 X112.622 Y124.095 E0.0254
G1 X112.291 Y123.709 E0.0254
G1 X111.905 Y123.378 E0.0254
G1 X111.471 Y123.112 E0.0254
G1 X111.001 Y122.918 E0.0254
G1 X110.507 Y122.799 E0.0254
G1 X110.009 Y122.760 E0.0249
G1 X104.094 Y122.760 E0.2951
G1 X104.093 Y120.240 E0.1257
G1 X115.760 Y120.240 E0.5821
G1 X115.760 Y138.359 E0.9040
G1 X118.760 Y138.358 E0.1497
G1 X118.760 Y143.641 E0.2636
G1 X115.760 Y143.641 E0.1497
G1 X115.760 Y146.740 E0.1546
G1 X184.240 Y146.740 E3.4165
G1 X184.240 Y143.642 E0.1546
G1 X181.240 Y143.642 E0.1497
G1 X181.240 Y138.359 E0.2636
G1 X184.240 Y138.358 E0.1497
G1 X184.240 Y120.240 E0.9039
G1 X195.906 Y120.240 E0.5820
G1 X195.907 Y122.760 E0.1257
G1 X189.991 Y122.760 E0.2952
G1 X189.493 Y122.799 E0.0249
G1 X188.999 Y122.918 E0.0254
G1 X188.529 Y123.112 E0.0254
G1 X188.095 Y123.378 E0.0254
G1 X187.709 Y123.709 E0.0254
G1 X187.378 Y124.095 E0.0254
G1 X187.112 Y124.529 E0.0254
G1 X186.918 Y124.999 E0.0254
G1 X186.799 Y125.493 E0.0254
G1 X186.760 Y125.991 E0.0249
G1 X186.760 Y179.760 E2.6825
G1 X113.340 Y179.760 E3.6629
G0 F2400 X113.240 Y179.760
M204 S1300.00
M205 X7.00 Y7.00
G0 F1200 X113.240 Y179.660
G0 F1200 X113.240 Y179.560
G1 F2400 E-1.0000
G0 F7200 X113.340 Y179.560
G0 X115.208 Y177.788
G0 F7200 X115.280 Y177.720
M204 S1000.00
M205 X6.00 Y6.00
;TYPE:WALL-INNER
;WIDTH:0.480
G1 F2400 E0.9700
G1 F2400 X184.720 Y177.720 E3.4644
G1 X184.720 Y173.162 E0.2274
G1 X181.720 Y173.162 E0.1497
G1 X181.720 Y168.839 E0.2157
G1 X184.720 Y168.838 E0.1497
G1 X184.720 Y147.780 E1.0506
G1 X115.280 Y147.780 E3.4644
G1 X115.280 Y168.838 E1.0506
