;Sliced by ideaMaker 4.2.3.5600, 2022-10-13 19:25:45 UTC+0200
;Dimension: 300.000 300.000 400.000 0.400
;Plate Shape: 0
;Origin Center: 0
;Extruder Offset #1: 25.000 0.000
;Filament Diameter #1: 1.750
;Filament Diameter #2: 1.750
;Filament Compensation #1: 100.00
;Filament Compensation #2: 90.00
;Filament Density #1: 1240.00
;Filament Density #2: 1240.00
;Filament Type #1: Sunlu
;Filament Type #2: 
;Filament Name #1: Sunlu Grey PLA
;Filament Name #2: 
;Firmware: Marlin
;Bounding Box: 136.831 163.169 136.831 163.169 0.000 8.050
;Model Gap: 0.000
M92 E415.00000
M221 T0 S100.00
M140 S60.00
M104 T0 S210.00
M109 T0 S210.00
T0
M190 S60.00
M107
G28 ; home all axes
G29 ; Autoleveling processing ; à commenter si M420 actif
;M420 S1 Z10 ; Autolevel enable ; à commenter si G29 actif
;vous avez 2 choix, soit activer le G29 pour faire un autoleveling du plateau avant chaque impression
;C'est la méthode recvommandé par ARtillery3Dexpert.fr
;soit activer la ligne qui commance par M420 pour faire un rappel de la derniere mesure du plateau
;pour gagner du temp ( non recommandé par artillery3Dexpert.fr )
M500 ; sauvegarde eeprom
M117 Purge extruder
G92 E0 ; reset extruder
G1 Z1.0 F3000 ; move z up little to prevent scratching of surface
G1 X2 Y20 Z0.3 F5000.0 ; move to start-line position
G1 X2 Y200.0 Z0.3 F1500.0 E15 ; draw 1st line
G1 X2 Y200.0 Z0.4 F5000.0 ; move to side a little
G1 X2 Y20 Z0.4 F1500.0 E30 ; draw 2nd line
G92 E0 ; reset extruder
G1 Z1.0 F3000 ; move z up little to prevent scratching of surface
;TOTAL_NUM: 1
;PRINTING_TIME: 0
;REMAINING_TIME: 425
M83
;LAYER:0
;Z:0.250
;HEIGHT:0.250
M106 S0
;PRINTING: NON-OBJECT
;PRINTING_ID: -1
G1 F2400 E-1.0000
M204 S1300.00
M205 X7.00 Y7.00
G0 F7200 X140.358 Y140.887
G0 F900 Z0.250
G0 F7200 X140.428 Y140.957
M204 S1250.00
;TYPE:SKIRT
;WIDTH:0.480
G1 F2400 E0.9700
G1 F2400 X141.168 Y140.234 E0.0516
G1 X141.912 Y139.609 E0.0485
G1 X142.482 Y139.189 E0.0353
G1 X143.528 Y138.532 E0.0616
G1 X144.430 Y138.068 E0.0506
G1 X145.074 Y137.789 E0.0350
G1 X145.958 Y137.469 E0.0469
G1 X147.190 Y137.135 E0.0637
G1 X148.204 Y136.953 E0.0514
G1 X149.183 Y136.856 E0.0491
G1 X150.126 Y136.831 E0.0471
G1 X150.827 Y136.856 E0.0350
G1 X151.879 Y136.966 E0.0528
G1 X153.084 Y137.197 E0.0612
G1 X153.732 Y137.371 E0.0335
G1 X154.691 Y137.697 E0.0505
G1 X155.643 Y138.103 E0.0516
G1 X156.693 Y138.660 E0.0593
G1 X157.556 Y139.216 E0.0512
G1 X158.328 Y139.799 E0.0483
G1 X158.844 Y140.243 E0.0340
G1 X159.766 Y141.168 E0.0652
G1 X160.391 Y141.912 E0.0485
G1 X160.790 Y142.452 E0.0335
G1 X161.343 Y143.311 E0.0510
G1 X161.900 Y144.362 E0.0593
G1 X162.320 Y145.348 E0.0535
G1 X162.629 Y146.268 E0.0484
G1 X162.803 Y146.916 E0.0335
G1 X163.047 Y148.203 E0.0654
G1 X163.142 Y149.142 E0.0471
G1 X163.169 Y149.843 E0.0350
G1 X163.141 Y150.852 E0.0504
G1 X163.002 Y152.089 E0.0621
G1 X162.799 Y153.093 E0.0511
G1 X162.539 Y154.025 E0.0483
G1 X162.301 Y154.702 E0.0358
G1 X161.809 Y155.825 E0.0612
G1 X161.341 Y156.692 E0.0492
G1 X160.968 Y157.287 E0.0350
G1 X160.372 Y158.112 E0.0508
G1 X159.566 Y159.049 E0.0617
G1 X158.832 Y159.766 E0.0512
G1 X158.088 Y160.391 E0.0485
G1 X157.548 Y160.790 E0.0335
G1 X156.689 Y161.343 E0.0510
G1 X155.638 Y161.900 E0.0593
G1 X154.652 Y162.320 E0.0535
G1 X153.732 Y162.629 E0.0484
G1 X153.084 Y162.803 E0.0335
G1 X151.837 Y163.041 E0.0633
G1 X150.817 Y163.144 E0.0511
G1 X149.874 Y163.169 E0.0471
G1 X149.173 Y163.144 E0.0350
G1 X147.870 Y162.996 E0.0654
G1 X146.915 Y162.802 E0.0486
G1 X146.208 Y162.611 E0.0365
G1 X145.347 Y162.320 E0.0453
G1 X144.176 Y161.810 E0.0637
G1 X143.335 Y161.357 E0.0477
G1 X142.713 Y160.968 E0.0366
G1 X141.856 Y160.347 E0.0528
G1 X140.957 Y159.572 E0.0592
G1 X140.234 Y158.832 E0.0516
G1 X139.609 Y158.088 E0.0485
G1 X139.189 Y157.518 E0.0353
G1 X138.532 Y156.472 E0.0616
G1 X138.068 Y155.570 E0.0506
G1 X137.789 Y154.926 E0.0350
G1 X137.469 Y154.042 E0.0469
G1 X137.135 Y152.810 E0.0637
G1 X136.953 Y151.796 E0.0514
G1 X136.856 Y150.817 E0.0491
G1 X136.831 Y149.874 E0.0471
G1 X136.856 Y149.173 E0.0350
G1 X137.004 Y147.870 E0.0654
G1 X137.198 Y146.915 E0.0486
G1 X137.393 Y146.198 E0.0371
G1 X137.774 Y145.111 E0.0575
G1 X138.177 Y144.204 E0.0495
G1 X138.676 Y143.280 E0.0524
G1 X139.067 Y142.661 E0.0365
G1 X139.603 Y141.920 E0.0456
G1 X140.363 Y141.032 E0.0583
G0 F2400 X140.428 Y140.957
M204 S1300.00
G0 F7200 X140.694 Y141.229
G0 F7200 X140.764 Y141.300
M204 S1250.00
G1 F2400 X141.477 Y140.601 E0.0498
G1 X142.197 Y139.995 E0.0470
G1 X142.767 Y139.575 E0.0353
G1 X143.783 Y138.939 E0.0598
G1 X144.622 Y138.508 E0.0471
G1 X145.237 Y138.240 E0.0335
G1 X146.121 Y137.920 E0.0469
G1 X147.275 Y137.607 E0.0597
G1 X148.252 Y137.431 E0.0495
G1 X149.196 Y137.336 E0.0473
G1 X150.139 Y137.311 E0.0471
G1 X150.809 Y137.336 E0.0334
G1 X151.789 Y137.437 E0.0492
G1 X152.960 Y137.661 E0.0595
G1 X153.608 Y137.835 E0.0335
G1 X154.536 Y138.151 E0.0489
G1 X155.418 Y138.527 E0.0478
G1 X156.468 Y139.084 E0.0593
G1 X157.267 Y139.599 E0.0474
G1 X158.015 Y140.163 E0.0467
G1 X158.531 Y140.607 E0.0340
G1 X159.399 Y141.477 E0.0613
G1 X160.005 Y142.197 E0.0470
G1 X160.404 Y142.737 E0.0335
G1 X160.939 Y143.570 E0.0494
G1 X161.475 Y144.586 E0.0573
G1 X161.865 Y145.501 E0.0496
G1 X162.165 Y146.392 E0.0469
G1 X162.339 Y147.040 E0.0335
G1 X162.569 Y148.252 E0.0615
G1 X162.662 Y149.160 E0.0455
G1 X162.689 Y149.861 E0.0350
G1 X162.664 Y150.798 E0.0468
G1 X162.525 Y152.035 E0.0621
G1 X162.337 Y152.964 E0.0473
G1 X162.086 Y153.866 E0.0467
G1 X161.861 Y154.509 E0.0340
G1 X161.369 Y155.632 E0.0612
G1 X160.934 Y156.437 E0.0457
G1 X160.561 Y157.032 E0.0350
G1 X159.983 Y157.831 E0.0492
G1 X159.203 Y158.735 E0.0596
G1 X158.523 Y159.399 E0.0474
G1 X157.803 Y160.005 E0.0470
G1 X157.263 Y160.404 E0.0335
G1 X156.430 Y160.939 E0.0494
G1 X155.414 Y161.475 E0.0573
G1 X154.499 Y161.865 E0.0496
G1 X153.608 Y162.165 E0.0469
G1 X152.960 Y162.339 E0.0335
G1 X151.748 Y162.569 E0.0615
G1 X150.804 Y162.664 E0.0473
G1 X149.861 Y162.689 E0.0471
G1 X149.191 Y162.664 E0.0334
G1 X147.965 Y162.525 E0.0616
G1 X147.040 Y162.339 E0.0471
G1 X146.362 Y162.156 E0.0350
G1 X145.501 Y161.865 E0.0453
G1 X144.404 Y161.387 E0.0597
G1 X143.563 Y160.934 E0.0477
G1 X142.968 Y160.561 E0.0350
G1 X142.169 Y159.983 E0.0492
G1 X141.270 Y159.208 E0.0592
G1 X140.601 Y158.523 E0.0478
G1 X139.995 Y157.803 E0.0470
G1 X139.575 Y157.233 E0.0353
G1 X138.939 Y156.217 E0.0598
G1 X138.508 Y155.378 E0.0471
G1 X138.240 Y154.763 E0.0335
G1 X137.920 Y153.879 E0.0469
G1 X137.607 Y152.725 E0.0597
G1 X137.431 Y151.748 E0.0495
G1 X137.336 Y150.804 E0.0473
G1 X137.311 Y149.861 E0.0471
G1 X137.336 Y149.191 E0.0334
G1 X137.475 Y147.965 E0.0616
G1 X137.661 Y147.040 E0.0471
G1 X137.846 Y146.357 E0.0353
G1 X138.227 Y145.270 E0.0575
G1 X138.615 Y144.400 E0.0475
G1 X139.082 Y143.536 E0.0490
G1 X139.456 Y142.942 E0.0350
G1 X139.992 Y142.201 E0.0456
G1 X140.699 Y141.375 E0.0542
G0 F2400 X140.764 Y141.300
M204 S1300.00
G0 F7200 X141.053 Y141.548
G0 F7200 X141.128 Y141.613
M204 S1250.00
G1 F2400 X141.786 Y140.968 E0.0460
G1 X142.482 Y140.381 E0.0454
G1 X143.022 Y139.982 E0.0335
G1 X144.003 Y139.366 E0.0578
G1 X144.814 Y138.948 E0.0455
G1 X145.429 Y138.680 E0.0335
G1 X146.284 Y138.371 E0.0454
G1 X147.400 Y138.071 E0.0577
G1 X148.301 Y137.909 E0.0457
G1 X149.209 Y137.816 E0.0455
G1 X150.121 Y137.791 E0.0455
G1 X150.791 Y137.816 E0.0334
G1 X151.699 Y137.909 E0.0455
G1 X152.836 Y138.125 E0.0577
G1 X153.484 Y138.299 E0.0335
G1 X154.349 Y138.593 E0.0456
G1 X155.194 Y138.951 E0.0458
G1 X156.209 Y139.488 E0.0573
G1 X156.978 Y139.982 E0.0456
G1 X157.702 Y140.527 E0.0452
G1 X158.218 Y140.971 E0.0340
G1 X159.032 Y141.786 E0.0575
G1 X159.619 Y142.482 E0.0454
G1 X160.018 Y143.022 E0.0335
G1 X160.514 Y143.794 E0.0458
G1 X161.050 Y144.810 E0.0573
G1 X161.410 Y145.655 E0.0458
G1 X161.701 Y146.516 E0.0453
G1 X161.875 Y147.164 E0.0335
G1 X162.091 Y148.301 E0.0577
G1 X162.184 Y149.209 E0.0455
G1 X162.209 Y149.879 E0.0334
G1 X162.184 Y150.785 E0.0452
G1 X162.054 Y151.941 E0.0580
G1 X161.875 Y152.836 E0.0455
G1 X161.633 Y153.707 E0.0451
G1 X161.408 Y154.350 E0.0340
G1 X160.947 Y155.404 E0.0574
G1 X160.512 Y156.209 E0.0457
G1 X160.155 Y156.777 E0.0335
G1 X159.619 Y157.518 E0.0456
G1 X158.867 Y158.392 E0.0575
G1 X158.214 Y159.032 E0.0456
G1 X157.518 Y159.619 E0.0454
G1 X156.978 Y160.018 E0.0335
G1 X156.206 Y160.514 E0.0458
G1 X155.190 Y161.050 E0.0573
G1 X154.345 Y161.410 E0.0458
G1 X153.484 Y161.701 E0.0453
G1 X152.836 Y161.875 E0.0335
G1 X151.699 Y162.091 E0.0577
G1 X150.791 Y162.184 E0.0455
G1 X149.879 Y162.209 E0.0455
G1 X149.209 Y162.184 E0.0334
G1 X148.059 Y162.054 E0.0577
G1 X147.164 Y161.875 E0.0455
G1 X146.516 Y161.701 E0.0335
G1 X145.655 Y161.410 E0.0453
G1 X144.596 Y160.947 E0.0577
G1 X143.791 Y160.512 E0.0457
G1 X143.223 Y160.155 E0.0335
G1 X142.482 Y159.619 E0.0456
G1 X141.613 Y158.872 E0.0572
G1 X140.968 Y158.214 E0.0460
G1 X140.381 Y157.518 E0.0454
G1 X139.982 Y156.978 E0.0335
G1 X139.366 Y155.997 E0.0578
G1 X138.948 Y155.186 E0.0455
G1 X138.680 Y154.571 E0.0335
G1 X138.371 Y153.716 E0.0454
G1 X138.071 Y152.600 E0.0577
G1 X137.909 Y151.699 E0.0457
G1 X137.816 Y150.791 E0.0455
G1 X137.791 Y149.879 E0.0455
G1 X137.816 Y149.209 E0.0334
G1 X137.946 Y148.059 E0.0577
G1 X138.125 Y147.164 E0.0455
G1 X138.299 Y146.516 E0.0335
G1 X138.680 Y145.429 E0.0575
G1 X139.053 Y144.596 E0.0455
G1 X139.488 Y143.791 E0.0457
G1 X139.845 Y143.223 E0.0335
G1 X140.381 Y142.482 E0.0456
G1 X141.063 Y141.688 E0.0522
G0 F2400 X141.128 Y141.613
;PRINTING: coupling .STL
;PRINTING_ID: 0
G1 F2400 E-1.0000
M204 S1300.00
G0 F7200 X144.368 Y155.951
G0 F7200 X144.390 Y156.048
M204 S1000.00
M205 X6.00 Y6.00
;TYPE:WALL-INNER
;WIDTH:0.480
G1 F2400 E0.9700
G1 F2400 X143.952 Y155.610 E0.0309
G1 X143.550 Y155.142 E0.0308
G1 X143.182 Y154.644 E0.0309
G1 X142.853 Y154.123 E0.0307
G1 X142.569 Y153.583 E0.0304
G1 X142.317 Y153.005 E0.0315
G1 X142.119 Y152.440 E0.0299
G1 X141.957 Y151.837 E0.0312
G1 X141.840 Y151.220 E0.0313
G1 X141.773 Y150.625 E0.0299
G1 X141.749 Y150.000 E0.0312
G1 X141.773 Y149.375 E0.0312
G1 X141.840 Y148.780 E0.0299
G1 X141.957 Y148.163 E0.0313
G1 X142.119 Y147.560 E0.0312
G1 X142.317 Y146.995 E0.0299
G1 X142.571 Y146.412 E0.0317
G1 X142.853 Y145.877 E0.0302
G1 X143.182 Y145.356 E0.0307
G1 X143.550 Y144.858 E0.0309
G1 X143.952 Y144.390 E0.0308
G1 X144.390 Y143.952 E0.0309
G1 X144.858 Y143.550 E0.0308
G1 X145.356 Y143.182 E0.0309
G1 X145.877 Y142.853 E0.0307
G1 X146.417 Y142.569 E0.0304
G1 X146.995 Y142.317 E0.0315
G1 X147.560 Y142.119 E0.0299
G1 X148.163 Y141.957 E0.0312
G1 X148.780 Y141.840 E0.0313
G1 X149.375 Y141.773 E0.0299
G1 X150.000 Y141.749 E0.0312
G1 X150.625 Y141.773 E0.0312
G1 X151.220 Y141.840 E0.0299
G1 X151.837 Y141.957 E0.0313
G1 X152.440 Y142.119 E0.0312
G1 X153.012 Y142.319 E0.0302
G1 X153.294 Y142.442 E0.0153
G1 X153.582 Y142.569 E0.0157
G1 X154.123 Y142.853 E0.0305
G1 X154.644 Y143.182 E0.0307
G1 X155.151 Y143.556 E0.0314
G1 X155.604 Y143.946 E0.0298
G1 X156.048 Y144.390 E0.0313
G1 X156.450 Y144.858 E0.0308
G1 X156.818 Y145.356 E0.0309
G1 X157.147 Y145.877 E0.0307
G1 X157.429 Y146.413 E0.0302
G1 X157.677 Y146.978 E0.0308
G1 X157.886 Y147.576 E0.0316
G1 X158.043 Y148.163 E0.0303
G1 X158.160 Y148.780 E0.0313
G1 X158.227 Y149.375 E0.0299
G1 X158.251 Y150.000 E0.0312
G1 X158.227 Y150.625 E0.0312
G1 X158.160 Y151.220 E0.0299
G1 X158.043 Y151.837 E0.0313
G1 X157.886 Y152.424 E0.0303
G1 X157.679 Y153.017 E0.0313
G1 X157.431 Y153.583 E0.0308
G1 X157.147 Y154.123 E0.0304
G1 X156.818 Y154.644 E0.0307
G1 X156.450 Y155.142 E0.0309
G1 X156.048 Y155.610 E0.0308
G1 X155.610 Y156.048 E0.0309
G1 X155.142 Y156.450 E0.0308
G1 X154.644 Y156.818 E0.0309
G1 X154.123 Y157.147 E0.0307
G1 X153.583 Y157.431 E0.0304
G1 X153.017 Y157.679 E0.0308
G1 X152.429 Y157.884 E0.0311
G1 X151.837 Y158.043 E0.0306
G1 X151.220 Y158.160 E0.0313
G1 X150.625 Y158.227 E0.0299
G1 X150.000 Y158.251 E0.0312
G1 X149.375 Y158.227 E0.0312
G1 X148.780 Y158.160 E0.0299
G1 X148.163 Y158.043 E0.0313
G1 X147.571 Y157.884 E0.0306
G1 X146.983 Y157.679 E0.0311
G1 X146.417 Y157.431 E0.0308
G1 X145.877 Y157.147 E0.0304
G1 X145.356 Y156.818 E0.0307
G1 X144.858 Y156.450 E0.0309
G1 X144.465 Y156.113 E0.0258
G0 F2400 X144.390 Y156.048
G1 F2400 E-1.0000
M204 S1300.00
M205 X7.00 Y7.00
G0 F7200 X144.131 Y156.327
G0 F7200 X144.063 Y156.400
M204 S1000.00
M205 X6.00 Y6.00
;TYPE:WALL-OUTER
;WIDTH:0.480
G1 F2400 E0.9700
G1 F2400 X143.600 Y155.937 E0.0327
G1 X143.174 Y155.441 E0.0326
G1 X142.785 Y154.915 E0.0326
G1 X142.437 Y154.363 E0.0326
G1 X142.136 Y153.791 E0.0322
G1 X141.870 Y153.181 E0.0332
G1 X141.660 Y152.582 E0.0317
G1 X141.489 Y151.944 E0.0330
G1 X141.365 Y151.292 E0.0331
G1 X141.294 Y150.661 E0.0317
G1 X141.269 Y150.000 E0.0330
G1 X141.294 Y149.339 E0.0330
G1 X141.365 Y148.708 E0.0317
G1 X141.489 Y148.056 E0.0331
G1 X141.660 Y147.418 E0.0330
G1 X141.870 Y146.819 E0.0317
G1 X142.138 Y146.204 E0.0335
G1 X142.437 Y145.637 E0.0320
G1 X142.785 Y145.085 E0.0326
G1 X143.174 Y144.559 E0.0326
G1 X143.600 Y144.063 E0.0326
G1 X144.063 Y143.600 E0.0327
G1 X144.559 Y143.174 E0.0326
G1 X145.085 Y142.785 E0.0326
G1 X145.637 Y142.437 E0.0326
G1 X146.209 Y142.136 E0.0322
G1 X146.819 Y141.870 E0.0332
G1 X147.418 Y141.660 E0.0317
G1 X148.056 Y141.489 E0.0330
G1 X148.708 Y141.365 E0.0331
G1 X149.339 Y141.294 E0.0317
G1 X150.000 Y141.269 E0.0330
G1 X150.661 Y141.294 E0.0330
G1 X151.292 Y141.365 E0.0317
G1 X151.944 Y141.489 E0.0331
G1 X152.582 Y141.660 E0.0330
G1 X153.187 Y141.872 E0.0320
G1 X153.486 Y142.002 E0.0163
G1 X153.791 Y142.136 E0.0166
G1 X154.363 Y142.437 E0.0322
G1 X154.915 Y142.785 E0.0326
G1 X155.450 Y143.180 E0.0332
G1 X155.689 Y143.385 E0.0157
G1 X155.931 Y143.594 E0.0160
G1 X156.400 Y144.063 E0.0331
G1 X156.826 Y144.559 E0.0326
G1 X157.215 Y145.085 E0.0326
G1 X157.563 Y145.637 E0.0326
G1 X157.862 Y146.204 E0.0320
G1 X158.124 Y146.802 E0.0326
G1 X158.345 Y147.435 E0.0334
G1 X158.511 Y148.056 E0.0321
G1 X158.635 Y148.708 E0.0331
G1 X158.706 Y149.339 E0.0317
G1 X158.731 Y150.000 E0.0330
G1 X158.706 Y150.661 E0.0330
G1 X158.635 Y151.292 E0.0317
G1 X158.511 Y151.944 E0.0331
G1 X158.345 Y152.565 E0.0321
G1 X158.126 Y153.193 E0.0332
G1 X157.864 Y153.791 E0.0326
G1 X157.563 Y154.363 E0.0322
G1 X157.215 Y154.915 E0.0326
G1 X156.826 Y155.441 E0.0326
G1 X156.400 Y155.937 E0.0326
G1 X155.937 Y156.400 E0.0327
G1 X155.441 Y156.826 E0.0326
G1 X154.915 Y157.215 E0.0326
G1 X154.363 Y157.563 E0.0326
G1 X153.791 Y157.864 E0.0322
G1 X153.193 Y158.126 E0.0326
G1 X152.570 Y158.343 E0.0329
G1 X151.944 Y158.511 E0.0323
G1 X151.292 Y158.635 E0.0331
G1 X150.661 Y158.706 E0.0317
G1 X150.000 Y158.731 E0.0330
G1 X149.339 Y158.706 E0.0330
G1 X148.708 Y158.635 E0.0317
G1 X148.056 Y158.511 E0.0331
G1 X147.430 Y158.343 E0.0323
G1 X146.807 Y158.126 E0.0329
G1 X146.209 Y157.864 E0.0326
G1 X145.637 Y157.563 E0.0322
G1 X145.085 Y157.215 E0.0326
G1 X144.559 Y156.826 E0.0326
G1 X144.138 Y156.465 E0.0277
G0 F2400 X144.063 Y156.400
M204 S1300.00
M205 X7.00 Y7.00
G0 F1200 X143.992 Y156.329
G0 F1200 X143.922 Y156.259
G1 F2400 E-1.0000
G0 F7200 X143.993 Y156.190
G0 X146.425 Y156.026
G0 F7200 X146.524 Y156.020
M204 S1000.00
M205 X6.00 Y6.00
;TYPE:WALL-INNER
;WIDTH:0.480
G1 F2400 E0.9700
G1 F2400 X153.476 Y156.020 E0.3468
G1 X156.951 Y150.000 E0.3468
G1 X153.476 Y143.980 E0.3468
G1 X146.524 Y143.980 E0.3468
G1 X143.049 Y150.000 E0.3468
G1 X146.474 Y155.934 E0.3418
G0 F2400 X146.524 Y156.020
G1 F2400 E-1.0000
M204 S1300.00
M205 X7.00 Y7.00
G0 F7200 X146.751 Y155.626
G0 F7200 X146.801 Y155.540
M204 S1000.00
M205 X6.00 Y6.00
;TYPE:WALL-OUTER
;WIDTH:0.480
G1 F2400 E0.9700
G1 F2400 X153.199 Y155.540 E0.3192
G1 X156.397 Y150.000 E0.3191
G1 X153.199 Y144.460 E0.3191
G1 X146.801 Y144.460 E0.3192
G1 X143.603 Y150.000 E0.3191
G1 X146.751 Y155.454 E0.3142
G0 F2400 X146.801 Y155.540
M204 S1300.00
M205 X7.00 Y7.00
G0 F1200 X146.901 Y155.540
G0 F1200 X147.001 Y155.540
G0 F7200 X145.821 Y156.881
G0 F7200 X145.755 Y156.956
M204 S1250.00
;TYPE:SOLID-FILL
;WIDTH:0.480
G1 F2400 X143.112 Y154.312 E0.1865
G0 F2400 X143.042 Y154.242
M204 S1300.00
G0 F7200 X142.428 Y152.995
G0 F7200 X142.384 Y152.906
M204 S1250.00
