;Sliced by ideaMaker 4.2.3.5600, 2022-10-13 19:23:39 UTC+0200
;Dimension: 300.000 300.000 400.000 0.400
;Plate Shape: 0
;Origin Center: 0
;Extruder Offset #1: 25.000 0.000
;Filament Diameter #1: 1.750
;Filament Diameter #2: 1.750
;Filament Compensation #1: 100.00
;Filament Compensation #2: 90.00
;Filament Density #1: 1240.00
;Filament Density #2: 1240.00
;Filament Type #1: Sunlu
;Filament Type #2: 
;Filament Name #1: Sunlu Grey PLA
;Filament Name #2: 
;Firmware: Marlin
;Bounding Box: 111.069 188.931 114.055 185.943 0.000 3.250
;Model Gap: 0.000
M92 E415.00000
M221 T0 S100.00
M140 S60.00
M104 T0 S210.00
M109 T0 S210.00
T0
M190 S60.00
M107
G28 ; home all axes
G29 ; Autoleveling processing ; à commenter si M420 actif
;M420 S1 Z10 ; Autolevel enable ; à commenter si G29 actif
;vous avez 2 choix, soit activer le G29 pour faire un autoleveling du plateau avant chaque impression
;C'est la méthode recvommandé par ARtillery3Dexpert.fr
;soit activer la ligne qui commance par M420 pour faire un rappel de la derniere mesure du plateau
;pour gagner du temp ( non recommandé par artillery3Dexpert.fr )
M500 ; sauvegarde eeprom
M117 Purge extruder
G92 E0 ; reset extruder
G1 Z1.0 F3000 ; move z up little to prevent scratching of surface
G1 X2 Y20 Z0.3 F5000.0 ; move to start-line position
G1 X2 Y200.0 Z0.3 F1500.0 E15 ; draw 1st line
G1 X2 Y200.0 Z0.4 F5000.0 ; move to side a little
G1 X2 Y20 Z0.4 F1500.0 E30 ; draw 2nd line
G92 E0 ; reset extruder
G1 Z1.0 F3000 ; move z up little to prevent scratching of surface
;TOTAL_NUM: 1
;PRINTING_TIME: 0
;REMAINING_TIME: 1568
M83
;LAYER:0
;Z:0.250
;HEIGHT:0.250
M106 S0
;PRINTING: NON-OBJECT
;PRINTING_ID: -1
G1 F2400 E-1.0000
M204 S1300.00
M205 X7.00 Y7.00
G0 F7200 X122.855 Y120.391
G0 F900 Z0.250
G0 F7200 X122.926 Y120.460
M204 S1250.00
;TYPE:SKIRT
;WIDTH:0.480
G1 F2400 E0.9700
G1 F2400 X124.440 Y118.947 E0.1068
G1 X124.837 Y118.601 E0.0263
G1 X126.631 Y117.255 E0.1119
G1 X127.108 Y116.950 E0.0282
G1 X129.018 Y115.908 E0.1085
G1 X129.532 Y115.674 E0.0282
G1 X131.537 Y114.926 E0.1068
G1 X132.045 Y114.775 E0.0264
G1 X134.237 Y114.297 E0.1119
G1 X134.802 Y114.217 E0.0285
G1 X137.231 Y114.055 E0.1215
G1 X180.765 Y114.056 E2.1719
G1 X181.389 Y114.109 E0.0312
G1 X181.966 Y114.242 E0.0295
G1 X182.515 Y114.455 E0.0294
G1 X182.973 Y114.706 E0.0261
G1 X183.447 Y115.054 E0.0293
G1 X183.869 Y115.468 E0.0295
G1 X184.229 Y115.934 E0.0294
G1 X184.358 Y116.155 E0.0128
G1 X184.799 Y116.157 E0.0220
G1 X185.253 Y116.189 E0.0227
G1 X185.827 Y116.303 E0.0292
G1 X186.450 Y116.525 E0.0330
G1 X187.029 Y116.842 E0.0329
G1 X187.495 Y117.195 E0.0292
G1 X187.821 Y117.513 E0.0227
G1 X188.266 Y118.091 E0.0364
G1 X188.520 Y118.548 E0.0261
G1 X188.713 Y119.028 E0.0258
G1 X188.883 Y119.745 E0.0368
G1 X188.931 Y120.355 E0.0305
G1 X188.931 Y124.355 E0.1996
G1 X188.888 Y124.940 E0.0293
G1 X188.764 Y125.519 E0.0295
G1 X188.561 Y126.073 E0.0294
G1 X188.318 Y126.536 E0.0261
G1 X187.933 Y127.068 E0.0328
G1 X187.447 Y127.554 E0.0343
G1 X187.911 Y128.015 E0.0326
G1 X188.227 Y128.431 E0.0261
G1 X188.548 Y129.008 E0.0329
G1 X188.736 Y129.495 E0.0260
G1 X188.861 Y129.999 E0.0259
G1 X188.931 Y130.755 E0.0379
G1 X188.930 Y134.789 E0.2013
G1 X188.877 Y135.413 E0.0312
G1 X188.746 Y135.986 E0.0293
G1 X188.589 Y136.413 E0.0227
G1 X188.320 Y136.932 E0.0292
G1 X187.934 Y137.468 E0.0330
G1 X187.468 Y137.938 E0.0330
G1 X187.052 Y138.253 E0.0260
G1 X186.603 Y138.512 E0.0259
G1 X186.062 Y138.736 E0.0292
G1 X185.414 Y138.896 E0.0333
G1 X184.931 Y138.940 E0.0242
G1 X184.931 Y141.166 E0.1111
G1 X185.319 Y141.199 E0.0194
G1 X185.896 Y141.322 E0.0294
G1 X186.389 Y141.497 E0.0261
G1 X186.965 Y141.801 E0.0325
G1 X187.444 Y142.153 E0.0297
G1 X187.914 Y142.618 E0.0330
G1 X188.229 Y143.034 E0.0260
G1 X188.488 Y143.483 E0.0259
G1 X188.756 Y144.162 E0.0364
G1 X188.883 Y144.745 E0.0298
G1 X188.931 Y145.355 E0.0305
G1 X188.931 Y149.355 E0.1996
G1 X188.888 Y149.940 E0.0293
G1 X188.764 Y150.519 E0.0295
G1 X188.561 Y151.073 E0.0294
G1 X188.318 Y151.536 E0.0261
G1 X187.933 Y152.068 E0.0328
G1 X187.447 Y152.554 E0.0343
G1 X187.914 Y153.018 E0.0328
G1 X188.266 Y153.491 E0.0294
G1 X188.548 Y154.008 E0.0294
G1 X188.736 Y154.495 E0.0260
G1 X188.873 Y155.077 E0.0298
G1 X188.931 Y155.755 E0.0339
G1 X188.928 Y159.828 E0.2032
G1 X188.877 Y160.413 E0.0293
G1 X188.764 Y160.924 E0.0261
G1 X188.563 Y161.470 E0.0290
G1 X188.285 Y161.989 E0.0294
G1 X187.980 Y162.413 E0.0261
G1 X187.576 Y162.842 E0.0294
G1 X186.995 Y163.290 E0.0366
G1 X186.481 Y163.570 E0.0292
G1 X185.993 Y163.758 E0.0261
G1 X185.414 Y163.896 E0.0297
G1 X184.921 Y163.941 E0.0247
G1 X184.887 Y164.343 E0.0201
G1 X184.764 Y164.920 E0.0294
G1 X184.589 Y165.413 E0.0261
G1 X184.285 Y165.989 E0.0325
G1 X183.933 Y166.468 E0.0297
G1 X183.468 Y166.938 E0.0330
G1 X183.052 Y167.253 E0.0260
G1 X182.603 Y167.512 E0.0259
G1 X181.995 Y167.758 E0.0327
G1 X181.409 Y167.897 E0.0300
G1 X180.731 Y167.955 E0.0339
G1 X154.988 Y167.955 E1.2843
G1 X154.620 Y169.676 E0.0878
G1 X154.497 Y170.100 E0.0220
G1 X153.591 Y172.586 E0.1320
G1 X153.378 Y173.061 E0.0260
G1 X152.196 Y175.281 E0.1255
G1 X151.883 Y175.779 E0.0293
G1 X150.361 Y177.865 E0.1288
G1 X150.026 Y178.260 E0.0258
G1 X148.277 Y180.067 E0.1255
G1 X147.840 Y180.460 E0.0293
G1 X145.802 Y182.043 E0.1287
G1 X145.371 Y182.331 E0.0259
G1 X143.130 Y183.619 E0.1290
G1 X142.662 Y183.842 E0.0259
G1 X140.264 Y184.804 E0.1289
G1 X139.770 Y184.961 E0.0259
G1 X137.329 Y185.565 E0.1255
G1 X136.750 Y185.665 E0.0293
G1 X134.182 Y185.928 E0.1288
G1 X133.664 Y185.943 E0.0259
G1 X131.151 Y185.850 E0.1255
G1 X130.566 Y185.785 E0.0294
G1 X128.058 Y185.336 E0.1271
G1 X127.521 Y185.200 E0.0276
G1 X125.131 Y184.416 E0.1255
G1 X124.588 Y184.195 E0.0292
G1 X122.331 Y183.086 E0.1255
G1 X121.853 Y182.809 E0.0276
G1 X119.744 Y181.379 E0.1271
G1 X119.335 Y181.060 E0.0259
G1 X117.369 Y179.279 E0.1323
G1 X117.012 Y178.902 E0.0259
G1 X115.403 Y176.970 E0.1254
G1 X115.061 Y176.496 E0.0292
G1 X113.736 Y174.358 E0.1255
G1 X113.492 Y173.901 E0.0258
G1 X112.423 Y171.474 E0.1323
G1 X112.250 Y170.984 E0.0259
G1 X111.551 Y168.499 E0.1288
G1 X111.447 Y167.992 E0.0258
G1 X111.107 Y165.500 E0.1255
G1 X111.069 Y164.913 E0.0293
G1 X111.082 Y162.365 E0.1271
G1 X111.121 Y161.847 E0.0259
G1 X111.492 Y159.294 E0.1287
G1 X111.594 Y158.818 E0.0243
G1 X112.315 Y156.338 E0.1289
G1 X112.520 Y155.787 E0.0293
G1 X113.569 Y153.464 E0.1272
G1 X113.831 Y152.978 E0.0275
G1 X115.193 Y150.824 E0.1271
G1 X115.480 Y150.432 E0.0242
G1 X117.203 Y148.402 E0.1328
G1 X117.537 Y148.063 E0.0237
G1 X118.031 Y147.622 E0.0330
G1 X118.032 Y133.223 E0.7184
G1 X118.193 Y130.826 E0.1199
G1 X118.279 Y130.227 E0.0302
G1 X118.750 Y128.070 E0.1101
G1 X118.880 Y127.627 E0.0230
G1 X119.650 Y125.556 E0.1102
G1 X119.868 Y125.074 E0.0264
G1 X120.943 Y123.102 E0.1121
G1 X121.230 Y122.656 E0.0265
G1 X122.553 Y120.889 E0.1101
G1 X122.861 Y120.535 E0.0234
G0 F2400 X122.926 Y120.460
M204 S1300.00
G0 F7200 X123.195 Y120.730
G0 F7200 X123.265 Y120.800
M204 S1250.00
G1 F2400 X124.779 Y119.287 E0.1068
G1 X125.152 Y118.963 E0.0246
G1 X126.891 Y117.659 E0.1084
G1 X127.338 Y117.371 E0.0265
G1 X129.248 Y116.329 E0.1085
G1 X129.700 Y116.124 E0.0248
G1 X131.705 Y115.376 E0.1068
G1 X132.181 Y115.235 E0.0248
G1 X134.305 Y114.772 E0.1085
G1 X134.834 Y114.696 E0.0267
G1 X137.231 Y114.535 E0.1199
G1 X180.765 Y114.536 E2.1719
G1 X181.285 Y114.578 E0.0260
G1 X181.796 Y114.691 E0.0261
G1 X182.284 Y114.876 E0.0260
G1 X182.742 Y115.127 E0.0261
G1 X183.160 Y115.439 E0.0260
G1 X183.531 Y115.808 E0.0261
G1 X183.846 Y116.224 E0.0260
G1 X184.078 Y116.635 E0.0235
G1 X184.765 Y116.636 E0.0343
G1 X185.219 Y116.668 E0.0227
G1 X185.730 Y116.773 E0.0260
G1 X186.223 Y116.948 E0.0261
G1 X186.742 Y117.227 E0.0294
G1 X187.160 Y117.539 E0.0260
G1 X187.486 Y117.857 E0.0227
G1 X187.846 Y118.324 E0.0294
G1 X188.100 Y118.781 E0.0261
G1 X188.267 Y119.204 E0.0227
G1 X188.405 Y119.783 E0.0297
G1 X188.451 Y120.355 E0.0286
G1 X188.451 Y124.355 E0.1996
G1 X188.418 Y124.843 E0.0244
G1 X188.313 Y125.354 E0.0260
G1 X188.110 Y125.908 E0.0294
G1 X187.895 Y126.309 E0.0227
G1 X187.590 Y126.733 E0.0261
G1 X187.178 Y127.155 E0.0294
G1 X186.818 Y127.433 E0.0227
G1 X186.615 Y127.553 E0.0118
G1 X186.742 Y127.627 E0.0073
G1 X187.160 Y127.939 E0.0260
G1 X187.531 Y128.308 E0.0261
G1 X187.809 Y128.668 E0.0227
G1 X188.100 Y129.181 E0.0294
G1 X188.288 Y129.668 E0.0260
G1 X188.394 Y130.111 E0.0227
G1 X188.451 Y130.755 E0.0323
G1 X188.450 Y134.789 E0.2013
G1 X188.408 Y135.309 E0.0260
G1 X188.295 Y135.820 E0.0261
G1 X188.138 Y136.247 E0.0227
G1 X187.895 Y136.709 E0.0260
G1 X187.547 Y137.184 E0.0294
G1 X187.178 Y137.555 E0.0261
G1 X186.762 Y137.870 E0.0260
G1 X186.366 Y138.095 E0.0227
G1 X185.882 Y138.291 E0.0261
G1 X185.303 Y138.429 E0.0297
G1 X184.731 Y138.475 E0.0286
G1 X184.451 Y138.475 E0.0140
G1 X184.451 Y141.635 E0.1577
G1 X184.765 Y141.636 E0.0157
G1 X185.219 Y141.668 E0.0227
G1 X185.796 Y141.791 E0.0294
G1 X186.223 Y141.948 E0.0227
G1 X186.685 Y142.191 E0.0260
G1 X187.109 Y142.496 E0.0261
G1 X187.531 Y142.908 E0.0294
G1 X187.846 Y143.324 E0.0260
G1 X188.071 Y143.720 E0.0227
G1 X188.288 Y144.268 E0.0294
G1 X188.405 Y144.783 E0.0263
G1 X188.451 Y145.355 E0.0286
G1 X188.451 Y149.355 E0.1996
G1 X188.418 Y149.843 E0.0244
G1 X188.313 Y150.354 E0.0260
G1 X188.110 Y150.908 E0.0294
G1 X187.895 Y151.309 E0.0227
G1 X187.590 Y151.733 E0.0261
G1 X187.178 Y152.155 E0.0294
G1 X186.818 Y152.433 E0.0227
G1 X186.615 Y152.553 E0.0118
G1 X186.742 Y152.627 E0.0073
G1 X187.160 Y152.939 E0.0260
G1 X187.531 Y153.308 E0.0261
G1 X187.846 Y153.724 E0.0260
G1 X188.100 Y154.181 E0.0261
G1 X188.288 Y154.668 E0.0260
G1 X188.405 Y155.183 E0.0263
G1 X188.451 Y155.755 E0.0286
G1 X188.450 Y159.789 E0.2013
G1 X188.408 Y160.309 E0.0260
G1 X188.295 Y160.820 E0.0261
G1 X188.138 Y161.247 E0.0227
G1 X187.895 Y161.709 E0.0260
G1 X187.590 Y162.133 E0.0261
G1 X187.229 Y162.510 E0.0260
G1 X186.762 Y162.870 E0.0294
G1 X186.305 Y163.124 E0.0261
G1 X185.882 Y163.291 E0.0227
G1 X185.303 Y163.429 E0.0297
G1 X184.731 Y163.475 E0.0286
G1 X184.451 Y163.475 E0.0140
G1 X184.450 Y163.789 E0.0157
G1 X184.418 Y164.243 E0.0227
G1 X184.295 Y164.820 E0.0294
G1 X184.138 Y165.247 E0.0227
G1 X183.895 Y165.709 E0.0260
G1 X183.590 Y166.133 E0.0261
G1 X183.178 Y166.555 E0.0294
G1 X182.762 Y166.870 E0.0260
G1 X182.366 Y167.095 E0.0227
G1 X181.818 Y167.312 E0.0294
G1 X181.303 Y167.429 E0.0263
G1 X180.731 Y167.475 E0.0286
G1 X154.600 Y167.475 E1.3037
G1 X154.159 Y169.542 E0.1054
G1 X154.036 Y169.966 E0.0220
G1 X153.153 Y172.390 E0.1287
G1 X152.954 Y172.835 E0.0243
G1 X151.772 Y175.055 E0.1255
G1 X151.495 Y175.496 E0.0260
G1 X149.994 Y177.555 E0.1271
G1 X149.681 Y177.926 E0.0242
G1 X147.932 Y179.733 E0.1255
G1 X147.545 Y180.081 E0.0260
G1 X145.534 Y181.645 E0.1271
G1 X145.132 Y181.915 E0.0242
G1 X142.922 Y183.186 E0.1272
G1 X142.483 Y183.397 E0.0243
G1 X140.118 Y184.347 E0.1272
G1 X139.655 Y184.495 E0.0243
G1 X137.214 Y185.099 E0.1255
G1 X136.701 Y185.188 E0.0260
G1 X134.167 Y185.448 E0.1271
G1 X133.682 Y185.463 E0.0242
G1 X131.169 Y185.370 E0.1255
G1 X130.651 Y185.313 E0.0260
G1 X128.143 Y184.864 E0.1271
G1 X127.671 Y184.744 E0.0243
G1 X125.281 Y183.960 E0.1255
G1 X124.800 Y183.764 E0.0259
G1 X122.543 Y182.655 E0.1255
G1 X122.094 Y182.394 E0.0259
G1 X120.014 Y180.982 E0.1254
G1 X119.631 Y180.682 E0.0243
G1 X117.717 Y178.948 E0.1288
G1 X117.381 Y178.595 E0.0243
G1 X115.772 Y176.663 E0.1254
G1 X115.469 Y176.243 E0.0258
G1 X114.144 Y174.105 E0.1255
G1 X113.916 Y173.676 E0.0242
G1 X112.875 Y171.313 E0.1288
G1 X112.712 Y170.854 E0.0243
G1 X112.021 Y168.402 E0.1271
G1 X111.923 Y167.927 E0.0242
G1 X111.583 Y165.435 E0.1255
G1 X111.549 Y164.915 E0.0260
G1 X111.561 Y162.400 E0.1255
G1 X111.596 Y161.916 E0.0242
G1 X111.961 Y159.395 E0.1271
G1 X112.063 Y158.919 E0.0243
G1 X112.776 Y156.472 E0.1272
G1 X112.957 Y155.985 E0.0259
G1 X114.006 Y153.662 E0.1272
G1 X114.237 Y153.235 E0.0242
G1 X115.599 Y151.081 E0.1271
G1 X115.867 Y150.717 E0.0226
G1 X117.545 Y148.739 E0.1294
G1 X117.879 Y148.400 E0.0237
G1 X118.511 Y147.837 E0.0422
G1 X118.511 Y133.255 E0.7275
G1 X118.672 Y130.858 E0.1199
G1 X118.748 Y130.329 E0.0267
G1 X119.211 Y128.205 E0.1085
G1 X119.341 Y127.762 E0.0230
G1 X120.100 Y125.724 E0.1085
G1 X120.305 Y125.272 E0.0248
G1 X121.347 Y123.362 E0.1085
G1 X121.634 Y122.916 E0.0265
G1 X122.916 Y121.203 E0.1067
G1 X123.200 Y120.875 E0.0216
G0 F2400 X123.265 Y120.800
M204 S1300.00
G0 F7200 X123.534 Y121.070
G0 F7200 X123.604 Y121.140
M204 S1250.00
G1 F2400 X125.118 Y119.627 E0.1068
G1 X125.466 Y119.326 E0.0230
G1 X127.179 Y118.043 E0.1068
G1 X127.568 Y117.792 E0.0231
G1 X129.447 Y116.766 E0.1068
G1 X129.868 Y116.574 E0.0231
G1 X131.873 Y115.826 E0.1068
G1 X132.316 Y115.696 E0.0230
G1 X134.407 Y115.241 E0.1068
G1 X134.866 Y115.175 E0.0231
G1 X137.231 Y115.015 E0.1183
G1 X180.731 Y115.015 E2.1702
G1 X181.185 Y115.047 E0.0227
G1 X181.630 Y115.142 E0.0227
G1 X182.057 Y115.299 E0.0227
G1 X182.458 Y115.514 E0.0227
G1 X182.825 Y115.783 E0.0227
G1 X183.151 Y116.101 E0.0227
G1 X183.429 Y116.461 E0.0227
G1 X183.654 Y116.857 E0.0227
G1 X183.756 Y117.115 E0.0138
G1 X184.731 Y117.115 E0.0486
G1 X185.185 Y117.147 E0.0227
G1 X185.630 Y117.242 E0.0227
G1 X186.057 Y117.399 E0.0227
G1 X186.458 Y117.614 E0.0227
G1 X186.825 Y117.883 E0.0227
G1 X187.151 Y118.201 E0.0227
G1 X187.429 Y118.561 E0.0227
G1 X187.654 Y118.957 E0.0227
G1 X187.821 Y119.380 E0.0227
G1 X187.927 Y119.823 E0.0227
G1 X187.971 Y120.355 E0.0266
G1 X187.971 Y124.355 E0.1996
G1 X187.939 Y124.809 E0.0227
G1 X187.844 Y125.254 E0.0227
G1 X187.687 Y125.681 E0.0227
G1 X187.472 Y126.082 E0.0227
G1 X187.203 Y126.449 E0.0227
G1 X186.885 Y126.775 E0.0227
G1 X186.525 Y127.053 E0.0227
G1 X186.129 Y127.278 E0.0227
G1 X185.706 Y127.445 E0.0227
G1 X185.220 Y127.555 E0.0249
G1 X185.630 Y127.642 E0.0209
G1 X186.057 Y127.799 E0.0227
G1 X186.458 Y128.014 E0.0227
G1 X186.825 Y128.283 E0.0227
G1 X187.151 Y128.601 E0.0227
G1 X187.429 Y128.961 E0.0227
G1 X187.654 Y129.357 E0.0227
G1 X187.821 Y129.780 E0.0227
G1 X187.927 Y130.223 E0.0227
G1 X187.971 Y130.755 E0.0266
G1 X187.971 Y134.755 E0.1996
G1 X187.939 Y135.209 E0.0227
G1 X187.844 Y135.654 E0.0227
G1 X187.687 Y136.081 E0.0227
G1 X187.472 Y136.482 E0.0227
G1 X187.203 Y136.849 E0.0227
G1 X186.885 Y137.175 E0.0227
G1 X186.525 Y137.453 E0.0227
G1 X186.129 Y137.678 E0.0227
G1 X185.706 Y137.845 E0.0227
G1 X185.263 Y137.951 E0.0227
G1 X184.731 Y137.995 E0.0266
G1 X183.971 Y137.995 E0.0379
G1 X183.971 Y142.115 E0.2055
G1 X184.731 Y142.115 E0.0379
G1 X185.185 Y142.147 E0.0227
G1 X185.630 Y142.242 E0.0227
G1 X186.057 Y142.399 E0.0227
G1 X186.458 Y142.614 E0.0227
G1 X186.825 Y142.883 E0.0227
G1 X187.151 Y143.201 E0.0227
G1 X187.429 Y143.561 E0.0227
G1 X187.654 Y143.957 E0.0227
G1 X187.821 Y144.380 E0.0227
G1 X187.927 Y144.823 E0.0227
G1 X187.971 Y145.355 E0.0266
G1 X187.971 Y149.355 E0.1996
G1 X187.939 Y149.809 E0.0227
G1 X187.844 Y150.254 E0.0227
G1 X187.687 Y150.681 E0.0227
G1 X187.472 Y151.082 E0.0227
G1 X187.203 Y151.449 E0.0227
G1 X186.885 Y151.775 E0.0227
G1 X186.525 Y152.053 E0.0227
G1 X186.129 Y152.278 E0.0227
G1 X185.706 Y152.445 E0.0227
G1 X185.220 Y152.555 E0.0249
G1 X185.630 Y152.642 E0.0209
G1 X186.057 Y152.799 E0.0227
G1 X186.458 Y153.014 E0.0227
G1 X186.825 Y153.283 E0.0227
G1 X187.151 Y153.601 E0.0227
G1 X187.429 Y153.961 E0.0227
G1 X187.654 Y154.357 E0.0227
G1 X187.821 Y154.780 E0.0227
G1 X187.927 Y155.223 E0.0227
G1 X187.971 Y155.755 E0.0266
G1 X187.971 Y159.755 E0.1996
G1 X187.939 Y160.209 E0.0227
G1 X187.844 Y160.654 E0.0227
G1 X187.687 Y161.081 E0.0227
G1 X187.472 Y161.482 E0.0227
G1 X187.203 Y161.849 E0.0227
G1 X186.885 Y162.175 E0.0227
G1 X186.525 Y162.453 E0.0227
G1 X186.129 Y162.678 E0.0227
G1 X185.706 Y162.845 E0.0227
G1 X185.263 Y162.951 E0.0227
G1 X184.731 Y162.995 E0.0266
G1 X183.971 Y162.995 E0.0379
G1 X183.971 Y163.755 E0.0379
G1 X183.939 Y164.209 E0.0227
G1 X183.844 Y164.654 E0.0227
G1 X183.687 Y165.081 E0.0227
G1 X183.472 Y165.482 E0.0227
G1 X183.203 Y165.849 E0.0227
G1 X182.885 Y166.175 E0.0227
G1 X182.525 Y166.453 E0.0227
G1 X182.129 Y166.678 E0.0227
G1 X181.706 Y166.845 E0.0227
