;Sliced by ideaMaker 4.2.3.5600, 2022-10-12 11:40:29 UTC+0200
;Dimension: 300.000 300.000 400.000 0.400
;Plate Shape: 0
;Origin Center: 0
;Extruder Offset #1: 25.000 0.000
;Filament Diameter #1: 1.750
;Filament Diameter #2: 1.750
;Filament Compensation #1: 100.00
;Filament Compensation #2: 90.00
;Filament Density #1: 1240.00
;Filament Density #2: 1240.00
;Filament Type #1: Sunlu
;Filament Type #2: 
;Filament Name #1: Sunlu Grey PLA
;Filament Name #2: 
;Firmware: Marlin
;Bounding Box: 58.882 270.672 64.367 259.644 0.000 5.050
;Model Gap: 0.000
M92 E415.00000
M221 T0 S100.00
M140 S60.00
M104 T0 S210.00
M109 T0 S210.00
T0
M190 S60.00
M107
G28 ; home all axes
G29 ; Autoleveling processing ; à commenter si M420 actif
;M420 S1 Z10 ; Autolevel enable ; à commenter si G29 actif
;vous avez 2 choix, soit activer le G29 pour faire un autoleveling du plateau avant chaque impression
;C'est la méthode recvommandé par ARtillery3Dexpert.fr
;soit activer la ligne qui commance par M420 pour faire un rappel de la derniere mesure du plateau
;pour gagner du temp ( non recommandé par artillery3Dexpert.fr )
M500 ; sauvegarde eeprom
M117 Purge extruder
G92 E0 ; reset extruder
G1 Z1.0 F3000 ; move z up little to prevent scratching of surface
G1 X2 Y20 Z0.3 F5000.0 ; move to start-line position
G1 X2 Y200.0 Z0.3 F1500.0 E15 ; draw 1st line
G1 X2 Y200.0 Z0.4 F5000.0 ; move to side a little
G1 X2 Y20 Z0.4 F1500.0 E30 ; draw 2nd line
G92 E0 ; reset extruder
G1 Z1.0 F3000 ; move z up little to prevent scratching of surface
;TOTAL_NUM: 1
;PRINTING_TIME: 0
;REMAINING_TIME: 4639
M83
;LAYER:0
;Z:0.250
;HEIGHT:0.250
M106 S0
;PRINTING: NON-OBJECT
;PRINTING_ID: -1
G1 F2400 E-1.0000
M204 S1300.00
M205 X7.00 Y7.00
G0 F7200 X72.206 Y160.962
G0 F900 Z0.250
G0 F7200 X72.246 Y161.053
M204 S1250.00
;TYPE:SKIRT
;WIDTH:0.480
G1 F2400 E0.9700
G1 F2400 X72.739 Y160.879 E0.0261
G1 X73.382 Y160.751 E0.0327
G1 X73.904 Y160.721 E0.0261
G1 X74.561 Y160.776 E0.0329
G1 X75.070 Y160.893 E0.0261
G1 X75.621 Y161.098 E0.0293
G1 X76.079 Y161.342 E0.0259
G1 X76.614 Y161.734 E0.0331
G1 X77.099 Y162.218 E0.0342
G1 X107.180 Y198.068 E2.3348
G1 X204.773 Y116.179 E6.3559
G1 X174.692 Y80.329 E2.3348
G1 X174.313 Y79.792 E0.0328
G1 X174.074 Y79.332 E0.0259
G1 X173.892 Y78.842 E0.0261
G1 X173.751 Y78.198 E0.0329
G1 X173.712 Y77.605 E0.0296
G1 X173.767 Y76.948 E0.0329
G1 X173.903 Y76.376 E0.0293
G1 X174.118 Y75.827 E0.0294
G1 X174.408 Y75.312 E0.0295
G1 X174.727 Y74.891 E0.0264
G1 X175.209 Y74.410 E0.0340
G1 X186.010 Y65.347 E0.7034
G1 X186.434 Y65.038 E0.0262
G1 X187.076 Y64.699 E0.0362
G1 X187.635 Y64.507 E0.0295
G1 X188.208 Y64.397 E0.0291
G1 X188.662 Y64.367 E0.0227
G1 X189.247 Y64.401 E0.0292
G1 X189.963 Y64.558 E0.0366
G1 X190.509 Y64.771 E0.0292
G1 X190.909 Y64.988 E0.0227
G1 X191.444 Y65.380 E0.0331
G1 X191.929 Y65.864 E0.0342
G1 X222.010 Y101.714 E2.3348
G1 X244.103 Y83.178 E1.4388
G1 X244.332 Y83.002 E0.0144
G1 X245.966 Y81.847 E0.0998
G1 X246.564 Y81.495 E0.0346
G1 X248.349 Y80.633 E0.0989
G1 X248.995 Y80.384 E0.0345
G1 X250.897 Y79.827 E0.0989
G1 X251.538 Y79.694 E0.0327
G1 X253.545 Y79.451 E0.1009
G1 X254.157 Y79.425 E0.0306
G1 X256.300 Y79.524 E0.1070
G1 X256.905 Y79.607 E0.0305
G1 X258.881 Y80.031 E0.1008
G1 X259.509 Y80.223 E0.0328
G1 X261.387 Y80.967 E0.1008
G1 X261.903 Y81.221 E0.0287
G1 X263.653 Y82.273 E0.1019
G1 X264.106 Y82.596 E0.0278
G1 X265.723 Y83.961 E0.1056
G1 X266.228 Y84.469 E0.0357
G1 X267.550 Y86.048 E0.1027
G1 X267.859 Y86.484 E0.0267
G1 X268.908 Y88.259 E0.1029
G1 X269.178 Y88.810 E0.0306
G1 X269.936 Y90.771 E0.1049
G1 X270.117 Y91.400 E0.0327
G1 X270.521 Y93.379 E0.1008
G1 X270.592 Y93.949 E0.0287
G1 X270.672 Y96.050 E0.1049
G1 X270.642 Y96.665 E0.0307
G1 X270.384 Y98.670 E0.1009
G1 X270.238 Y99.346 E0.0345
G1 X269.664 Y101.243 E0.0989
G1 X269.409 Y101.889 E0.0346
G1 X268.495 Y103.733 E0.1027
G1 X268.219 Y104.193 E0.0268
G1 X267.013 Y105.869 E0.1030
G1 X266.560 Y106.397 E0.0347
G1 X264.901 Y108.024 E0.1159
G1 X88.710 Y255.865 E11.4748
G1 X88.451 Y256.065 E0.0163
G1 X86.816 Y257.221 E0.0999
G1 X86.291 Y257.535 E0.0305
G1 X84.436 Y258.435 E0.1029
G1 X83.825 Y258.672 E0.0327
G1 X81.886 Y259.242 E0.1008
G1 X81.245 Y259.375 E0.0327
G1 X79.237 Y259.618 E0.1009
G1 X78.625 Y259.644 E0.0306
G1 X76.484 Y259.545 E0.1069
G1 X75.953 Y259.476 E0.0267
G1 X73.900 Y259.037 E0.1047
G1 X73.350 Y258.872 E0.0286
G1 X71.357 Y258.084 E0.1069
G1 X70.809 Y257.809 E0.0306
G1 X69.111 Y256.787 E0.0989
G1 X68.548 Y256.381 E0.0346
G1 X66.984 Y255.038 E0.1028
G1 X66.554 Y254.601 E0.0306
G1 X65.231 Y253.019 E0.1029
G1 X64.880 Y252.517 E0.0306
G1 X63.835 Y250.739 E0.1029
G1 X63.571 Y250.184 E0.0307
G1 X62.833 Y248.257 E0.1029
G1 X62.665 Y247.668 E0.0306
G1 X62.267 Y245.726 E0.0989
G1 X62.190 Y245.118 E0.0306
G1 X62.111 Y243.057 E0.1029
G1 X62.137 Y242.445 E0.0306
G1 X62.404 Y240.362 E0.1048
G1 X62.523 Y239.800 E0.0287
G1 X63.117 Y237.825 E0.1029
G1 X63.373 Y237.178 E0.0347
G1 X64.290 Y235.332 E0.1028
G1 X64.587 Y234.843 E0.0285
G1 X65.768 Y233.202 E0.1009
G1 X66.223 Y232.669 E0.0350
G1 X67.882 Y231.044 E0.1159
G1 X89.943 Y212.533 E1.4368
G1 X59.818 Y176.624 E2.3384
G1 X59.483 Y176.146 E0.0291
G1 X59.270 Y175.744 E0.0227
G1 X59.062 Y175.196 E0.0292
G1 X58.931 Y174.622 E0.0294
G1 X58.882 Y174.035 E0.0294
G1 X58.925 Y173.378 E0.0328
G1 X59.033 Y172.866 E0.0261
G1 X59.258 Y172.246 E0.0329
G1 X59.503 Y171.784 E0.0261
G1 X59.895 Y171.249 E0.0331
G1 X60.379 Y170.764 E0.0342
G1 X71.180 Y161.701 E0.7034
G1 X71.604 Y161.392 E0.0262
G1 X72.158 Y161.099 E0.0313
G0 F2400 X72.246 Y161.053
M204 S1300.00
G0 F7200 X72.373 Y161.412
G0 F7200 X72.406 Y161.506
M204 S1250.00
G1 F2400 X72.899 Y161.332 E0.0261
G1 X73.410 Y161.230 E0.0260
G1 X73.932 Y161.200 E0.0261
G1 X74.453 Y161.244 E0.0261
G1 X74.962 Y161.361 E0.0261
G1 X75.450 Y161.547 E0.0261
G1 X75.850 Y161.764 E0.0227
G1 X76.328 Y162.119 E0.0297
G1 X76.731 Y162.527 E0.0286
G1 X107.121 Y198.745 E2.3588
G1 X205.450 Y116.238 E6.4038
G1 X175.060 Y80.020 E2.3588
G1 X174.737 Y79.567 E0.0278
G1 X174.524 Y79.165 E0.0227
G1 X174.342 Y78.675 E0.0261
G1 X174.221 Y78.099 E0.0294
G1 X174.191 Y77.577 E0.0261
G1 X174.235 Y77.056 E0.0261
G1 X174.352 Y76.547 E0.0261
G1 X174.538 Y76.059 E0.0261
G1 X174.791 Y75.602 E0.0261
G1 X175.110 Y75.181 E0.0264
G1 X175.518 Y74.778 E0.0286
G1 X186.319 Y65.715 E0.7034
G1 X186.716 Y65.427 E0.0245
G1 X187.236 Y65.152 E0.0293
G1 X187.729 Y64.978 E0.0261
G1 X188.240 Y64.876 E0.0260
G1 X188.694 Y64.846 E0.0227
G1 X189.216 Y64.880 E0.0261
G1 X189.792 Y65.007 E0.0294
G1 X190.280 Y65.193 E0.0261
G1 X190.680 Y65.410 E0.0227
G1 X191.158 Y65.765 E0.0297
G1 X191.561 Y66.173 E0.0286
G1 X221.951 Y102.391 E2.3588
G1 X244.396 Y83.559 E1.4617
G1 X244.625 Y83.383 E0.0144
G1 X246.243 Y82.239 E0.0989
G1 X246.773 Y81.927 E0.0307
G1 X248.558 Y81.065 E0.0989
G1 X249.130 Y80.845 E0.0306
G1 X251.032 Y80.288 E0.0989
G1 X251.635 Y80.164 E0.0307
G1 X253.602 Y79.928 E0.0988
G1 X254.176 Y79.905 E0.0287
G1 X256.236 Y80.000 E0.1029
G1 X256.804 Y80.076 E0.0286
G1 X258.742 Y80.491 E0.0989
G1 X259.332 Y80.669 E0.0307
G1 X261.175 Y81.398 E0.0989
G1 X261.691 Y81.652 E0.0287
G1 X263.405 Y82.684 E0.0998
G1 X263.826 Y82.986 E0.0258
G1 X265.413 Y84.328 E0.1037
G1 X265.860 Y84.777 E0.0316
G1 X267.158 Y86.326 E0.1008
G1 X267.467 Y86.762 E0.0267
G1 X268.495 Y88.503 E0.1009
G1 X268.747 Y89.020 E0.0287
G1 X269.488 Y90.944 E0.1029
G1 X269.647 Y91.496 E0.0287
G1 X270.045 Y93.438 E0.0989
G1 X270.116 Y94.008 E0.0287
G1 X270.192 Y96.028 E0.1008
G1 X270.166 Y96.604 E0.0288
G1 X269.908 Y98.609 E0.1009
G1 X269.779 Y99.207 E0.0305
G1 X269.205 Y101.104 E0.0989
G1 X268.979 Y101.676 E0.0307
G1 X268.083 Y103.486 E0.1008
G1 X267.807 Y103.946 E0.0268
G1 X266.624 Y105.588 E0.1010
G1 X266.224 Y106.054 E0.0306
G1 X264.592 Y107.656 E0.1141
G1 X88.401 Y255.497 E11.4748
G1 X88.174 Y255.673 E0.0143
G1 X86.539 Y256.829 E0.0999
G1 X86.046 Y257.122 E0.0286
G1 X84.227 Y258.003 E0.1008
G1 X83.653 Y258.224 E0.0307
G1 X81.751 Y258.781 E0.0989
G1 X81.148 Y258.905 E0.0307
G1 X79.180 Y259.141 E0.0989
G1 X78.606 Y259.164 E0.0287
G1 X76.546 Y259.069 E0.1029
G1 X76.015 Y259.000 E0.0267
G1 X74.038 Y258.577 E0.1009
G1 X73.488 Y258.412 E0.0286
G1 X71.571 Y257.654 E0.1028
G1 X71.057 Y257.398 E0.0286
G1 X69.359 Y256.376 E0.0989
G1 X68.860 Y256.016 E0.0307
G1 X67.325 Y254.701 E0.1008
G1 X66.922 Y254.293 E0.0286
G1 X65.624 Y252.743 E0.1009
G1 X65.294 Y252.273 E0.0287
G1 X64.268 Y250.531 E0.1009
G1 X64.019 Y250.012 E0.0287
G1 X63.294 Y248.124 E0.1009
G1 X63.135 Y247.572 E0.0287
G1 X62.737 Y245.630 E0.0989
G1 X62.666 Y245.059 E0.0287
G1 X62.591 Y243.039 E0.1008
G1 X62.617 Y242.467 E0.0286
G1 X62.874 Y240.461 E0.1009
G1 X62.993 Y239.899 E0.0287
G1 X63.577 Y237.964 E0.1008
G1 X63.803 Y237.391 E0.0307
G1 X64.701 Y235.580 E0.1008
G1 X64.977 Y235.123 E0.0266
G1 X66.158 Y233.482 E0.1009
G1 X66.559 Y233.012 E0.0308
G1 X68.191 Y231.412 E0.1140
G1 X90.620 Y212.592 E1.4607
G1 X60.209 Y176.346 E2.3605
G1 X59.907 Y175.921 E0.0260
G1 X59.694 Y175.519 E0.0227
G1 X59.512 Y175.029 E0.0261
G1 X59.400 Y174.519 E0.0261
G1 X59.361 Y173.999 E0.0260
G1 X59.395 Y173.477 E0.0261
G1 X59.503 Y172.965 E0.0261
G1 X59.708 Y172.413 E0.0294
G1 X59.925 Y172.013 E0.0227
G1 X60.280 Y171.535 E0.0297
G1 X60.688 Y171.132 E0.0286
G1 X71.489 Y162.069 E0.7034
G1 X71.886 Y161.781 E0.0245
G1 X72.318 Y161.552 E0.0244
G0 F2400 X72.406 Y161.506
M204 S1300.00
G0 F7200 X72.535 Y161.863
G0 F7200 X72.569 Y161.957
M204 S1250.00
G1 F2400 X72.997 Y161.802 E0.0227
G1 X73.442 Y161.709 E0.0227
G1 X73.896 Y161.679 E0.0227
G1 X74.350 Y161.713 E0.0227
G1 X74.795 Y161.811 E0.0227
G1 X75.221 Y161.969 E0.0227
G1 X75.621 Y162.186 E0.0227
G1 X75.987 Y162.457 E0.0227
G1 X76.363 Y162.836 E0.0266
G1 X107.062 Y199.422 E2.3827
G1 X206.127 Y116.297 E6.4518
G1 X175.428 Y79.711 E2.3827
G1 X175.161 Y79.342 E0.0227
G1 X174.948 Y78.940 E0.0227
G1 X174.793 Y78.512 E0.0227
G1 X174.700 Y78.067 E0.0227
G1 X174.670 Y77.613 E0.0227
G1 X174.704 Y77.159 E0.0227
G1 X174.802 Y76.714 E0.0227
G1 X174.960 Y76.288 E0.0227
G1 X175.177 Y75.888 E0.0227
G1 X175.448 Y75.522 E0.0227
G1 X175.827 Y75.146 E0.0266
G1 X186.628 Y66.083 E0.7034
G1 X186.997 Y65.816 E0.0227
G1 X187.399 Y65.603 E0.0227
G1 X187.827 Y65.448 E0.0227
G1 X188.272 Y65.355 E0.0227
G1 X188.726 Y65.325 E0.0227
G1 X189.180 Y65.359 E0.0227
G1 X189.625 Y65.457 E0.0227
G1 X190.051 Y65.615 E0.0227
G1 X190.451 Y65.832 E0.0227
G1 X190.817 Y66.103 E0.0227
G1 X191.193 Y66.482 E0.0266
G1 X221.892 Y103.068 E2.3827
G1 X244.690 Y83.939 E1.4847
G1 X244.902 Y83.775 E0.0134
G1 X246.520 Y82.631 E0.0989
G1 X246.982 Y82.359 E0.0267
G1 X248.767 Y81.497 E0.0989
G1 X249.265 Y81.306 E0.0266
G1 X251.167 Y80.749 E0.0989
G1 X251.692 Y80.641 E0.0267
G1 X253.659 Y80.405 E0.0988
G1 X254.194 Y80.385 E0.0267
G1 X256.174 Y80.476 E0.0989
G1 X256.703 Y80.545 E0.0266
G1 X258.641 Y80.960 E0.0989
G1 X259.155 Y81.115 E0.0268
G1 X260.998 Y81.844 E0.0989
G1 X261.478 Y82.082 E0.0267
G1 X263.125 Y83.074 E0.0959
G1 X263.546 Y83.376 E0.0258
G1 X265.103 Y84.694 E0.1018
G1 X265.492 Y85.085 E0.0275
G1 X266.766 Y86.604 E0.0989
G1 X267.075 Y87.040 E0.0267
G1 X268.082 Y88.747 E0.0989
G1 X268.315 Y89.229 E0.0267
G1 X269.027 Y91.078 E0.0988
G1 X269.177 Y91.592 E0.0267
G1 X269.575 Y93.534 E0.0989
G1 X269.639 Y94.065 E0.0267
G1 X269.712 Y96.046 E0.0989
G1 X269.687 Y96.582 E0.0268
G1 X269.432 Y98.547 E0.0989
G1 X269.320 Y99.068 E0.0266
G1 X268.746 Y100.965 E0.0989
G1 X268.549 Y101.463 E0.0267
G1 X267.671 Y103.239 E0.0988
G1 X267.395 Y103.699 E0.0268
G1 X266.235 Y105.307 E0.0989
G1 X265.888 Y105.712 E0.0266
G1 X264.283 Y107.288 E0.1122
G1 X88.092 Y255.129 E11.4748
G1 X87.880 Y255.293 E0.0134
G1 X86.262 Y256.437 E0.0989
G1 X85.802 Y256.708 E0.0266
G1 X84.018 Y257.571 E0.0989
G1 X83.518 Y257.763 E0.0267
G1 X81.616 Y258.320 E0.0989
G1 X81.091 Y258.428 E0.0267
G1 X79.123 Y258.664 E0.0989
G1 X78.588 Y258.684 E0.0267
G1 X76.608 Y258.593 E0.0989
G1 X76.077 Y258.524 E0.0267
G1 X74.139 Y258.108 E0.0989
G1 X73.627 Y257.953 E0.0267
G1 X71.784 Y257.224 E0.0989
G1 X71.305 Y256.987 E0.0267
G1 X69.607 Y255.965 E0.0989
G1 X69.172 Y255.651 E0.0268
G1 X67.666 Y254.363 E0.0989
G1 X67.290 Y253.984 E0.0266
G1 X66.016 Y252.466 E0.0989
G1 X65.707 Y252.029 E0.0267
G1 X64.700 Y250.322 E0.0989
G1 X64.467 Y249.840 E0.0267
G1 X63.755 Y247.990 E0.0989
G1 X63.605 Y247.476 E0.0267
G1 X63.207 Y245.534 E0.0989
G1 X63.143 Y245.002 E0.0267
G1 X63.071 Y243.022 E0.0988
G1 X63.096 Y242.489 E0.0266
G1 X63.350 Y240.523 E0.0989
G1 X63.462 Y240.000 E0.0267
G1 X64.036 Y238.103 E0.0989
G1 X64.233 Y237.604 E0.0268
G1 X65.112 Y235.828 E0.0989
G1 X65.388 Y235.371 E0.0266
G1 X66.547 Y233.763 E0.0989
G1 X66.895 Y233.355 E0.0268
G1 X68.500 Y231.780 E0.1122
G1 X91.297 Y212.651 E1.4847
G1 X60.598 Y176.065 E2.3827
G1 X60.331 Y175.696 E0.0227
G1 X60.118 Y175.294 E0.0227
G1 X59.963 Y174.866 E0.0227
G1 X59.870 Y174.421 E0.0227
G1 X59.840 Y173.967 E0.0227
G1 X59.874 Y173.513 E0.0227
G1 X59.972 Y173.068 E0.0227
G1 X60.130 Y172.642 E0.0227
G1 X60.347 Y172.242 E0.0227
G1 X60.618 Y171.876 E0.0227
G1 X60.997 Y171.500 E0.0266
G1 X71.798 Y162.437 E0.7034
G1 X72.167 Y162.170 E0.0227
G1 X72.481 Y162.003 E0.0177
G0 F2400 X72.569 Y161.957
;PRINTING: left corp L 230mm.STL
;PRINTING_ID: 0
G1 F2400 E-1.0000
M204 S1300.00
G0 F7200 X69.092 Y249.869
G0 F7200 X69.089 Y249.968
M204 S1000.00
M205 X6.00 Y6.00
;TYPE:WALL-INNER
;WIDTH:0.480
G1 F2400 E0.9700
G1 F2400 X68.141 Y248.359 E0.0932
G1 X67.472 Y246.623 E0.0928
G1 X67.098 Y244.800 E0.0928
G1 X67.031 Y242.936 E0.0931
G1 X67.269 Y241.092 E0.0928
G1 X67.811 Y239.303 E0.0933
G1 X68.634 Y237.639 E0.0926
G1 X69.725 Y236.125 E0.0931
G1 X71.067 Y234.796 E0.0942
G1 X96.876 Y213.139 E1.6809
G1 X64.094 Y174.071 E2.5444
G1 X73.792 Y165.933 E0.6316
G1 X106.574 Y205.001 E2.5444
G1 X211.706 Y116.785 E6.8469
G1 X178.924 Y77.717 E2.5444
G1 X188.622 Y69.579 E0.6316
G1 X221.404 Y108.647 E2.5444
G1 X247.209 Y86.994 E1.6806
G1 X248.761 Y85.898 E0.0948
G1 X250.436 Y85.089 E0.0928
G1 X252.222 Y84.566 E0.0928
G1 X254.069 Y84.344 E0.0928
G1 X255.932 Y84.430 E0.0930
G1 X257.757 Y84.820 E0.0931
G1 X259.481 Y85.503 E0.0925
G1 X261.035 Y86.438 E0.0905
G1 X262.498 Y87.676 E0.0956
G1 X263.693 Y89.101 E0.0928
G1 X264.641 Y90.710 E0.0932
G1 X265.310 Y92.445 E0.0928
G1 X265.684 Y94.268 E0.0928
G1 X265.752 Y96.133 E0.0931
G1 X265.513 Y97.976 E0.0927
G1 X264.971 Y99.765 E0.0933
G1 X264.149 Y101.429 E0.0926
G1 X263.057 Y102.943 E0.0931
G1 X261.716 Y104.272 E0.0942
G1 X85.573 Y252.074 E11.4717
G1 X84.023 Y253.169 E0.0947
G1 X82.344 Y253.982 E0.0931
G1 X80.561 Y254.503 E0.0927
G1 X78.713 Y254.725 E0.0929
G1 X76.850 Y254.639 E0.0930
G1 X75.026 Y254.248 E0.0931
G1 X73.300 Y253.565 E0.0926
G1 X71.697 Y252.600 E0.0933
G1 X70.286 Y251.394 E0.0926
G1 X69.153 Y250.044 E0.0879
G0 F2400 X69.089 Y249.968
G1 F2400 E-1.0000
M204 S1300.00
M205 X7.00 Y7.00
G0 F7200 X68.777 Y250.189
G0 F7200 X68.696 Y250.246
M204 S1000.00
M205 X6.00 Y6.00
;TYPE:WALL-OUTER
;WIDTH:0.480
G1 F2400 E0.9700
G1 F2400 X67.707 Y248.569 E0.0971
G1 X67.010 Y246.758 E0.0968
G1 X66.620 Y244.857 E0.0968
G1 X66.550 Y242.914 E0.0970
G1 X66.798 Y240.991 E0.0967
G1 X67.363 Y239.126 E0.0972
G1 X68.221 Y237.391 E0.0966
G1 X69.359 Y235.812 E0.0971
G1 X70.743 Y234.441 E0.0972
G1 X96.200 Y213.080 E1.6579
G1 X63.418 Y174.012 E2.5444
G1 X73.851 Y165.257 E0.6795
G1 X106.633 Y204.325 E2.5444
G1 X211.030 Y116.726 E6.7991
G1 X178.248 Y77.658 E2.5444
G1 X188.681 Y68.903 E0.6795
G1 X221.463 Y107.971 E2.5444
G1 X246.916 Y86.614 E1.6577
G1 X248.516 Y85.483 E0.0978
G1 X250.263 Y84.639 E0.0968
G1 X252.125 Y84.094 E0.0968
G1 X254.051 Y83.863 E0.0968
G1 X255.994 Y83.952 E0.0970
G1 X257.896 Y84.359 E0.0970
G1 X259.695 Y85.071 E0.0965
G1 X261.316 Y86.047 E0.0944
G1 X262.839 Y87.336 E0.0995
G1 X264.086 Y88.823 E0.0968
G1 X265.075 Y90.500 E0.0971
G1 X265.772 Y92.310 E0.0968
G1 X266.162 Y94.211 E0.0968
G1 X266.233 Y96.155 E0.0971
G1 X265.984 Y98.077 E0.0967
G1 X265.419 Y99.942 E0.0972
G1 X264.562 Y101.677 E0.0965
G1 X263.423 Y103.256 E0.0971
G1 X262.040 Y104.627 E0.0972
G1 X85.866 Y252.454 E11.4737
G1 X84.268 Y253.584 E0.0976
G1 X82.517 Y254.431 E0.0970
G1 X80.658 Y254.975 E0.0966
G1 X78.731 Y255.206 E0.0968
