;Sliced by ideaMaker 4.2.3.5600, 2022-10-12 11:41:57 UTC+0200
;Dimension: 300.000 300.000 400.000 0.400
;Plate Shape: 0
;Origin Center: 0
;Extruder Offset #1: 25.000 0.000
;Filament Diameter #1: 1.750
;Filament Diameter #2: 1.750
;Filament Compensation #1: 100.00
;Filament Compensation #2: 90.00
;Filament Density #1: 1240.00
;Filament Density #2: 1240.00
;Filament Type #1: Sunlu
;Filament Type #2: 
;Filament Name #1: Sunlu Grey PLA
;Filament Name #2: 
;Firmware: Marlin
;Bounding Box: 32.899 296.125 40.743 283.834 0.000 5.050
;Model Gap: 0.000
M92 E415.00000
M221 T0 S100.00
M140 S60.00
M104 T0 S210.00
M109 T0 S210.00
T0
M190 S60.00
M107
G28 ; home all axes
G29 ; Autoleveling processing ; à commenter si M420 actif
;M420 S1 Z10 ; Autolevel enable ; à commenter si G29 actif
;vous avez 2 choix, soit activer le G29 pour faire un autoleveling du plateau avant chaque impression
;C'est la méthode recvommandé par ARtillery3Dexpert.fr
;soit activer la ligne qui commance par M420 pour faire un rappel de la derniere mesure du plateau
;pour gagner du temp ( non recommandé par artillery3Dexpert.fr )
M500 ; sauvegarde eeprom
M117 Purge extruder
G92 E0 ; reset extruder
G1 Z1.0 F3000 ; move z up little to prevent scratching of surface
G1 X2 Y20 Z0.3 F5000.0 ; move to start-line position
G1 X2 Y200.0 Z0.3 F1500.0 E15 ; draw 1st line
G1 X2 Y200.0 Z0.4 F5000.0 ; move to side a little
G1 X2 Y20 Z0.4 F1500.0 E30 ; draw 2nd line
G92 E0 ; reset extruder
G1 Z1.0 F3000 ; move z up little to prevent scratching of surface
;TOTAL_NUM: 1
;PRINTING_TIME: 0
;REMAINING_TIME: 6069
M83
;LAYER:0
;Z:0.250
;HEIGHT:0.250
M106 S0
;PRINTING: NON-OBJECT
;PRINTING_ID: -1
G1 F2400 E-1.0000
M204 S1300.00
M205 X7.00 Y7.00
G0 F7200 X117.253 Y123.083
G0 F900 Z0.250
G0 F7200 X117.321 Y123.155
M204 S1250.00
;TYPE:SKIRT
;WIDTH:0.480
G1 F2400 E0.9700
G1 F2400 X127.962 Y113.904 E0.7035
G1 X128.495 Y113.512 E0.0330
G1 X129.012 Y113.236 E0.0292
G1 X129.437 Y113.074 E0.0227
G1 X130.147 Y112.914 E0.0363
G1 X130.668 Y112.875 E0.0261
G1 X131.185 Y112.901 E0.0258
G1 X131.830 Y113.025 E0.0328
G1 X132.448 Y113.248 E0.0328
G1 X132.910 Y113.494 E0.0261
G1 X133.395 Y113.841 E0.0298
G1 X133.833 Y114.261 E0.0303
G1 X164.592 Y149.638 E2.3388
G1 X230.591 Y92.266 E4.3629
G1 X199.888 Y56.946 E2.3348
G1 X199.496 Y56.413 E0.0330
G1 X199.220 Y55.896 E0.0292
G1 X199.058 Y55.470 E0.0227
G1 X198.898 Y54.761 E0.0363
G1 X198.859 Y54.240 E0.0261
G1 X198.902 Y53.583 E0.0328
G1 X199.010 Y53.073 E0.0260
G1 X199.235 Y52.453 E0.0329
G1 X199.515 Y51.937 E0.0293
G1 X199.872 Y51.456 E0.0299
G1 X200.273 Y51.047 E0.0286
G1 X210.968 Y41.749 E0.7070
G1 X211.358 Y41.454 E0.0244
G1 X211.931 Y41.131 E0.0328
G1 X212.552 Y40.901 E0.0330
G1 X213.124 Y40.781 E0.0292
G1 X213.578 Y40.743 E0.0227
G1 X214.162 Y40.767 E0.0292
G1 X214.880 Y40.911 E0.0365
G1 X215.432 Y41.114 E0.0293
G1 X215.835 Y41.324 E0.0227
G1 X216.377 Y41.707 E0.0331
G1 X216.868 Y42.183 E0.0341
G1 X247.572 Y77.505 E2.3349
G1 X269.307 Y58.611 E1.4368
G1 X271.208 Y57.199 E0.1181
G1 X271.769 Y56.859 E0.0327
G1 X273.573 Y55.949 E0.1008
G1 X274.180 Y55.705 E0.0326
G1 X276.073 Y55.115 E0.0989
G1 X276.752 Y54.962 E0.0347
G1 X278.715 Y54.692 E0.0989
G1 X279.366 Y54.656 E0.0325
G1 X281.468 Y54.717 E0.1049
G1 X282.077 Y54.789 E0.0306
G1 X284.060 Y55.180 E0.1008
G1 X284.690 Y55.361 E0.0327
G1 X286.545 Y56.058 E0.0989
G1 X287.134 Y56.334 E0.0325
G1 X288.885 Y57.344 E0.1008
G1 X289.393 Y57.694 E0.0308
G1 X291.015 Y59.031 E0.1049
G1 X291.479 Y59.486 E0.0324
G1 X292.780 Y60.981 E0.0989
G1 X293.147 Y61.476 E0.0307
G1 X294.267 Y63.303 E0.1069
G1 X294.541 Y63.852 E0.0306
G1 X295.285 Y65.689 E0.0989
G1 X295.491 Y66.350 E0.0345
G1 X295.931 Y68.324 E0.1009
G1 X296.011 Y68.894 E0.0287
G1 X296.125 Y70.989 E0.1047
G1 X296.111 Y71.563 E0.0286
G1 X295.885 Y73.614 E0.1029
G1 X295.752 Y74.295 E0.0346
G1 X295.211 Y76.201 E0.0988
G1 X294.967 Y76.850 E0.0346
G1 X294.082 Y78.714 E0.1029
G1 X293.771 Y79.243 E0.0306
G1 X292.640 Y80.870 E0.0989
G1 X292.197 Y81.408 E0.0348
G1 X290.565 Y83.062 E0.1159
G1 X64.094 Y279.927 E14.9708
G1 X62.287 Y281.267 E0.1122
G1 X61.761 Y281.593 E0.0309
G1 X59.885 Y282.541 E0.1049
G1 X59.353 Y282.759 E0.0287
G1 X57.386 Y283.375 E0.1028
G1 X56.747 Y283.520 E0.0327
G1 X54.744 Y283.798 E0.1009
G1 X54.094 Y283.834 E0.0325
G1 X52.073 Y283.779 E0.1009
G1 X51.461 Y283.713 E0.0307
G1 X49.438 Y283.319 E0.1028
G1 X48.855 Y283.161 E0.0301
G1 X47.430 Y282.659 E0.0754
G1 X46.631 Y282.314 E0.0434
G1 X46.309 Y282.148 E0.0181
G1 X44.541 Y281.123 E0.1020
G1 X44.068 Y280.797 E0.0287
G1 X42.446 Y279.462 E0.1048
G1 X42.034 Y279.063 E0.0286
G1 X40.654 Y277.478 E0.1048
G1 X40.289 Y276.981 E0.0308
G1 X39.231 Y275.259 E0.1008
G1 X38.951 Y274.713 E0.0306
G1 X38.174 Y272.802 E0.1029
G1 X37.979 Y272.180 E0.0325
G1 X37.528 Y270.166 E0.1030
G1 X37.448 Y269.596 E0.0287
G1 X37.333 Y267.459 E0.1068
G1 X37.351 Y266.884 E0.0287
G1 X37.580 Y264.836 E0.1028
G1 X37.698 Y264.234 E0.0306
G1 X38.248 Y262.290 E0.1008
G1 X38.492 Y261.641 E0.0346
G1 X39.358 Y259.813 E0.1009
G1 X39.667 Y259.280 E0.0307
G1 X40.842 Y257.589 E0.1027
G1 X41.262 Y257.082 E0.0328
G1 X42.894 Y255.428 E0.1159
G1 X64.631 Y236.533 E1.4369
G1 X33.883 Y201.157 E2.3384
G1 X33.538 Y200.683 E0.0292
G1 X33.318 Y200.285 E0.0227
G1 X33.100 Y199.741 E0.0292
G1 X32.949 Y199.098 E0.0330
G1 X32.899 Y198.507 E0.0296
G1 X32.941 Y197.854 E0.0326
G1 X33.048 Y197.348 E0.0258
G1 X33.217 Y196.854 E0.0260
G1 X33.480 Y196.325 E0.0295
G1 X33.814 Y195.841 E0.0293
G1 X34.341 Y195.288 E0.0381
G1 X44.982 Y186.038 E0.7034
G1 X45.454 Y185.685 E0.0294
G1 X45.970 Y185.399 E0.0294
G1 X46.458 Y185.208 E0.0261
G1 X47.167 Y185.048 E0.0363
G1 X47.688 Y185.009 E0.0261
G1 X48.277 Y185.043 E0.0294
G1 X48.787 Y185.141 E0.0259
G1 X49.408 Y185.355 E0.0328
G1 X49.874 Y185.592 E0.0261
G1 X50.416 Y185.975 E0.0331
G1 X50.907 Y186.451 E0.0341
G1 X81.611 Y221.772 E2.3349
G1 X147.611 Y164.400 E4.3629
G1 X116.908 Y129.080 E2.3348
G1 X116.516 Y128.547 E0.0330
G1 X116.239 Y128.025 E0.0295
G1 X116.039 Y127.471 E0.0294
G1 X115.918 Y126.895 E0.0294
G1 X115.879 Y126.307 E0.0294
G1 X115.922 Y125.717 E0.0295
G1 X116.049 Y125.143 E0.0293
G1 X116.255 Y124.587 E0.0296
G1 X116.535 Y124.071 E0.0293
G1 X116.847 Y123.643 E0.0264
G1 X117.252 Y123.226 E0.0290
G0 F2400 X117.321 Y123.155
M204 S1300.00
G0 F7200 X117.571 Y123.442
G0 F7200 X117.636 Y123.517
M204 S1250.00
G1 F2400 X128.277 Y114.266 E0.7035
G1 X128.724 Y113.934 E0.0278
G1 X129.183 Y113.685 E0.0261
G1 X129.608 Y113.523 E0.0227
G1 X130.183 Y113.393 E0.0294
G1 X130.704 Y113.354 E0.0261
G1 X131.158 Y113.380 E0.0227
G1 X131.736 Y113.496 E0.0294
G1 X132.227 Y113.674 E0.0261
G1 X132.631 Y113.884 E0.0227
G1 X133.116 Y114.231 E0.0298
G1 X133.498 Y114.604 E0.0266
G1 X164.545 Y150.315 E2.3608
G1 X231.268 Y92.313 E4.4108
G1 X200.250 Y56.631 E2.3588
G1 X199.918 Y56.184 E0.0278
G1 X199.669 Y55.725 E0.0261
G1 X199.507 Y55.299 E0.0227
G1 X199.377 Y54.725 E0.0294
G1 X199.338 Y54.204 E0.0261
G1 X199.372 Y53.682 E0.0261
G1 X199.480 Y53.172 E0.0260
G1 X199.658 Y52.679 E0.0261
G1 X199.903 Y52.220 E0.0260
G1 X200.215 Y51.792 E0.0264
G1 X200.616 Y51.383 E0.0286
G1 X211.258 Y42.132 E0.7035
G1 X211.648 Y41.837 E0.0244
G1 X212.164 Y41.551 E0.0294
G1 X212.654 Y41.370 E0.0261
G1 X213.164 Y41.259 E0.0260
G1 X213.618 Y41.221 E0.0227
G1 X214.139 Y41.246 E0.0260
G1 X214.717 Y41.362 E0.0294
G1 X215.210 Y41.540 E0.0261
G1 X215.613 Y41.750 E0.0227
G1 X216.097 Y42.097 E0.0297
G1 X216.506 Y42.498 E0.0286
G1 X247.525 Y78.182 E2.3589
G1 X269.622 Y58.973 E1.4607
G1 X271.458 Y57.609 E0.1141
G1 X271.985 Y57.287 E0.0308
G1 X273.754 Y56.394 E0.0989
G1 X274.323 Y56.163 E0.0306
G1 X276.216 Y55.573 E0.0989
G1 X276.817 Y55.438 E0.0307
G1 X278.780 Y55.168 E0.0989
G1 X279.352 Y55.136 E0.0286
G1 X281.413 Y55.194 E0.1029
G1 X281.984 Y55.260 E0.0287
G1 X283.929 Y55.642 E0.0989
G1 X284.521 Y55.810 E0.0307
G1 X286.376 Y56.507 E0.0989
G1 X286.929 Y56.768 E0.0305
G1 X288.645 Y57.760 E0.0989
G1 X289.120 Y58.089 E0.0288
G1 X290.709 Y59.401 E0.1028
G1 X291.117 Y59.801 E0.0285
G1 X292.418 Y61.296 E0.0989
G1 X292.761 Y61.761 E0.0288
G1 X293.838 Y63.519 E0.1029
G1 X294.096 Y64.032 E0.0286
G1 X294.840 Y65.869 E0.0989
G1 X295.022 Y66.454 E0.0306
G1 X295.462 Y68.428 E0.1009
G1 X295.535 Y68.959 E0.0267
G1 X295.645 Y70.977 E0.1008
G1 X295.631 Y71.551 E0.0286
G1 X295.408 Y73.561 E0.1009
G1 X295.290 Y74.164 E0.0307
G1 X294.749 Y76.070 E0.0988
G1 X294.533 Y76.644 E0.0306
G1 X293.667 Y78.472 E0.1009
G1 X293.377 Y78.969 E0.0287
G1 X292.246 Y80.596 E0.0989
G1 X291.855 Y81.071 E0.0307
G1 X290.250 Y82.700 E0.1141
G1 X63.808 Y279.541 E14.9689
G1 X62.001 Y280.881 E0.1122
G1 X61.509 Y281.184 E0.0288
G1 X59.669 Y282.113 E0.1028
G1 X59.173 Y282.314 E0.0267
G1 X57.243 Y282.917 E0.1009
G1 X56.642 Y283.052 E0.0307
G1 X54.679 Y283.322 E0.0989
G1 X54.107 Y283.354 E0.0286
G1 X52.086 Y283.299 E0.1009
G1 X51.514 Y283.236 E0.0287
G1 X49.530 Y282.848 E0.1009
G1 X49.014 Y282.708 E0.0267
G1 X47.620 Y282.218 E0.0737
G1 X46.851 Y281.887 E0.0418
G1 X46.529 Y281.721 E0.0181
G1 X44.813 Y280.728 E0.0989
G1 X44.340 Y280.402 E0.0287
G1 X42.780 Y279.117 E0.1008
G1 X42.368 Y278.718 E0.0286
G1 X41.040 Y277.193 E0.1009
G1 X40.698 Y276.730 E0.0287
G1 X39.640 Y275.008 E0.1008
G1 X39.379 Y274.495 E0.0287
G1 X38.619 Y272.622 E0.1008
G1 X38.437 Y272.037 E0.0306
G1 X37.997 Y270.062 E0.1009
G1 X37.924 Y269.531 E0.0267
G1 X37.813 Y267.474 E0.1028
G1 X37.831 Y266.899 E0.0287
G1 X38.057 Y264.890 E0.1009
G1 X38.169 Y264.328 E0.0286
G1 X38.710 Y262.421 E0.0989
G1 X38.926 Y261.846 E0.0306
G1 X39.773 Y260.054 E0.0989
G1 X40.082 Y259.521 E0.0307
G1 X41.236 Y257.863 E0.1008
G1 X41.604 Y257.419 E0.0288
G1 X43.209 Y255.790 E0.1141
G1 X65.308 Y236.580 E1.4608
G1 X34.269 Y200.872 E2.3604
G1 X33.958 Y200.451 E0.0261
G1 X33.738 Y200.053 E0.0227
G1 X33.547 Y199.566 E0.0261
G1 X33.417 Y198.992 E0.0294
G1 X33.378 Y198.471 E0.0261
G1 X33.412 Y197.949 E0.0261
G1 X33.502 Y197.503 E0.0227
G1 X33.671 Y197.009 E0.0260
G1 X33.908 Y196.543 E0.0261
G1 X34.207 Y196.116 E0.0260
G1 X34.656 Y195.650 E0.0323
G1 X45.297 Y186.400 E0.7034
G1 X45.687 Y186.105 E0.0244
G1 X46.203 Y185.819 E0.0294
G1 X46.629 Y185.657 E0.0227
G1 X47.203 Y185.527 E0.0294
G1 X47.724 Y185.488 E0.0261
G1 X48.246 Y185.522 E0.0261
G1 X48.692 Y185.612 E0.0227
G1 X49.249 Y185.808 E0.0295
G1 X49.652 Y186.018 E0.0227
G1 X50.136 Y186.365 E0.0297
G1 X50.545 Y186.766 E0.0286
G1 X81.564 Y222.449 E2.3588
G1 X148.288 Y164.447 E4.4108
G1 X117.270 Y128.765 E2.3588
G1 X116.938 Y128.318 E0.0278
G1 X116.689 Y127.859 E0.0261
G1 X116.508 Y127.369 E0.0261
G1 X116.397 Y126.859 E0.0260
G1 X116.358 Y126.338 E0.0261
G1 X116.392 Y125.816 E0.0261
G1 X116.500 Y125.306 E0.0260
G1 X116.678 Y124.813 E0.0261
G1 X116.923 Y124.354 E0.0260
G1 X117.235 Y123.926 E0.0264
G1 X117.566 Y123.588 E0.0236
G0 F2400 X117.636 Y123.517
M204 S1300.00
G0 F7200 X117.886 Y123.804
G0 F7200 X117.951 Y123.879
M204 S1250.00
G1 F2400 X128.592 Y114.628 E0.7035
G1 X128.956 Y114.354 E0.0227
G1 X129.354 Y114.134 E0.0227
G1 X129.779 Y113.972 E0.0227
G1 X130.223 Y113.871 E0.0227
G1 X130.677 Y113.833 E0.0227
G1 X131.131 Y113.859 E0.0227
G1 X131.577 Y113.949 E0.0227
G1 X132.006 Y114.100 E0.0227
G1 X132.410 Y114.310 E0.0227
G1 X132.781 Y114.574 E0.0227
G1 X133.163 Y114.947 E0.0266
G1 X164.498 Y150.992 E2.3828
G1 X231.945 Y92.360 E4.4586
G1 X200.612 Y56.316 E2.3827
G1 X200.338 Y55.952 E0.0227
G1 X200.118 Y55.554 E0.0227
G1 X199.956 Y55.128 E0.0227
G1 X199.855 Y54.685 E0.0227
G1 X199.817 Y54.231 E0.0227
G1 X199.843 Y53.777 E0.0227
G1 X199.933 Y53.331 E0.0227
G1 X200.084 Y52.901 E0.0227
G1 X200.294 Y52.498 E0.0227
G1 X200.558 Y52.127 E0.0227
G1 X200.931 Y51.745 E0.0266
G1 X211.573 Y42.494 E0.7035
G1 X211.937 Y42.220 E0.0227
G1 X212.335 Y42.000 E0.0227
G1 X212.761 Y41.838 E0.0227
G1 X213.204 Y41.737 E0.0227
G1 X213.658 Y41.699 E0.0227
G1 X214.112 Y41.725 E0.0227
G1 X214.558 Y41.815 E0.0227
G1 X214.988 Y41.966 E0.0227
G1 X215.391 Y42.176 E0.0227
G1 X215.762 Y42.440 E0.0227
G1 X216.144 Y42.813 E0.0266
G1 X247.478 Y78.859 E2.3828
G1 X269.937 Y59.335 E1.4847
G1 X271.744 Y57.995 E0.1122
G1 X272.201 Y57.715 E0.0267
G1 X273.970 Y56.822 E0.0989
G1 X274.466 Y56.621 E0.0267
G1 X276.359 Y56.031 E0.0989
G1 X276.882 Y55.914 E0.0267
G1 X278.845 Y55.644 E0.0989
G1 X279.378 Y55.615 E0.0266
G1 X281.359 Y55.671 E0.0989
G1 X281.891 Y55.731 E0.0267
G1 X283.836 Y56.113 E0.0989
G1 X284.352 Y56.259 E0.0268
G1 X286.207 Y56.956 E0.0989
G1 X286.689 Y57.184 E0.0266
G1 X288.405 Y58.176 E0.0989
G1 X288.846 Y58.483 E0.0268
G1 X290.374 Y59.745 E0.0989
G1 X290.755 Y60.116 E0.0265
G1 X292.056 Y61.611 E0.0989
G1 X292.374 Y62.045 E0.0268
G1 X293.410 Y63.735 E0.0989
G1 X293.651 Y64.212 E0.0267
G1 X294.395 Y66.049 E0.0989
G1 X294.554 Y66.559 E0.0267
G1 X294.986 Y68.493 E0.0989
G1 X295.059 Y69.024 E0.0267
G1 X295.166 Y71.003 E0.0989
G1 X295.151 Y71.538 E0.0267
G1 X294.931 Y73.508 E0.0989
G1 X294.828 Y74.033 E0.0267
G1 X294.287 Y75.939 E0.0988
G1 X294.099 Y76.439 E0.0267
G1 X293.252 Y78.231 E0.0989
G1 X292.983 Y78.695 E0.0268
G1 X291.852 Y80.322 E0.0989
G1 X291.513 Y80.734 E0.0266
G1 X289.935 Y82.338 E0.1123
G1 X63.522 Y279.155 E14.9670
G1 X61.715 Y280.495 E0.1122
G1 X61.258 Y280.775 E0.0267
G1 X59.489 Y281.668 E0.0989
G1 X58.993 Y281.869 E0.0267
G1 X57.100 Y282.459 E0.0989
G1 X56.577 Y282.576 E0.0267
G1 X54.614 Y282.846 E0.0989
G1 X54.081 Y282.875 E0.0266
G1 X52.100 Y282.819 E0.0989
G1 X51.568 Y282.759 E0.0267
G1 X49.623 Y282.377 E0.0989
G1 X49.173 Y282.255 E0.0233
G1 X47.779 Y281.765 E0.0737
G1 X47.070 Y281.460 E0.0385
G1 X46.769 Y281.306 E0.0169
G1 X45.053 Y280.313 E0.0989
G1 X44.614 Y280.008 E0.0267
G1 X43.086 Y278.747 E0.0988
G1 X42.703 Y278.374 E0.0267
G1 X41.402 Y276.878 E0.0989
G1 X41.085 Y276.446 E0.0267
G1 X40.049 Y274.757 E0.0989
G1 X39.808 Y274.279 E0.0267
G1 X39.064 Y272.442 E0.0989
G1 X38.905 Y271.932 E0.0267
G1 X38.473 Y269.997 E0.0989
G1 X38.400 Y269.466 E0.0267
G1 X38.293 Y267.487 E0.0989
G1 X38.308 Y266.952 E0.0267
G1 X38.528 Y264.983 E0.0988
G1 X38.631 Y264.459 E0.0266
G1 X39.172 Y262.552 E0.0989
G1 X39.360 Y262.051 E0.0267
G1 X40.207 Y260.259 E0.0989
G1 X40.476 Y259.795 E0.0268
G1 X41.607 Y258.168 E0.0989
G1 X41.946 Y257.756 E0.0266
G1 X43.524 Y256.152 E0.1123
G1 X65.985 Y236.627 E1.4848
G1 X34.652 Y200.583 E2.3827
G1 X34.378 Y200.219 E0.0227
G1 X34.158 Y199.821 E0.0227
G1 X33.996 Y199.395 E0.0227
G1 X33.895 Y198.952 E0.0227
G1 X33.857 Y198.498 E0.0227
G1 X33.883 Y198.044 E0.0227
G1 X33.973 Y197.598 E0.0227
G1 X34.124 Y197.168 E0.0227
G1 X34.334 Y196.765 E0.0227
G1 X34.598 Y196.394 E0.0227
G1 X34.971 Y196.012 E0.0266
G1 X45.612 Y186.762 E0.7034
G1 X45.976 Y186.488 E0.0227
G1 X46.374 Y186.268 E0.0227
G1 X46.800 Y186.106 E0.0227
G1 X47.243 Y186.005 E0.0227
G1 X47.697 Y185.967 E0.0227
G1 X48.151 Y185.993 E0.0227
G1 X48.597 Y186.083 E0.0227
G1 X49.027 Y186.234 E0.0227
G1 X49.430 Y186.444 E0.0227
G1 X49.801 Y186.709 E0.0227
G1 X50.183 Y187.081 E0.0266
G1 X81.517 Y223.126 E2.3828
G1 X148.965 Y164.494 E4.4587
G1 X117.632 Y128.450 E2.3827
G1 X117.358 Y128.086 E0.0227
G1 X117.138 Y127.688 E0.0227
G1 X116.976 Y127.262 E0.0227
G1 X116.875 Y126.819 E0.0227
G1 X116.837 Y126.365 E0.0227
G1 X116.863 Y125.911 E0.0227
G1 X116.953 Y125.465 E0.0227
G1 X117.104 Y125.035 E0.0227
G1 X117.314 Y124.632 E0.0227
G1 X117.578 Y124.261 E0.0227
G1 X117.882 Y123.950 E0.0217
G0 F2400 X117.951 Y123.879
;PRINTING: left corp XL.STL
;PRINTING_ID: 0
G1 F2400 E-1.0000
M204 S1300.00
G0 F7200 X43.498 Y272.646
G0 F7200 X43.454 Y272.735
M204 S1000.00
M205 X6.00 Y6.00
;TYPE:WALL-INNER
;WIDTH:0.480
G1 F2400 E0.9700
G1 F2400 X42.757 Y271.012 E0.0927
G1 X42.351 Y269.196 E0.0928
G1 X42.250 Y267.334 E0.0930
G1 X42.458 Y265.481 E0.0930
G1 X42.966 Y263.689 E0.0929
G1 X43.762 Y262.004 E0.0930
G1 X44.824 Y260.476 E0.0928
G1 X46.146 Y259.119 E0.0945
G1 X71.572 Y237.018 E1.6807
G1 X38.112 Y198.528 E2.5444
G1 X47.667 Y190.222 E0.6316
G1 X81.126 Y228.713 E2.5444
G1 X154.552 Y164.885 E4.8538
G1 X121.092 Y126.395 E2.5444
G1 X130.647 Y118.088 E0.6317
G1 X164.107 Y156.579 E2.5445
G1 X237.532 Y92.751 E4.8538
G1 X204.072 Y54.261 E2.5444
G1 X213.628 Y45.954 E0.6317
G1 X247.087 Y84.446 E2.5445
G1 X272.513 Y62.342 E1.6808
