;Sliced by ideaMaker 4.2.3.5600, 2022-10-12 11:42:43 UTC+0200
;Dimension: 300.000 300.000 400.000 0.400
;Plate Shape: 0
;Origin Center: 0
;Extruder Offset #1: 25.000 0.000
;Filament Diameter #1: 1.750
;Filament Diameter #2: 1.750
;Filament Compensation #1: 100.00
;Filament Compensation #2: 90.00
;Filament Density #1: 1240.00
;Filament Density #2: 1240.00
;Filament Type #1: Sunlu
;Filament Type #2: 
;Filament Name #1: Sunlu Grey PLA
;Filament Name #2: 
;Firmware: Marlin
;Bounding Box: 137.334 162.668 137.373 162.619 0.000 6.050
;Model Gap: 0.000
M92 E415.00000
M221 T0 S100.00
M140 S60.00
M104 T0 S210.00
M109 T0 S210.00
T0
M190 S60.00
M107
G28 ; home all axes
G29 ; Autoleveling processing ; à commenter si M420 actif
;M420 S1 Z10 ; Autolevel enable ; à commenter si G29 actif
;vous avez 2 choix, soit activer le G29 pour faire un autoleveling du plateau avant chaque impression
;C'est la méthode recvommandé par ARtillery3Dexpert.fr
;soit activer la ligne qui commance par M420 pour faire un rappel de la derniere mesure du plateau
;pour gagner du temp ( non recommandé par artillery3Dexpert.fr )
M500 ; sauvegarde eeprom
M117 Purge extruder
G92 E0 ; reset extruder
G1 Z1.0 F3000 ; move z up little to prevent scratching of surface
G1 X2 Y20 Z0.3 F5000.0 ; move to start-line position
G1 X2 Y200.0 Z0.3 F1500.0 E15 ; draw 1st line
G1 X2 Y200.0 Z0.4 F5000.0 ; move to side a little
G1 X2 Y20 Z0.4 F1500.0 E30 ; draw 2nd line
G92 E0 ; reset extruder
G1 Z1.0 F3000 ; move z up little to prevent scratching of surface
;TOTAL_NUM: 1
;PRINTING_TIME: 0
;REMAINING_TIME: 558
M83
;LAYER:0
;Z:0.250
;HEIGHT:0.250
M106 S0
;PRINTING: NON-OBJECT
;PRINTING_ID: -1
G1 F2400 E-1.0000
M204 S1300.00
M205 X7.00 Y7.00
G0 F7200 X140.662 Y141.318
G0 F900 Z0.250
G0 F7200 X140.732 Y141.388
M204 S1250.00
;TYPE:SKIRT
;WIDTH:0.480
G1 F2400 E0.9700
G1 F2400 X141.190 Y140.959 E0.0313
G1 X141.672 Y140.622 E0.0293
G1 X142.197 Y140.355 E0.0294
G1 X142.793 Y140.155 E0.0314
G1 X143.141 Y139.682 E0.0293
G1 X143.607 Y139.214 E0.0329
G1 X144.087 Y138.858 E0.0298
G1 X144.595 Y138.579 E0.0289
G1 X145.066 Y138.369 E0.0257
G1 X145.655 Y138.165 E0.0311
G1 X146.235 Y138.051 E0.0295
G1 X146.820 Y138.020 E0.0292
G1 X147.274 Y138.053 E0.0227
G1 X147.447 Y138.085 E0.0088
G1 X147.963 Y137.790 E0.0297
G1 X148.581 Y137.550 E0.0331
G1 X149.164 Y137.422 E0.0298
G1 X149.782 Y137.373 E0.0309
G1 X150.254 Y137.374 E0.0235
G1 X150.877 Y137.427 E0.0312
G1 X151.454 Y137.560 E0.0295
G1 X151.999 Y137.771 E0.0292
G1 X152.400 Y137.986 E0.0227
G1 X152.540 Y138.082 E0.0085
G1 X153.132 Y138.021 E0.0297
G1 X153.792 Y138.055 E0.0330
G1 X154.379 Y138.174 E0.0299
G1 X154.969 Y138.383 E0.0312
G1 X155.403 Y138.578 E0.0237
G1 X155.948 Y138.880 E0.0311
G1 X156.420 Y139.236 E0.0295
G1 X156.831 Y139.650 E0.0291
G1 X157.110 Y140.010 E0.0227
G1 X157.198 Y140.152 E0.0083
G1 X157.765 Y140.339 E0.0298
G1 X158.356 Y140.638 E0.0330
G1 X158.843 Y140.986 E0.0299
G1 X159.292 Y141.413 E0.0309
G1 X159.585 Y141.739 E0.0219
G1 X159.945 Y142.206 E0.0294
G1 X160.270 Y142.783 E0.0330
G1 X160.478 Y143.329 E0.0291
G1 X160.586 Y143.771 E0.0227
G1 X160.609 Y143.936 E0.0083
G1 X161.048 Y144.335 E0.0296
G1 X161.464 Y144.846 E0.0329
G1 X161.770 Y145.363 E0.0300
G1 X162.010 Y145.942 E0.0313
G1 X162.145 Y146.359 E0.0219
G1 X162.297 Y147.005 E0.0331
G1 X162.346 Y147.591 E0.0293
G1 X162.314 Y148.178 E0.0293
G1 X162.190 Y148.785 E0.0309
G1 X162.428 Y149.329 E0.0296
G1 X162.600 Y149.968 E0.0330
G1 X162.668 Y150.564 E0.0299
G1 X162.650 Y151.181 E0.0308
G1 X162.596 Y151.682 E0.0251
G1 X162.517 Y152.130 E0.0227
G1 X162.342 Y152.692 E0.0294
G1 X162.023 Y153.345 E0.0363
G1 X161.767 Y153.721 E0.0227
G1 X161.656 Y153.851 E0.0085
G1 X161.653 Y154.450 E0.0299
G1 X161.566 Y155.038 E0.0297
G1 X161.370 Y155.677 E0.0333
G1 X161.106 Y156.228 E0.0305
G1 X160.852 Y156.663 E0.0251
G1 X160.598 Y157.040 E0.0227
G1 X160.212 Y157.482 E0.0293
G1 X159.654 Y157.950 E0.0363
G1 X159.267 Y158.190 E0.0227
G1 X159.111 Y158.265 E0.0086
G1 X158.870 Y158.802 E0.0294
G1 X158.552 Y159.305 E0.0297
G1 X158.112 Y159.810 E0.0334
G1 X157.640 Y160.213 E0.0310
G1 X157.230 Y160.508 E0.0252
G1 X156.844 Y160.749 E0.0227
G1 X156.314 Y160.996 E0.0292
G1 X155.612 Y161.196 E0.0364
G1 X155.161 Y161.258 E0.0227
G1 X154.990 Y161.262 E0.0085
G1 X154.550 Y161.656 E0.0295
G1 X154.054 Y161.986 E0.0297
G1 X153.447 Y162.269 E0.0334
G1 X152.853 Y162.445 E0.0309
G1 X152.424 Y162.536 E0.0219
G1 X151.908 Y162.609 E0.0260
G1 X151.324 Y162.619 E0.0291
G1 X150.600 Y162.516 E0.0365
G1 X150.163 Y162.389 E0.0227
G1 X150.006 Y162.324 E0.0085
G1 X149.433 Y162.508 E0.0300
G1 X148.851 Y162.606 E0.0294
G1 X148.184 Y162.616 E0.0333
G1 X147.614 Y162.542 E0.0287
G1 X147.114 Y162.436 E0.0255
G1 X146.513 Y162.254 E0.0313
G1 X145.986 Y162.008 E0.0290
G1 X145.600 Y161.767 E0.0227
G1 X145.144 Y161.396 E0.0293
G1 X145.021 Y161.267 E0.0089
G1 X144.428 Y161.203 E0.0298
G1 X143.852 Y161.054 E0.0297
G1 X143.302 Y160.825 E0.0297
G1 X142.780 Y160.514 E0.0303
G1 X142.332 Y160.192 E0.0275
G1 X141.957 Y159.877 E0.0244
G1 X141.560 Y159.450 E0.0291
G1 X141.153 Y158.845 E0.0364
G1 X140.955 Y158.435 E0.0227
G1 X140.897 Y158.275 E0.0085
G1 X140.327 Y157.938 E0.0330
G1 X139.922 Y157.612 E0.0259
G1 X139.559 Y157.235 E0.0261
G1 X139.112 Y156.606 E0.0385
G1 X138.859 Y156.163 E0.0255
G1 X138.611 Y155.628 E0.0294
G1 X138.440 Y155.066 E0.0293
G1 X138.363 Y154.618 E0.0227
G1 X138.335 Y154.035 E0.0291
G1 X138.347 Y153.863 E0.0086
G1 X137.962 Y153.317 E0.0333
G1 X137.699 Y152.796 E0.0291
G1 X137.527 Y152.298 E0.0263
G1 X137.396 Y151.616 E0.0346
G1 X137.344 Y151.109 E0.0254
G1 X137.334 Y150.520 E0.0294
G1 X137.404 Y149.939 E0.0292
G1 X137.515 Y149.497 E0.0227
G1 X137.729 Y148.950 E0.0293
G1 X137.812 Y148.795 E0.0088
G1 X137.691 Y148.214 E0.0296
G1 X137.654 Y147.552 E0.0331
G1 X137.712 Y146.956 E0.0299
G1 X137.848 Y146.387 E0.0292
G1 X138.017 Y145.869 E0.0272
G1 X138.218 Y145.388 E0.0260
G1 X138.555 Y144.817 E0.0331
G1 X138.924 Y144.365 E0.0291
G1 X139.253 Y144.050 E0.0227
G1 X139.385 Y143.949 E0.0083
G1 X139.512 Y143.360 E0.0301
G1 X139.750 Y142.740 E0.0331
G1 X140.044 Y142.223 E0.0297
G1 X140.416 Y141.738 E0.0305
G1 X140.665 Y141.462 E0.0185
G0 F2400 X140.732 Y141.388
M204 S1300.00
G0 F7200 X141.014 Y141.643
G0 F7200 X141.088 Y141.710
M204 S1250.00
G1 F2400 X141.468 Y141.350 E0.0261
G1 X141.893 Y141.048 E0.0260
G1 X142.357 Y140.808 E0.0261
G1 X142.853 Y140.633 E0.0262
G1 X143.104 Y140.583 E0.0128
G1 X143.215 Y140.385 E0.0113
G1 X143.484 Y140.018 E0.0227
G1 X143.896 Y139.597 E0.0294
G1 X144.318 Y139.279 E0.0264
G1 X144.826 Y139.000 E0.0289
G1 X145.227 Y138.821 E0.0219
G1 X145.751 Y138.635 E0.0277
G1 X146.263 Y138.530 E0.0261
G1 X146.785 Y138.499 E0.0261
G1 X147.239 Y138.532 E0.0227
G1 X147.558 Y138.599 E0.0163
G1 X147.745 Y138.461 E0.0116
G1 X148.141 Y138.236 E0.0227
G1 X148.688 Y138.018 E0.0294
G1 X149.203 Y137.900 E0.0264
G1 X149.781 Y137.853 E0.0289
G1 X150.253 Y137.854 E0.0235
G1 X150.773 Y137.896 E0.0260
G1 X151.284 Y138.009 E0.0261
G1 X151.772 Y138.194 E0.0260
G1 X152.173 Y138.409 E0.0227
G1 X152.435 Y138.598 E0.0161
G1 X152.659 Y138.547 E0.0115
G1 X153.112 Y138.501 E0.0227
G1 X153.700 Y138.526 E0.0294
G1 X154.220 Y138.627 E0.0264
G1 X154.773 Y138.821 E0.0292
G1 X155.174 Y139.000 E0.0219
G1 X155.662 Y139.265 E0.0277
G1 X156.082 Y139.577 E0.0261
G1 X156.452 Y139.944 E0.0260
G1 X156.731 Y140.304 E0.0227
G1 X156.893 Y140.581 E0.0160
G1 X157.120 Y140.626 E0.0115
G1 X157.552 Y140.769 E0.0227
G1 X158.080 Y141.031 E0.0294
G1 X158.513 Y141.335 E0.0264
G1 X158.935 Y141.734 E0.0290
G1 X159.228 Y142.060 E0.0219
G1 X159.529 Y142.445 E0.0244
G1 X159.823 Y142.957 E0.0295
G1 X160.012 Y143.443 E0.0260
G1 X160.120 Y143.885 E0.0227
G1 X160.156 Y144.203 E0.0160
G1 X160.341 Y144.335 E0.0113
G1 X160.678 Y144.641 E0.0227
G1 X161.053 Y145.094 E0.0293
G1 X161.327 Y145.547 E0.0264
G1 X161.553 Y146.090 E0.0293
G1 X161.688 Y146.507 E0.0219
G1 X161.819 Y147.049 E0.0278
G1 X161.867 Y147.568 E0.0260
G1 X161.842 Y148.089 E0.0260
G1 X161.744 Y148.606 E0.0263
G1 X161.664 Y148.841 E0.0124
G1 X161.783 Y149.041 E0.0116
G1 X161.966 Y149.458 E0.0227
G1 X162.124 Y150.026 E0.0294
G1 X162.188 Y150.552 E0.0264
G1 X162.173 Y151.130 E0.0288
G1 X162.123 Y151.599 E0.0235
G1 X162.044 Y152.047 E0.0227
G1 X161.885 Y152.547 E0.0262
G1 X161.626 Y153.075 E0.0293
G1 X161.370 Y153.451 E0.0227
G1 X161.155 Y153.692 E0.0161
G1 X161.182 Y153.929 E0.0119
G1 X161.178 Y154.384 E0.0227
G1 X161.106 Y154.901 E0.0260
G1 X160.936 Y155.471 E0.0297
G1 X160.691 Y155.987 E0.0285
G1 X160.454 Y156.395 E0.0235
G1 X160.200 Y156.772 E0.0227
G1 X159.853 Y157.164 E0.0261
G1 X159.401 Y157.542 E0.0294
G1 X159.014 Y157.782 E0.0227
G1 X158.718 Y157.915 E0.0162
G1 X158.649 Y158.134 E0.0115
G1 X158.462 Y158.549 E0.0227
G1 X158.187 Y158.993 E0.0261
G1 X157.800 Y159.446 E0.0297
G1 X157.359 Y159.824 E0.0290
G1 X156.976 Y160.101 E0.0236
G1 X156.590 Y160.342 E0.0227
G1 X156.115 Y160.559 E0.0261
G1 X155.547 Y160.720 E0.0295
G1 X155.096 Y160.782 E0.0227
G1 X154.774 Y160.783 E0.0161
G1 X154.620 Y160.956 E0.0116
G1 X154.280 Y161.259 E0.0227
G1 X153.848 Y161.553 E0.0261
G1 X153.310 Y161.809 E0.0297
G1 X152.753 Y161.975 E0.0290
G1 X152.324 Y162.066 E0.0219
G1 X151.841 Y162.134 E0.0243
G1 X151.319 Y162.139 E0.0260
G1 X150.734 Y162.055 E0.0295
G1 X150.297 Y161.928 E0.0227
G1 X150.003 Y161.798 E0.0160
G1 X149.790 Y161.895 E0.0117
G1 X149.291 Y162.049 E0.0261
G1 X148.775 Y162.132 E0.0261
G1 X148.246 Y162.140 E0.0264
G1 X147.676 Y162.066 E0.0287
G1 X147.215 Y161.967 E0.0235
G1 X146.713 Y161.818 E0.0261
G1 X146.240 Y161.601 E0.0260
G1 X145.854 Y161.360 E0.0227
G1 X145.450 Y161.026 E0.0262
G1 X145.232 Y160.785 E0.0162
G1 X144.996 Y160.787 E0.0118
G1 X144.544 Y160.737 E0.0227
G1 X144.037 Y160.611 E0.0261
G1 X143.487 Y160.382 E0.0297
G1 X143.029 Y160.104 E0.0267
G1 X142.614 Y159.803 E0.0256
G1 X142.266 Y159.510 E0.0227
G1 X141.914 Y159.126 E0.0260
G1 X141.585 Y158.636 E0.0294
G1 X141.387 Y158.226 E0.0227
G1 X141.285 Y157.919 E0.0161
G1 X141.074 Y157.828 E0.0115
G1 X140.625 Y157.561 E0.0261
G1 X140.268 Y157.279 E0.0227
G1 X139.905 Y156.902 E0.0261
G1 X139.528 Y156.367 E0.0327
G1 X139.293 Y155.957 E0.0236
G1 X139.069 Y155.485 E0.0261
G1 X138.913 Y154.985 E0.0261
G1 X138.836 Y154.537 E0.0227
G1 X138.815 Y154.016 E0.0260
G1 X138.847 Y153.696 E0.0160
G1 X138.689 Y153.525 E0.0116
G1 X138.389 Y153.098 E0.0260
G1 X138.151 Y152.634 E0.0260
G1 X137.998 Y152.206 E0.0227
G1 X137.873 Y151.566 E0.0325
G1 X137.824 Y151.097 E0.0235
G1 X137.811 Y150.574 E0.0261
G1 X137.870 Y150.056 E0.0260
G1 X137.981 Y149.614 E0.0227
G1 X138.175 Y149.128 E0.0261
G1 X138.335 Y148.847 E0.0161
G1 X138.262 Y148.629 E0.0115
G1 X138.170 Y148.183 E0.0227
G1 X138.132 Y147.595 E0.0294
G1 X138.179 Y147.068 E0.0264
G1 X138.315 Y146.499 E0.0292
G1 X138.462 Y146.050 E0.0236
G1 X138.633 Y145.629 E0.0227
G1 X138.929 Y145.118 E0.0295
G1 X139.256 Y144.712 E0.0260
G1 X139.585 Y144.397 E0.0227
G1 X139.842 Y144.209 E0.0159
G1 X139.865 Y143.973 E0.0118
G1 X139.962 Y143.528 E0.0227
G1 X140.169 Y142.974 E0.0295
G1 X140.426 Y142.514 E0.0263
G1 X140.772 Y142.060 E0.0285
G1 X141.021 Y141.784 E0.0185
G0 F2400 X141.088 Y141.710
M204 S1300.00
G0 F7200 X141.353 Y141.984
G0 F7200 X141.422 Y142.055
M204 S1250.00
G1 F2400 X141.749 Y141.739 E0.0227
G1 X142.118 Y141.472 E0.0227
G1 X142.520 Y141.259 E0.0227
G1 X142.948 Y141.104 E0.0227
G1 X143.420 Y141.009 E0.0240
G1 X143.602 Y140.669 E0.0192
G1 X143.871 Y140.302 E0.0227
G1 X144.189 Y139.977 E0.0227
G1 X144.550 Y139.699 E0.0227
G1 X145.022 Y139.438 E0.0269
G1 X145.423 Y139.259 E0.0219
G1 X145.851 Y139.104 E0.0227
G1 X146.296 Y139.009 E0.0227
G1 X146.750 Y138.978 E0.0227
G1 X147.204 Y139.011 E0.0227
G1 X147.675 Y139.117 E0.0241
G1 X147.982 Y138.878 E0.0194
G1 X148.378 Y138.653 E0.0227
G1 X148.801 Y138.485 E0.0227
G1 X149.243 Y138.378 E0.0227
G1 X149.781 Y138.333 E0.0269
G1 X150.219 Y138.333 E0.0219
G1 X150.673 Y138.365 E0.0227
G1 X151.118 Y138.460 E0.0227
G1 X151.545 Y138.617 E0.0227
G1 X151.946 Y138.832 E0.0227
G1 X152.330 Y139.117 E0.0239
G1 X152.707 Y139.025 E0.0194
G1 X153.160 Y138.979 E0.0227
G1 X153.614 Y138.998 E0.0227
G1 X154.062 Y139.080 E0.0227
G1 X154.577 Y139.259 E0.0272
G1 X154.978 Y139.438 E0.0219
G1 X155.379 Y139.653 E0.0227
G1 X155.747 Y139.921 E0.0227
G1 X156.073 Y140.238 E0.0227
G1 X156.352 Y140.598 E0.0227
G1 X156.584 Y141.012 E0.0237
G1 X156.969 Y141.082 E0.0195
G1 X157.401 Y141.225 E0.0227
G1 X157.809 Y141.427 E0.0227
G1 X158.184 Y141.684 E0.0227
G1 X158.578 Y142.055 E0.0270
G1 X158.871 Y142.381 E0.0219
G1 X159.150 Y142.740 E0.0227
G1 X159.377 Y143.135 E0.0227
G1 X159.546 Y143.557 E0.0227
G1 X159.654 Y143.999 E0.0227
G1 X159.699 Y144.473 E0.0238
G1 X160.018 Y144.690 E0.0192
G1 X160.355 Y144.996 E0.0227
G1 X160.645 Y145.346 E0.0227
G1 X160.884 Y145.733 E0.0227
G1 X161.096 Y146.238 E0.0273
G1 X161.231 Y146.655 E0.0219
G1 X161.341 Y147.097 E0.0227
G1 X161.387 Y147.550 E0.0227
G1 X161.370 Y148.004 E0.0227
G1 X161.289 Y148.452 E0.0227
G1 X161.137 Y148.901 E0.0236
G1 X161.343 Y149.234 E0.0195
G1 X161.526 Y149.651 E0.0227
G1 X161.648 Y150.089 E0.0227
G1 X161.708 Y150.541 E0.0227
G1 X161.696 Y151.080 E0.0269
G1 X161.650 Y151.516 E0.0219
G1 X161.571 Y151.964 E0.0227
G1 X161.429 Y152.397 E0.0227
G1 X161.229 Y152.805 E0.0227
G1 X160.973 Y153.181 E0.0227
G1 X160.649 Y153.533 E0.0239
G1 X160.702 Y153.925 E0.0197
G1 X160.698 Y154.380 E0.0227
G1 X160.631 Y154.830 E0.0227
G1 X160.502 Y155.266 E0.0227
G1 X160.275 Y155.747 E0.0265
G1 X160.056 Y156.127 E0.0219
G1 X159.802 Y156.504 E0.0227
G1 X159.497 Y156.842 E0.0227
G1 X159.148 Y157.134 E0.0227
G1 X158.761 Y157.374 E0.0227
G1 X158.320 Y157.565 E0.0240
G1 X158.211 Y157.937 E0.0193
G1 X158.024 Y158.352 E0.0227
G1 X157.781 Y158.736 E0.0227
G1 X157.486 Y159.083 E0.0227
G1 X157.077 Y159.436 E0.0270
G1 X156.722 Y159.694 E0.0219
G1 X156.336 Y159.935 E0.0227
G1 X155.920 Y160.120 E0.0227
G1 X155.482 Y160.244 E0.0227
G1 X155.031 Y160.306 E0.0227
G1 X154.553 Y160.301 E0.0238
G1 X154.301 Y160.598 E0.0194
G1 X153.961 Y160.901 E0.0227
G1 X153.582 Y161.153 E0.0227
G1 X153.172 Y161.349 E0.0227
G1 X152.653 Y161.505 E0.0270
G1 X152.224 Y161.596 E0.0219
G1 X151.774 Y161.659 E0.0227
G1 X151.319 Y161.659 E0.0227
G1 X150.868 Y161.594 E0.0227
G1 X150.431 Y161.467 E0.0227
G1 X149.998 Y161.268 E0.0238
G1 X149.645 Y161.438 E0.0195
G1 X149.211 Y161.576 E0.0227
G1 X148.762 Y161.652 E0.0227
G1 X148.307 Y161.664 E0.0227
G1 X147.776 Y161.596 E0.0267
G1 X147.347 Y161.505 E0.0219
G1 X146.909 Y161.380 E0.0227
G1 X146.494 Y161.194 E0.0227
G1 X146.108 Y160.953 E0.0227
G1 X145.760 Y160.659 E0.0227
G1 X145.443 Y160.299 E0.0239
G1 X145.049 Y160.310 E0.0197
G1 X144.597 Y160.260 E0.0227
G1 X144.157 Y160.146 E0.0227
G1 X143.736 Y159.972 E0.0227
G1 X143.278 Y159.694 E0.0267
G1 X142.923 Y159.436 E0.0219
G1 X142.575 Y159.143 E0.0227
G1 X142.271 Y158.805 E0.0227
G1 X142.017 Y158.427 E0.0227
G1 X141.819 Y158.017 E0.0227
G1 X141.676 Y157.561 E0.0238
G1 X141.316 Y157.414 E0.0194
G1 X140.923 Y157.184 E0.0227
G1 X140.566 Y156.902 E0.0227
G1 X140.253 Y156.572 E0.0227
G1 X139.944 Y156.127 E0.0270
G1 X139.725 Y155.747 E0.0219
G1 X139.526 Y155.338 E0.0227
G1 X139.386 Y154.904 E0.0228
G1 X139.309 Y154.456 E0.0227
G1 X139.295 Y154.001 E0.0227
G1 X139.349 Y153.528 E0.0238
G1 X139.079 Y153.245 E0.0195
G1 X138.814 Y152.876 E0.0227
G1 X138.603 Y152.472 E0.0227
G1 X138.450 Y152.044 E0.0227
G1 X138.350 Y151.516 E0.0268
G1 X138.304 Y151.080 E0.0219
G1 X138.288 Y150.625 E0.0227
G1 X138.336 Y150.173 E0.0227
G1 X138.447 Y149.731 E0.0227
G1 X138.619 Y149.310 E0.0227
G1 X138.863 Y148.897 E0.0239
G1 X138.732 Y148.532 E0.0193
G1 X138.640 Y148.086 E0.0227
G1 X138.611 Y147.632 E0.0227
G1 X138.646 Y147.178 E0.0227
G1 X138.771 Y146.648 E0.0272
G1 X138.907 Y146.231 E0.0219
G1 X139.078 Y145.810 E0.0227
G1 X139.306 Y145.416 E0.0227
G1 X139.588 Y145.059 E0.0227
G1 X139.917 Y144.744 E0.0227
G1 X140.304 Y144.469 E0.0237
G1 X140.334 Y144.075 E0.0197
G1 X140.431 Y143.630 E0.0227
G1 X140.590 Y143.204 E0.0227
G1 X140.808 Y142.804 E0.0227
G1 X141.129 Y142.381 E0.0265
G1 X141.356 Y142.129 E0.0169
G0 F2400 X141.422 Y142.055
;PRINTING: MOTOR gear.STL
;PRINTING_ID: 0
