;Sliced by ideaMaker 4.2.3.5600, 2022-10-12 11:46:36 UTC+0200
;Dimension: 300.000 300.000 400.000 0.400
;Plate Shape: 0
;Origin Center: 0
;Extruder Offset #1: 25.000 0.000
;Filament Diameter #1: 1.750
;Filament Diameter #2: 1.750
;Filament Compensation #1: 100.00
;Filament Compensation #2: 90.00
;Filament Density #1: 1240.00
;Filament Density #2: 1240.00
;Filament Type #1: Sunlu
;Filament Type #2: 
;Filament Name #1: Sunlu Grey PLA
;Filament Name #2: 
;Firmware: Marlin
;Bounding Box: 9.716 263.443 36.566 290.284 0.000 6.050
;Model Gap: 0.000
M92 E415.00000
M221 T0 S100.00
M140 S60.00
M104 T0 S210.00
M109 T0 S210.00
T0
M190 S60.00
M107
G28 ; home all axes
G29 ; Autoleveling processing ; à commenter si M420 actif
;M420 S1 Z10 ; Autolevel enable ; à commenter si G29 actif
;vous avez 2 choix, soit activer le G29 pour faire un autoleveling du plateau avant chaque impression
;C'est la méthode recvommandé par ARtillery3Dexpert.fr
;soit activer la ligne qui commance par M420 pour faire un rappel de la derniere mesure du plateau
;pour gagner du temp ( non recommandé par artillery3Dexpert.fr )
M500 ; sauvegarde eeprom
M117 Purge extruder
G92 E0 ; reset extruder
G1 Z1.0 F3000 ; move z up little to prevent scratching of surface
G1 X2 Y20 Z0.3 F5000.0 ; move to start-line position
G1 X2 Y200.0 Z0.3 F1500.0 E15 ; draw 1st line
G1 X2 Y200.0 Z0.4 F5000.0 ; move to side a little
G1 X2 Y20 Z0.4 F1500.0 E30 ; draw 2nd line
G92 E0 ; reset extruder
G1 Z1.0 F3000 ; move z up little to prevent scratching of surface
;TOTAL_NUM: 1
;PRINTING_TIME: 0
;REMAINING_TIME: 6049
M83
;LAYER:0
;Z:0.250
;HEIGHT:0.250
M106 S0
;PRINTING: NON-OBJECT
;PRINTING_ID: -1
G1 F2400 E-1.0000
M204 S1300.00
M205 X7.00 Y7.00
G0 F7200 X19.733 Y46.888
G0 F900 Z0.250
G0 F7200 X19.771 Y46.980
M204 S1250.00
;TYPE:SKIRT
;WIDTH:0.480
G1 F2400 E0.9700
G1 F2400 X20.343 Y46.761 E0.0306
G1 X22.242 Y46.196 E0.0988
G1 X22.918 Y46.054 E0.0345
G1 X24.923 Y45.804 E0.1008
G1 X25.499 Y45.778 E0.0288
G1 X27.640 Y45.868 E0.1069
G1 X28.250 Y45.946 E0.0307
G1 X30.267 Y46.373 E0.1029
G1 X30.856 Y46.552 E0.0307
G1 X32.702 Y47.273 E0.0989
G1 X33.323 Y47.577 E0.0345
G1 X35.026 Y48.591 E0.0989
G1 X35.594 Y48.998 E0.0349
G1 X37.357 Y50.511 E0.1159
G1 X57.723 Y70.876 E1.4369
G1 X90.869 Y37.733 E2.3385
G1 X91.316 Y37.357 E0.0291
G1 X91.698 Y37.109 E0.0227
G1 X92.358 Y36.804 E0.0363
G1 X92.922 Y36.644 E0.0292
G1 X93.372 Y36.575 E0.0227
G1 X94.101 Y36.566 E0.0364
G1 X94.680 Y36.650 E0.0292
G1 X95.119 Y36.771 E0.0227
G1 X95.659 Y36.996 E0.0292
G1 X96.288 Y37.382 E0.0368
G1 X96.696 Y37.727 E0.0267
G1 X106.774 Y47.806 E0.7111
G1 X107.152 Y48.257 E0.0294
G1 X107.464 Y48.757 E0.0294
G1 X107.703 Y49.295 E0.0294
G1 X107.864 Y49.863 E0.0295
G1 X107.944 Y50.447 E0.0294
G1 X107.941 Y51.038 E0.0295
G1 X107.855 Y51.621 E0.0294
G1 X107.689 Y52.186 E0.0294
G1 X107.477 Y52.664 E0.0261
G1 X107.209 Y53.107 E0.0258
G1 X106.724 Y53.691 E0.0379
G1 X73.631 Y86.785 E2.3349
G1 X135.469 Y148.623 E4.3630
G1 X168.587 Y115.505 E2.3367
G1 X169.066 Y115.101 E0.0313
G1 X169.566 Y114.789 E0.0294
G1 X170.104 Y114.550 E0.0294
G1 X170.606 Y114.403 E0.0261
G1 X171.189 Y114.314 E0.0294
G1 X171.779 Y114.307 E0.0294
G1 X172.430 Y114.398 E0.0328
G1 X172.995 Y114.564 E0.0294
G1 X173.532 Y114.808 E0.0294
G1 X173.979 Y115.088 E0.0263
G1 X174.500 Y115.529 E0.0341
G1 X184.471 Y125.500 E0.7035
G1 X184.858 Y125.948 E0.0295
G1 X185.145 Y126.382 E0.0260
G1 X185.425 Y126.975 E0.0327
G1 X185.610 Y127.606 E0.0328
G1 X185.685 Y128.118 E0.0258
G1 X185.697 Y128.640 E0.0260
G1 X185.604 Y129.364 E0.0364
G1 X185.462 Y129.862 E0.0258
G1 X185.258 Y130.343 E0.0261
G1 X184.872 Y130.972 E0.0368
G1 X184.527 Y131.380 E0.0267
G1 X151.377 Y164.531 E2.3389
G1 X213.215 Y226.369 E4.3630
G1 X246.309 Y193.276 E2.3349
G1 X246.812 Y192.848 E0.0329
G1 X247.311 Y192.536 E0.0294
G1 X247.724 Y192.345 E0.0227
G1 X248.419 Y192.136 E0.0362
G1 X249.003 Y192.056 E0.0294
G1 X249.594 Y192.059 E0.0295
G1 X250.177 Y192.145 E0.0294
G1 X250.742 Y192.311 E0.0294
G1 X251.220 Y192.523 E0.0261
G1 X251.784 Y192.878 E0.0332
G1 X252.247 Y193.276 E0.0305
G1 X262.242 Y203.272 E0.7052
G1 X262.643 Y203.746 E0.0310
G1 X262.891 Y204.128 E0.0227
G1 X263.171 Y204.721 E0.0327
G1 X263.357 Y205.356 E0.0330
G1 X263.437 Y205.936 E0.0292
G1 X263.443 Y206.391 E0.0227
G1 X263.377 Y206.974 E0.0293
G1 X263.206 Y207.612 E0.0330
G1 X262.938 Y208.217 E0.0330
G1 X262.618 Y208.718 E0.0297
G1 X262.273 Y209.126 E0.0267
G1 X229.124 Y242.277 E2.3389
G1 X249.541 Y262.697 E1.4406
G1 X251.003 Y264.406 E0.1122
G1 X251.387 Y264.941 E0.0329
G1 X252.442 Y266.712 E0.1028
G1 X252.727 Y267.298 E0.0325
G1 X253.448 Y269.144 E0.0989
G1 X253.637 Y269.772 E0.0327
G1 X254.060 Y271.790 E0.1029
G1 X254.140 Y272.439 E0.0326
G1 X254.222 Y274.459 E0.1009
G1 X254.192 Y275.115 E0.0328
G1 X253.933 Y277.162 E0.1029
G1 X253.804 Y277.758 E0.0304
G1 X253.226 Y279.694 E0.1008
G1 X252.987 Y280.304 E0.0327
G1 X252.078 Y282.156 E0.1029
G1 X251.761 Y282.680 E0.0306
G1 X250.561 Y284.356 E0.1028
G1 X250.160 Y284.825 E0.0308
G1 X248.700 Y286.279 E0.1028
G1 X248.231 Y286.673 E0.0306
G1 X246.550 Y287.868 E0.1029
G1 X246.021 Y288.179 E0.0306
G1 X244.167 Y289.082 E0.1029
G1 X243.596 Y289.301 E0.0305
G1 X241.618 Y289.887 E0.1029
G1 X241.016 Y290.009 E0.0306
G1 X238.970 Y290.262 E0.1029
G1 X238.357 Y290.284 E0.0306
G1 X236.297 Y290.194 E0.1029
G1 X235.688 Y290.116 E0.0306
G1 X233.732 Y289.702 E0.0997
G1 X233.162 Y289.531 E0.0297
G1 X231.181 Y288.765 E0.1060
G1 X230.612 Y288.485 E0.0316
G1 X228.843 Y287.426 E0.1029
G1 X228.345 Y287.066 E0.0307
G1 X226.581 Y285.552 E0.1160
G1 X14.448 Y73.419 E14.9671
G1 X12.934 Y71.655 E0.1160
G1 X12.530 Y71.090 E0.0347
G1 X11.496 Y69.354 E0.1008
G1 X11.241 Y68.836 E0.0288
G1 X10.489 Y66.915 E0.1029
G1 X10.291 Y66.253 E0.0345
G1 X9.884 Y64.314 E0.0988
G1 X9.798 Y63.624 E0.0347
G1 X9.716 Y61.643 E0.0989
G1 X9.738 Y61.030 E0.0306
G1 X10.004 Y58.903 E0.1069
G1 X10.133 Y58.304 E0.0306
G1 X10.699 Y56.404 E0.0989
G1 X10.951 Y55.759 E0.0345
G1 X11.794 Y54.033 E0.0958
G1 X12.095 Y53.518 E0.0298
G1 X13.368 Y51.720 E0.1099
G1 X13.774 Y51.242 E0.0313
G1 X15.175 Y49.840 E0.0989
G1 X15.707 Y49.389 E0.0348
G1 X17.320 Y48.238 E0.0989
G1 X17.844 Y47.922 E0.0305
G1 X19.682 Y47.023 E0.1021
G0 F2400 X19.771 Y46.980
M204 S1300.00
G0 F7200 X19.908 Y47.335
G0 F7200 X19.944 Y47.428
M204 S1250.00
G1 F2400 X20.480 Y47.221 E0.0287
G1 X22.379 Y46.656 E0.0988
G1 X22.978 Y46.530 E0.0305
G1 X24.945 Y46.284 E0.0989
G1 X25.521 Y46.258 E0.0288
G1 X27.580 Y46.344 E0.1028
G1 X28.151 Y46.416 E0.0287
G1 X30.129 Y46.833 E0.1009
G1 X30.681 Y46.999 E0.0288
G1 X32.527 Y47.720 E0.0989
G1 X33.077 Y47.989 E0.0305
G1 X34.780 Y49.003 E0.0989
G1 X35.282 Y49.362 E0.0308
G1 X37.018 Y50.850 E0.1141
G1 X57.723 Y71.554 E1.4608
G1 X91.180 Y38.098 E2.3605
G1 X91.577 Y37.760 E0.0260
G1 X91.959 Y37.512 E0.0227
G1 X92.493 Y37.265 E0.0294
G1 X92.995 Y37.118 E0.0261
G1 X93.445 Y37.049 E0.0227
G1 X94.035 Y37.041 E0.0294
G1 X94.552 Y37.113 E0.0260
G1 X94.991 Y37.234 E0.0227
G1 X95.472 Y37.438 E0.0261
G1 X95.978 Y37.749 E0.0296
G1 X96.386 Y38.094 E0.0267
G1 X106.409 Y48.117 E0.7072
G1 X106.747 Y48.514 E0.0260
G1 X107.027 Y48.955 E0.0261
G1 X107.242 Y49.430 E0.0260
G1 X107.389 Y49.932 E0.0261
G1 X107.464 Y50.449 E0.0261
G1 X107.466 Y50.972 E0.0261
G1 X107.394 Y51.489 E0.0260
G1 X107.250 Y51.991 E0.0261
G1 X107.038 Y52.469 E0.0261
G1 X106.800 Y52.856 E0.0227
G1 X106.385 Y53.352 E0.0323
G1 X72.953 Y86.785 E2.3588
G1 X135.469 Y149.301 E4.4108
G1 X168.926 Y115.844 E2.3606
G1 X169.323 Y115.506 E0.0260
G1 X169.764 Y115.226 E0.0261
G1 X170.239 Y115.011 E0.0260
G1 X170.741 Y114.864 E0.0261
G1 X171.258 Y114.789 E0.0261
G1 X171.781 Y114.787 E0.0261
G1 X172.298 Y114.859 E0.0260
G1 X172.800 Y115.003 E0.0261
G1 X173.277 Y115.215 E0.0260
G1 X173.724 Y115.495 E0.0263
G1 X174.161 Y115.868 E0.0287
G1 X184.132 Y125.839 E0.7035
G1 X184.494 Y126.261 E0.0277
G1 X184.742 Y126.643 E0.0227
G1 X184.989 Y127.177 E0.0294
G1 X185.136 Y127.679 E0.0261
G1 X185.205 Y128.129 E0.0227
G1 X185.217 Y128.651 E0.0260
G1 X185.141 Y129.236 E0.0294
G1 X185.020 Y129.675 E0.0227
G1 X184.816 Y130.156 E0.0261
G1 X184.505 Y130.662 E0.0296
G1 X184.160 Y131.070 E0.0267
G1 X150.699 Y164.531 E2.3609
G1 X213.215 Y227.047 E4.4108
G1 X246.648 Y193.615 E2.3588
G1 X247.070 Y193.253 E0.0277
G1 X247.512 Y192.972 E0.0261
G1 X247.925 Y192.781 E0.0227
G1 X248.488 Y192.611 E0.0293
G1 X249.005 Y192.536 E0.0261
G1 X249.528 Y192.534 E0.0261
G1 X250.045 Y192.606 E0.0260
G1 X250.547 Y192.750 E0.0261
G1 X251.025 Y192.962 E0.0261
G1 X251.472 Y193.243 E0.0263
G1 X251.908 Y193.615 E0.0286
G1 X261.878 Y203.585 E0.7034
G1 X262.240 Y204.007 E0.0277
G1 X262.488 Y204.389 E0.0227
G1 X262.735 Y204.923 E0.0294
G1 X262.882 Y205.425 E0.0261
G1 X262.957 Y205.942 E0.0261
G1 X262.963 Y206.397 E0.0227
G1 X262.900 Y206.916 E0.0261
G1 X262.766 Y207.421 E0.0261
G1 X262.531 Y207.962 E0.0294
G1 X262.251 Y208.408 E0.0263
G1 X261.906 Y208.816 E0.0267
G1 X228.446 Y242.277 E2.3608
G1 X249.176 Y263.009 E1.4627
G1 X250.638 Y264.718 E0.1122
G1 X250.975 Y265.187 E0.0288
G1 X252.011 Y266.923 E0.1009
G1 X252.280 Y267.473 E0.0305
G1 X253.001 Y269.319 E0.0989
G1 X253.167 Y269.871 E0.0288
G1 X253.584 Y271.849 E0.1009
G1 X253.660 Y272.459 E0.0307
G1 X253.742 Y274.439 E0.0989
G1 X253.716 Y275.055 E0.0308
G1 X253.464 Y277.061 E0.1009
G1 X253.344 Y277.621 E0.0286
G1 X252.779 Y279.520 E0.0988
G1 X252.556 Y280.093 E0.0307
G1 X251.666 Y281.909 E0.1009
G1 X251.371 Y282.401 E0.0286
G1 X250.195 Y284.045 E0.1008
G1 X249.821 Y284.485 E0.0288
G1 X248.390 Y285.912 E0.1008
G1 X247.952 Y286.282 E0.0286
G1 X246.306 Y287.455 E0.1008
G1 X245.811 Y287.748 E0.0287
G1 X243.994 Y288.634 E0.1009
G1 X243.459 Y288.841 E0.0286
G1 X241.521 Y289.417 E0.1009
G1 X240.957 Y289.533 E0.0287
G1 X238.952 Y289.782 E0.1008
G1 X238.377 Y289.804 E0.0287
G1 X236.357 Y289.718 E0.1009
G1 X235.787 Y289.646 E0.0287
G1 X233.869 Y289.242 E0.0978
G1 X233.335 Y289.083 E0.0278
G1 X231.392 Y288.334 E0.1039
G1 X230.858 Y288.073 E0.0297
G1 X229.123 Y287.036 E0.1008
G1 X228.657 Y286.701 E0.0286
G1 X226.920 Y285.213 E0.1141
G1 X14.787 Y73.080 E14.9671
G1 X13.299 Y71.343 E0.1141
G1 X12.942 Y70.844 E0.0306
G1 X11.927 Y69.142 E0.0989
G1 X11.672 Y68.624 E0.0288
G1 X10.936 Y66.740 E0.1009
G1 X10.761 Y66.154 E0.0305
G1 X10.354 Y64.215 E0.0988
G1 X10.278 Y63.604 E0.0307
G1 X10.196 Y61.623 E0.0989
G1 X10.218 Y61.048 E0.0287
G1 X10.473 Y59.003 E0.1028
G1 X10.593 Y58.441 E0.0287
G1 X11.159 Y56.541 E0.0989
G1 X11.382 Y55.970 E0.0306
G1 X12.225 Y54.244 E0.0958
G1 X12.509 Y53.761 E0.0280
G1 X13.734 Y52.030 E0.1058
G1 X14.114 Y51.581 E0.0293
G1 X15.515 Y50.179 E0.0989
G1 X15.986 Y49.780 E0.0308
G1 X17.599 Y48.629 E0.0989
G1 X18.091 Y48.334 E0.0286
G1 X19.855 Y47.471 E0.0980
G0 F2400 X19.944 Y47.428
M204 S1300.00
G0 F7200 X20.082 Y47.782
G0 F7200 X20.118 Y47.875
M204 S1250.00
G1 F2400 X20.617 Y47.681 E0.0267
G1 X22.516 Y47.116 E0.0988
G1 X23.038 Y47.006 E0.0266
G1 X25.005 Y46.760 E0.0989
G1 X25.541 Y46.738 E0.0268
G1 X27.521 Y46.820 E0.0989
G1 X28.052 Y46.886 E0.0267
G1 X29.992 Y47.293 E0.0989
G1 X30.506 Y47.446 E0.0268
G1 X32.352 Y48.167 E0.0989
G1 X32.831 Y48.401 E0.0266
G1 X34.534 Y49.415 E0.0989
G1 X34.970 Y49.727 E0.0267
G1 X36.679 Y51.189 E0.1122
G1 X57.723 Y72.232 E1.4847
G1 X91.494 Y38.461 E2.3827
G1 X91.838 Y38.163 E0.0227
G1 X92.220 Y37.915 E0.0227
G1 X92.632 Y37.724 E0.0227
G1 X93.068 Y37.592 E0.0227
G1 X93.518 Y37.523 E0.0227
G1 X93.973 Y37.517 E0.0227
G1 X94.424 Y37.576 E0.0227
G1 X94.863 Y37.697 E0.0227
G1 X95.281 Y37.878 E0.0227
G1 X95.668 Y38.116 E0.0227
G1 X96.076 Y38.461 E0.0267
G1 X106.046 Y48.431 E0.7034
G1 X106.344 Y48.775 E0.0227
G1 X106.592 Y49.157 E0.0227
G1 X106.783 Y49.569 E0.0227
G1 X106.915 Y50.005 E0.0227
G1 X106.984 Y50.455 E0.0227
G1 X106.990 Y50.910 E0.0227
G1 X106.931 Y51.361 E0.0227
G1 X106.810 Y51.800 E0.0227
G1 X106.629 Y52.218 E0.0227
G1 X106.391 Y52.605 E0.0227
G1 X106.046 Y53.013 E0.0267
G1 X72.275 Y86.785 E2.3828
G1 X135.469 Y149.979 E4.4587
G1 X169.240 Y116.207 E2.3828
G1 X169.584 Y115.909 E0.0227
G1 X169.966 Y115.661 E0.0227
G1 X170.378 Y115.470 E0.0227
G1 X170.814 Y115.338 E0.0227
G1 X171.264 Y115.269 E0.0227
G1 X171.719 Y115.263 E0.0227
G1 X172.170 Y115.322 E0.0227
G1 X172.609 Y115.443 E0.0227
G1 X173.026 Y115.624 E0.0227
G1 X173.414 Y115.862 E0.0227
G1 X173.822 Y116.207 E0.0267
G1 X183.793 Y126.178 E0.7035
G1 X184.091 Y126.522 E0.0227
G1 X184.339 Y126.904 E0.0227
G1 X184.530 Y127.316 E0.0227
G1 X184.662 Y127.752 E0.0227
G1 X184.731 Y128.202 E0.0227
G1 X184.737 Y128.657 E0.0227
G1 X184.678 Y129.108 E0.0227
G1 X184.557 Y129.547 E0.0227
G1 X184.376 Y129.965 E0.0227
G1 X184.138 Y130.352 E0.0227
G1 X183.793 Y130.760 E0.0267
G1 X150.021 Y164.531 E2.3828
G1 X213.215 Y227.725 E4.4587
G1 X246.987 Y193.954 E2.3828
G1 X247.331 Y193.656 E0.0227
G1 X247.713 Y193.408 E0.0227
G1 X248.126 Y193.217 E0.0227
G1 X248.561 Y193.085 E0.0227
G1 X249.011 Y193.016 E0.0227
G1 X249.466 Y193.010 E0.0227
G1 X249.917 Y193.069 E0.0227
G1 X250.356 Y193.190 E0.0227
G1 X250.774 Y193.371 E0.0227
G1 X251.162 Y193.609 E0.0227
G1 X251.569 Y193.954 E0.0266
G1 X261.539 Y203.924 E0.7034
G1 X261.837 Y204.268 E0.0227
G1 X262.085 Y204.650 E0.0227
G1 X262.276 Y205.062 E0.0227
G1 X262.408 Y205.498 E0.0227
G1 X262.477 Y205.948 E0.0227
G1 X262.483 Y206.403 E0.0227
G1 X262.424 Y206.854 E0.0227
G1 X262.303 Y207.293 E0.0227
G1 X262.122 Y207.711 E0.0227
G1 X261.884 Y208.098 E0.0227
G1 X261.539 Y208.506 E0.0267
G1 X227.768 Y242.277 E2.3827
G1 X248.811 Y263.321 E1.4847
G1 X250.273 Y265.030 E0.1122
G1 X250.585 Y265.466 E0.0267
G1 X251.599 Y267.169 E0.0989
G1 X251.833 Y267.648 E0.0266
G1 X252.554 Y269.494 E0.0989
G1 X252.707 Y270.008 E0.0268
G1 X253.114 Y271.948 E0.0989
G1 X253.180 Y272.479 E0.0267
G1 X253.262 Y274.459 E0.0989
G1 X253.240 Y274.995 E0.0268
G1 X252.994 Y276.962 E0.0989
G1 X252.884 Y277.484 E0.0266
G1 X252.319 Y279.383 E0.0988
G1 X252.125 Y279.882 E0.0267
G1 X251.254 Y281.663 E0.0989
G1 X250.980 Y282.122 E0.0267
G1 X249.829 Y283.735 E0.0989
G1 X249.482 Y284.145 E0.0268
G1 X248.080 Y285.546 E0.0989
G1 X247.673 Y285.891 E0.0266
G1 X246.060 Y287.043 E0.0989
G1 X245.600 Y287.317 E0.0267
G1 X243.820 Y288.187 E0.0988
G1 X243.322 Y288.381 E0.0267
G1 X241.422 Y288.947 E0.0989
G1 X240.898 Y289.057 E0.0267
G1 X238.932 Y289.302 E0.0988
G1 X238.397 Y289.324 E0.0267
G1 X236.416 Y289.242 E0.0989
G1 X235.885 Y289.176 E0.0267
G1 X234.005 Y288.782 E0.0958
G1 X233.507 Y288.635 E0.0259
G1 X231.601 Y287.902 E0.1019
G1 X231.104 Y287.661 E0.0276
G1 X229.402 Y286.646 E0.0989
G1 X228.969 Y286.336 E0.0266
G1 X227.259 Y284.874 E0.1122
G1 X15.126 Y72.741 E14.9671
G1 X13.664 Y71.031 E0.1122
G1 X13.354 Y70.598 E0.0266
G1 X12.339 Y68.896 E0.0989
G1 X12.103 Y68.413 E0.0268
G1 X11.383 Y66.566 E0.0989
G1 X11.231 Y66.055 E0.0266
G1 X10.824 Y64.116 E0.0988
G1 X10.758 Y63.584 E0.0267
G1 X10.676 Y61.603 E0.0989
G1 X10.698 Y61.068 E0.0267
G1 X10.943 Y59.102 E0.0988
G1 X11.053 Y58.578 E0.0267
G1 X11.619 Y56.678 E0.0989
G1 X11.813 Y56.181 E0.0266
G1 X12.656 Y54.455 E0.0958
G1 X12.922 Y54.006 E0.0260
G1 X14.101 Y52.339 E0.1019
G1 X14.454 Y51.920 E0.0273
G1 X15.855 Y50.518 E0.0989
G1 X16.265 Y50.171 E0.0268
G1 X17.878 Y49.020 E0.0989
G1 X18.337 Y48.746 E0.0267
G1 X20.029 Y47.918 E0.0940
G0 F2400 X20.118 Y47.875
;PRINTING: right corp  xl.STL
;PRINTING_ID: 0
G1 F2400 E-1.0000
M204 S1300.00
G0 F7200 X106.625 Y150.766
G0 F7200 X106.689 Y150.842
M204 S1000.00
M205 X6.00 Y6.00
;TYPE:WALL-INNER
;WIDTH:0.480
G1 F2400 E0.9700
G1 F2400 X149.187 Y193.336 E2.9983
G1 X149.858 Y193.902 E0.0438
G1 X150.668 Y194.385 E0.0471
G1 X151.548 Y194.730 E0.0472
G1 X152.475 Y194.923 E0.0472
G1 X153.419 Y194.962 E0.0471
G1 X154.356 Y194.845 E0.0471
G1 X155.263 Y194.575 E0.0472
G1 X156.110 Y194.161 E0.0470
G1 X156.880 Y193.612 E0.0472
G1 X157.549 Y192.943 E0.0472
G1 X158.098 Y192.174 E0.0471
G1 X158.513 Y191.325 E0.0471
G1 X158.783 Y190.419 E0.0472
G1 X158.900 Y189.478 E0.0473
G1 X158.854 Y188.497 E0.0490
G1 X158.666 Y187.611 E0.0452
G1 X158.323 Y186.730 E0.0472
G1 X157.839 Y185.919 E0.0471
G1 X157.249 Y185.221 E0.0456
G1 X114.779 Y142.751 E2.9965
G1 X114.078 Y142.159 E0.0458
