;Sliced by ideaMaker 4.2.3.5600, 2022-10-12 11:43:25 UTC+0200
;Dimension: 300.000 300.000 400.000 0.400
;Plate Shape: 0
;Origin Center: 0
;Extruder Offset #1: 25.000 0.000
;Filament Diameter #1: 1.750
;Filament Diameter #2: 1.750
;Filament Compensation #1: 100.00
;Filament Compensation #2: 90.00
;Filament Density #1: 1240.00
;Filament Density #2: 1240.00
;Filament Type #1: Sunlu
;Filament Type #2: 
;Filament Name #1: Sunlu Grey PLA
;Filament Name #2: 
;Firmware: Marlin
;Bounding Box: 18.841 281.159 108.300 191.700 0.000 6.050
;Model Gap: 0.000
M92 E415.00000
M221 T0 S100.00
M140 S60.00
M104 T0 S210.00
M109 T0 S210.00
T0
M190 S60.00
M107
G28 ; home all axes
G29 ; Autoleveling processing ; à commenter si M420 actif
;M420 S1 Z10 ; Autolevel enable ; à commenter si G29 actif
;vous avez 2 choix, soit activer le G29 pour faire un autoleveling du plateau avant chaque impression
;C'est la méthode recvommandé par ARtillery3Dexpert.fr
;soit activer la ligne qui commance par M420 pour faire un rappel de la derniere mesure du plateau
;pour gagner du temp ( non recommandé par artillery3Dexpert.fr )
M500 ; sauvegarde eeprom
M117 Purge extruder
G92 E0 ; reset extruder
G1 Z1.0 F3000 ; move z up little to prevent scratching of surface
G1 X2 Y20 Z0.3 F5000.0 ; move to start-line position
G1 X2 Y200.0 Z0.3 F1500.0 E15 ; draw 1st line
G1 X2 Y200.0 Z0.4 F5000.0 ; move to side a little
G1 X2 Y20 Z0.4 F1500.0 E30 ; draw 2nd line
G92 E0 ; reset extruder
G1 Z1.0 F3000 ; move z up little to prevent scratching of surface
;TOTAL_NUM: 1
;PRINTING_TIME: 0
;REMAINING_TIME: 4835
M83
;LAYER:0
;Z:0.250
;HEIGHT:0.250
M106 S0
;PRINTING: NON-OBJECT
;PRINTING_ID: -1
G1 F2400 E-1.0000
M204 S1300.00
M205 X7.00 Y7.00
G0 F7200 X65.628 Y108.917
G0 F900 Z0.250
G0 F7200 X65.679 Y109.002
M204 S1250.00
;TYPE:SKIRT
;WIDTH:0.480
G1 F2400 E0.9700
G1 F2400 X66.253 Y108.683 E0.0328
G1 X66.740 Y108.495 E0.0260
G1 X67.390 Y108.348 E0.0332
G1 X68.000 Y108.300 E0.0305
G1 X82.134 Y108.301 E0.7051
G1 X82.693 Y108.345 E0.0280
G1 X83.264 Y108.467 E0.0291
G1 X83.880 Y108.698 E0.0328
G1 X84.334 Y108.946 E0.0258
G1 X84.810 Y109.294 E0.0294
G1 X85.235 Y109.709 E0.0296
G1 X85.595 Y110.176 E0.0294
G1 X85.889 Y110.693 E0.0297
G1 X86.082 Y111.173 E0.0258
G1 X86.241 Y111.812 E0.0329
G1 X86.298 Y112.460 E0.0325
G1 X86.300 Y159.300 E2.3369
G1 X213.700 Y159.300 E6.3560
G1 X213.700 Y112.500 E2.3349
G1 X213.754 Y111.842 E0.0329
G1 X213.885 Y111.269 E0.0293
G1 X214.068 Y110.785 E0.0258
G1 X214.346 Y110.266 E0.0294
G1 X214.694 Y109.790 E0.0294
G1 X215.105 Y109.368 E0.0294
G1 X215.572 Y109.007 E0.0294
G1 X216.085 Y108.715 E0.0294
G1 X216.638 Y108.497 E0.0297
G1 X217.217 Y108.359 E0.0297
G1 X217.900 Y108.300 E0.0342
G1 X232.037 Y108.301 E0.7053
G1 X232.658 Y108.354 E0.0311
G1 X233.231 Y108.485 E0.0293
G1 X233.658 Y108.642 E0.0227
G1 X234.234 Y108.946 E0.0325
G1 X234.710 Y109.294 E0.0294
G1 X235.087 Y109.655 E0.0260
G1 X235.455 Y110.116 E0.0294
G1 X235.755 Y110.624 E0.0294
G1 X236.003 Y111.236 E0.0329
G1 X236.142 Y111.822 E0.0300
G1 X236.198 Y112.462 E0.0321
G1 X236.200 Y159.300 E2.3368
G1 X265.040 Y159.300 E1.4388
G1 X265.308 Y159.311 E0.0134
G1 X267.361 Y159.483 E0.1028
G1 X267.966 Y159.585 E0.0306
G1 X269.965 Y160.090 E0.1029
G1 X270.583 Y160.303 E0.0326
G1 X272.398 Y161.099 E0.0989
G1 X273.008 Y161.429 E0.0346
G1 X274.701 Y162.537 E0.1009
G1 X275.216 Y162.941 E0.0327
G1 X276.701 Y164.311 E0.1008
G1 X277.091 Y164.732 E0.0286
G1 X278.361 Y166.357 E0.1029
G1 X278.720 Y166.904 E0.0326
G1 X279.701 Y168.718 E0.1029
G1 X279.961 Y169.315 E0.0325
G1 X280.605 Y171.189 E0.0989
G1 X280.759 Y171.784 E0.0307
G1 X281.101 Y173.818 E0.1029
G1 X281.159 Y174.509 E0.0346
G1 X281.159 Y176.491 E0.0989
G1 X281.106 Y177.143 E0.0326
G1 X280.763 Y179.200 E0.1040
G1 X280.648 Y179.680 E0.0246
G1 X280.203 Y181.088 E0.0737
G1 X279.870 Y181.923 E0.0448
G1 X279.683 Y182.319 E0.0218
G1 X278.720 Y184.097 E0.1009
G1 X278.383 Y184.612 E0.0307
G1 X277.144 Y186.207 E0.1008
G1 X276.731 Y186.659 E0.0305
G1 X275.216 Y188.059 E0.1029
G1 X274.667 Y188.487 E0.0347
G1 X273.007 Y189.571 E0.0989
G1 X272.398 Y189.901 E0.0346
G1 X270.583 Y190.697 E0.0989
G1 X270.004 Y190.899 E0.0306
G1 X268.006 Y191.407 E0.1029
G1 X267.360 Y191.517 E0.0327
G1 X265.000 Y191.700 E0.1181
G1 X34.962 Y191.699 E11.4766
G1 X32.598 Y191.511 E0.1183
G1 X31.994 Y191.407 E0.0306
G1 X29.996 Y190.899 E0.1029
G1 X29.417 Y190.696 E0.0306
G1 X27.531 Y189.865 E0.1028
G1 X26.993 Y189.571 E0.0306
G1 X25.300 Y188.464 E0.1009
G1 X24.784 Y188.059 E0.0327
G1 X23.299 Y186.689 E0.1008
G1 X22.882 Y186.237 E0.0307
G1 X21.592 Y184.577 E0.1049
G1 X21.260 Y184.061 E0.0306
G1 X20.281 Y182.245 E0.1029
G1 X20.039 Y181.685 E0.0304
G1 X19.395 Y179.811 E0.0989
G1 X19.225 Y179.137 E0.0347
G1 X18.894 Y177.143 E0.1008
G1 X18.841 Y176.491 E0.0326
G1 X18.842 Y174.531 E0.0978
G1 X18.886 Y173.975 E0.0278
G1 X19.221 Y171.884 E0.1057
G1 X19.371 Y171.270 E0.0315
G1 X20.039 Y169.315 E0.1031
G1 X20.281 Y168.755 E0.0304
G1 X21.301 Y166.868 E0.1070
G1 X21.617 Y166.388 E0.0287
G1 X22.856 Y164.793 E0.1008
G1 X23.269 Y164.341 E0.0305
G1 X24.814 Y162.915 E0.1049
G1 X25.300 Y162.536 E0.0307
G1 X26.993 Y161.429 E0.1009
G1 X27.603 Y161.099 E0.0346
G1 X29.492 Y160.275 E0.1028
G1 X30.073 Y160.079 E0.0306
G1 X31.994 Y159.593 E0.0989
G1 X32.638 Y159.484 E0.0326
G1 X34.692 Y159.311 E0.1028
G1 X34.960 Y159.300 E0.0134
G1 X63.800 Y159.300 E1.4388
G1 X63.801 Y112.463 E2.3367
G1 X63.854 Y111.842 E0.0311
G1 X63.987 Y111.265 E0.0295
G1 X64.200 Y110.716 E0.0294
G1 X64.487 Y110.202 E0.0294
G1 X64.799 Y109.784 E0.0260
G1 X65.213 Y109.362 E0.0295
G1 X65.600 Y109.063 E0.0244
G0 F2400 X65.679 Y109.002
M204 S1300.00
G0 F7200 X65.909 Y109.306
G0 F7200 X65.969 Y109.385
M204 S1250.00
G1 F2400 X66.426 Y109.131 E0.0261
G1 X66.913 Y108.943 E0.0260
G1 X67.428 Y108.826 E0.0263
G1 X68.000 Y108.780 E0.0286
G1 X82.134 Y108.781 E0.7051
G1 X82.654 Y108.823 E0.0260
G1 X83.099 Y108.918 E0.0227
G1 X83.653 Y109.121 E0.0294
G1 X84.054 Y109.336 E0.0227
G1 X84.478 Y109.641 E0.0261
G1 X84.855 Y110.002 E0.0260
G1 X85.215 Y110.469 E0.0294
G1 X85.469 Y110.926 E0.0261
G1 X85.636 Y111.349 E0.0227
G1 X85.763 Y111.856 E0.0261
G1 X85.818 Y112.460 E0.0303
G1 X85.820 Y159.780 E2.3608
G1 X214.180 Y159.780 E6.4039
G1 X214.180 Y112.500 E2.3588
G1 X214.223 Y111.946 E0.0277
G1 X214.336 Y111.435 E0.0261
G1 X214.493 Y111.008 E0.0227
G1 X214.736 Y110.546 E0.0260
G1 X215.041 Y110.122 E0.0261
G1 X215.402 Y109.745 E0.0260
G1 X215.813 Y109.422 E0.0261
G1 X216.265 Y109.160 E0.0261
G1 X216.749 Y108.964 E0.0261
G1 X217.328 Y108.826 E0.0297
G1 X217.900 Y108.780 E0.0286
G1 X232.000 Y108.780 E0.7035
G1 X232.554 Y108.823 E0.0277
G1 X233.065 Y108.936 E0.0261
G1 X233.492 Y109.093 E0.0227
G1 X233.954 Y109.336 E0.0260
G1 X234.378 Y109.641 E0.0261
G1 X234.755 Y110.002 E0.0260
G1 X235.078 Y110.413 E0.0261
G1 X235.340 Y110.865 E0.0261
G1 X235.557 Y111.413 E0.0294
G1 X235.674 Y111.928 E0.0263
G1 X235.720 Y112.500 E0.0286
G1 X235.720 Y159.780 E2.3588
G1 X265.020 Y159.780 E1.4618
G1 X265.288 Y159.791 E0.0134
G1 X267.283 Y159.957 E0.0999
G1 X267.849 Y160.050 E0.0286
G1 X269.809 Y160.544 E0.1008
G1 X270.390 Y160.743 E0.0306
G1 X272.205 Y161.539 E0.0989
G1 X272.745 Y161.831 E0.0306
G1 X274.438 Y162.939 E0.1009
G1 X274.891 Y163.294 E0.0287
G1 X276.349 Y164.637 E0.0989
G1 X276.739 Y165.058 E0.0286
G1 X277.982 Y166.652 E0.1008
G1 X278.298 Y167.132 E0.0287
G1 X279.279 Y168.946 E0.1029
G1 X279.507 Y169.471 E0.0286
G1 X280.151 Y171.345 E0.0989
G1 X280.294 Y171.903 E0.0287
G1 X280.628 Y173.897 E0.1009
G1 X280.679 Y174.509 E0.0306
G1 X280.679 Y176.491 E0.0989
G1 X280.628 Y177.103 E0.0306
G1 X280.296 Y179.089 E0.1005
G1 X280.190 Y179.536 E0.0229
G1 X279.757 Y180.910 E0.0719
G1 X279.435 Y181.719 E0.0434
G1 X279.261 Y182.090 E0.0204
G1 X278.298 Y183.868 E0.1009
G1 X277.982 Y184.348 E0.0287
G1 X276.765 Y185.912 E0.0989
G1 X276.377 Y186.335 E0.0286
G1 X274.891 Y187.706 E0.1009
G1 X274.405 Y188.085 E0.0307
G1 X272.745 Y189.169 E0.0989
G1 X272.205 Y189.461 E0.0306
G1 X270.390 Y190.257 E0.0989
G1 X269.847 Y190.445 E0.0287
G1 X267.888 Y190.942 E0.1008
G1 X267.322 Y191.038 E0.0286
G1 X265.000 Y191.220 E0.1162
G1 X35.000 Y191.220 E11.4747
G1 X32.678 Y191.038 E0.1162
G1 X32.112 Y190.942 E0.0286
G1 X30.153 Y190.445 E0.1008
G1 X29.610 Y190.257 E0.0287
G1 X27.760 Y189.443 E0.1008
G1 X27.255 Y189.169 E0.0287
G1 X25.595 Y188.085 E0.0989
G1 X25.109 Y187.706 E0.0307
G1 X23.651 Y186.363 E0.0989
G1 X23.261 Y185.942 E0.0286
G1 X21.995 Y184.316 E0.1028
G1 X21.682 Y183.833 E0.0287
G1 X20.721 Y182.054 E0.1009
G1 X20.493 Y181.529 E0.0286
G1 X19.849 Y179.655 E0.0989
G1 X19.698 Y179.058 E0.0307
G1 X19.372 Y177.103 E0.0989
G1 X19.321 Y176.491 E0.0306
G1 X19.321 Y174.569 E0.0959
G1 X19.365 Y174.013 E0.0278
G1 X19.695 Y171.960 E0.1037
G1 X19.837 Y171.385 E0.0295
G1 X20.493 Y169.471 E0.1009
G1 X20.721 Y168.946 E0.0286
G1 X21.702 Y167.132 E0.1029
G1 X22.018 Y166.652 E0.0287
G1 X23.235 Y165.088 E0.0989
G1 X23.623 Y164.665 E0.0286
G1 X25.109 Y163.294 E0.1009
G1 X25.595 Y162.915 E0.0307
G1 X27.255 Y161.831 E0.0989
G1 X27.795 Y161.539 E0.0306
G1 X29.647 Y160.729 E0.1008
G1 X30.191 Y160.544 E0.0287
G1 X32.112 Y160.058 E0.0989
G1 X32.678 Y159.962 E0.0286
G1 X34.712 Y159.791 E0.1018
G1 X34.980 Y159.780 E0.0134
G1 X64.280 Y159.780 E1.4618
G1 X64.280 Y112.500 E2.3588
G1 X64.323 Y111.946 E0.0277
G1 X64.436 Y111.435 E0.0261
G1 X64.621 Y110.947 E0.0260
G1 X64.872 Y110.489 E0.0261
G1 X65.184 Y110.071 E0.0260
G1 X65.553 Y109.700 E0.0261
G1 X65.890 Y109.445 E0.0211
G0 F2400 X65.969 Y109.385
M204 S1300.00
G0 F7200 X66.157 Y109.715
G0 F7200 X66.206 Y109.802
M204 S1250.00
G1 F2400 X66.602 Y109.577 E0.0227
G1 X67.025 Y109.410 E0.0227
G1 X67.468 Y109.304 E0.0227
G1 X68.000 Y109.260 E0.0266
G1 X82.100 Y109.260 E0.7035
G1 X82.554 Y109.292 E0.0227
G1 X82.999 Y109.387 E0.0227
G1 X83.426 Y109.544 E0.0227
G1 X83.827 Y109.759 E0.0227
G1 X84.194 Y110.028 E0.0227
G1 X84.520 Y110.346 E0.0227
G1 X84.798 Y110.706 E0.0227
G1 X85.023 Y111.102 E0.0227
G1 X85.190 Y111.525 E0.0227
G1 X85.296 Y111.968 E0.0227
G1 X85.340 Y112.500 E0.0266
G1 X85.340 Y160.260 E2.3828
G1 X214.660 Y160.260 E6.4518
G1 X214.660 Y112.500 E2.3828
G1 X214.692 Y112.046 E0.0227
G1 X214.787 Y111.601 E0.0227
G1 X214.944 Y111.174 E0.0227
G1 X215.159 Y110.773 E0.0227
G1 X215.428 Y110.406 E0.0227
G1 X215.746 Y110.080 E0.0227
G1 X216.106 Y109.802 E0.0227
G1 X216.502 Y109.577 E0.0227
G1 X216.925 Y109.410 E0.0227
G1 X217.368 Y109.304 E0.0227
G1 X217.900 Y109.260 E0.0266
G1 X232.000 Y109.260 E0.7035
G1 X232.454 Y109.292 E0.0227
G1 X232.899 Y109.387 E0.0227
G1 X233.326 Y109.544 E0.0227
G1 X233.727 Y109.759 E0.0227
G1 X234.094 Y110.028 E0.0227
G1 X234.420 Y110.346 E0.0227
G1 X234.698 Y110.706 E0.0227
G1 X234.923 Y111.102 E0.0227
G1 X235.090 Y111.525 E0.0227
G1 X235.196 Y111.968 E0.0227
G1 X235.240 Y112.500 E0.0266
G1 X235.240 Y160.260 E2.3828
G1 X265.000 Y160.260 E1.4847
G1 X265.268 Y160.271 E0.0134
G1 X267.243 Y160.435 E0.0989
G1 X267.770 Y160.523 E0.0267
G1 X269.691 Y161.009 E0.0989
G1 X270.197 Y161.183 E0.0267
G1 X272.012 Y161.979 E0.0989
G1 X272.483 Y162.233 E0.0267
G1 X274.143 Y163.317 E0.0989
G1 X274.566 Y163.647 E0.0268
G1 X276.024 Y164.990 E0.0989
G1 X276.386 Y165.383 E0.0267
G1 X277.603 Y166.947 E0.0989
G1 X277.896 Y167.395 E0.0267
G1 X278.839 Y169.138 E0.0989
G1 X279.053 Y169.627 E0.0266
G1 X279.697 Y171.501 E0.0989
G1 X279.829 Y172.021 E0.0268
G1 X280.155 Y173.976 E0.0989
G1 X280.199 Y174.509 E0.0267
G1 X280.199 Y176.491 E0.0989
G1 X280.155 Y177.024 E0.0267
G1 X279.829 Y178.979 E0.0989
G1 X279.732 Y179.392 E0.0212
G1 X279.311 Y180.733 E0.0701
G1 X279.000 Y181.516 E0.0420
G1 X278.839 Y181.862 E0.0190
G1 X277.896 Y183.605 E0.0989
G1 X277.603 Y184.053 E0.0267
G1 X276.386 Y185.617 E0.0989
G1 X276.024 Y186.010 E0.0267
G1 X274.566 Y187.353 E0.0989
G1 X274.143 Y187.683 E0.0268
G1 X272.483 Y188.767 E0.0989
G1 X272.012 Y189.021 E0.0267
G1 X270.197 Y189.817 E0.0989
G1 X269.691 Y189.991 E0.0267
G1 X267.770 Y190.477 E0.0989
G1 X267.243 Y190.565 E0.0267
G1 X265.000 Y190.740 E0.1122
G1 X35.000 Y190.740 E11.4747
G1 X32.757 Y190.565 E0.1122
G1 X32.230 Y190.477 E0.0267
G1 X30.309 Y189.991 E0.0989
G1 X29.803 Y189.817 E0.0267
G1 X27.988 Y189.021 E0.0989
G1 X27.517 Y188.767 E0.0267
G1 X25.857 Y187.683 E0.0989
G1 X25.434 Y187.353 E0.0268
G1 X23.976 Y186.010 E0.0989
G1 X23.614 Y185.617 E0.0267
G1 X22.397 Y184.053 E0.0989
G1 X22.104 Y183.605 E0.0267
G1 X21.161 Y181.862 E0.0989
G1 X20.947 Y181.373 E0.0266
G1 X20.303 Y179.499 E0.0989
G1 X20.171 Y178.979 E0.0268
G1 X19.845 Y177.024 E0.0989
G1 X19.801 Y176.491 E0.0267
G1 X19.801 Y174.569 E0.0959
G1 X19.843 Y174.052 E0.0259
G1 X20.169 Y172.037 E0.1018
G1 X20.303 Y171.501 E0.0276
G1 X20.947 Y169.627 E0.0989
G1 X21.161 Y169.138 E0.0266
G1 X22.104 Y167.395 E0.0989
G1 X22.397 Y166.947 E0.0267
G1 X23.614 Y165.383 E0.0989
G1 X23.976 Y164.990 E0.0267
G1 X25.434 Y163.647 E0.0989
G1 X25.857 Y163.317 E0.0268
G1 X27.517 Y162.233 E0.0989
G1 X27.988 Y161.979 E0.0267
G1 X29.803 Y161.183 E0.0989
G1 X30.309 Y161.009 E0.0267
G1 X32.230 Y160.523 E0.0989
G1 X32.757 Y160.435 E0.0267
G1 X34.732 Y160.271 E0.0989
G1 X35.000 Y160.260 E0.0134
G1 X64.760 Y160.260 E1.4847
G1 X64.760 Y112.500 E2.3828
G1 X64.792 Y112.046 E0.0227
G1 X64.887 Y111.601 E0.0227
G1 X65.044 Y111.174 E0.0227
G1 X65.259 Y110.773 E0.0227
G1 X65.528 Y110.406 E0.0227
G1 X65.846 Y110.080 E0.0227
G1 X66.127 Y109.863 E0.0177
G0 F2400 X66.206 Y109.802
;PRINTING: right corp L 230mm.STL
;PRINTING_ID: 0
G1 F2400 E-1.0000
M204 S1300.00
G0 F7200 X31.377 Y186.075
G0 F7200 X31.336 Y186.165
M204 S1000.00
M205 X6.00 Y6.00
;TYPE:WALL-INNER
;WIDTH:0.480
G1 F2400 E0.9700
G1 F2400 X29.632 Y185.418 E0.0928
G1 X28.076 Y184.402 E0.0927
G1 X26.697 Y183.133 E0.0935
G1 X25.560 Y181.670 E0.0924
G1 X24.673 Y180.030 E0.0930
G1 X24.068 Y178.270 E0.0928
G1 X23.761 Y176.430 E0.0931
G1 X23.761 Y174.627 E0.0900
G1 X24.068 Y172.730 E0.0959
G1 X24.673 Y170.970 E0.0928
G1 X25.560 Y169.330 E0.0930
G1 X26.697 Y167.867 E0.0924
G1 X28.076 Y166.598 E0.0935
G1 X29.632 Y165.582 E0.0927
G1 X31.336 Y164.835 E0.0928
G1 X33.147 Y164.376 E0.0932
G1 X35.028 Y164.220 E0.0942
G1 X68.720 Y164.220 E1.6809
G1 X68.720 Y113.220 E2.5444
G1 X81.380 Y113.220 E0.6316
G1 X81.380 Y164.220 E2.5444
G1 X218.620 Y164.220 E6.8469
G1 X218.620 Y113.220 E2.5444
G1 X231.280 Y113.220 E0.6316
G1 X231.280 Y164.220 E2.5444
G1 X264.972 Y164.220 E1.6809
G1 X266.853 Y164.376 E0.0942
G1 X268.664 Y164.835 E0.0932
G1 X270.368 Y165.582 E0.0928
G1 X271.924 Y166.598 E0.0927
G1 X273.303 Y167.867 E0.0935
G1 X274.440 Y169.330 E0.0924
G1 X275.327 Y170.970 E0.0930
G1 X275.932 Y172.730 E0.0928
G1 X276.239 Y174.570 E0.0931
G1 X276.239 Y176.430 E0.0928
G1 X275.931 Y178.279 E0.0935
G1 X275.619 Y179.302 E0.0534
G1 X275.334 Y180.016 E0.0384
G1 X274.440 Y181.670 E0.0938
G1 X273.303 Y183.133 E0.0924
G1 X271.924 Y184.402 E0.0935
G1 X270.368 Y185.418 E0.0927
G1 X268.664 Y186.165 E0.0928
G1 X266.853 Y186.624 E0.0932
G1 X264.972 Y186.780 E0.0942
G1 X35.028 Y186.780 E11.4720
G1 X33.147 Y186.624 E0.0942
G1 X31.432 Y186.189 E0.0883
G0 F2400 X31.336 Y186.165
G1 F2400 E-1.0000
M204 S1300.00
M205 X7.00 Y7.00
G0 F7200 X31.212 Y186.527
G0 F7200 X31.180 Y186.621
M204 S1000.00
M205 X6.00 Y6.00
;TYPE:WALL-OUTER
;WIDTH:0.480
G1 F2400 E0.9700
G1 F2400 X29.403 Y185.842 E0.0968
G1 X27.780 Y184.782 E0.0967
G1 X26.343 Y183.459 E0.0974
G1 X25.157 Y181.933 E0.0964
G1 X24.232 Y180.224 E0.0970
G1 X23.601 Y178.388 E0.0969
G1 X23.281 Y176.470 E0.0970
G1 X23.281 Y174.588 E0.0939
G1 X23.601 Y172.613 E0.0998
G1 X24.232 Y170.776 E0.0969
G1 X25.157 Y169.067 E0.0970
G1 X26.343 Y167.541 E0.0964
G1 X27.780 Y166.218 E0.0974
G1 X29.403 Y165.158 E0.0967
G1 X31.180 Y164.379 E0.0968
G1 X33.068 Y163.901 E0.0972
G1 X35.008 Y163.740 E0.0971
G1 X68.240 Y163.740 E1.6580
G1 X68.240 Y112.740 E2.5444
G1 X81.860 Y112.740 E0.6795
G1 X81.860 Y163.740 E2.5444
G1 X218.140 Y163.740 E6.7990
G1 X218.140 Y112.740 E2.5444
G1 X231.760 Y112.740 E0.6795
G1 X231.760 Y163.740 E2.5444
G1 X264.992 Y163.740 E1.6580
G1 X266.932 Y163.901 E0.0971
G1 X268.820 Y164.379 E0.0972
G1 X270.597 Y165.158 E0.0968
G1 X272.220 Y166.218 E0.0967
G1 X273.657 Y167.541 E0.0974
