;Sliced by ideaMaker 4.2.3.5600, 2022-10-12 11:48:42 UTC+0200
;Dimension: 300.000 300.000 400.000 0.400
;Plate Shape: 0
;Origin Center: 0
;Extruder Offset #1: 25.000 0.000
;Filament Diameter #1: 1.750
;Filament Diameter #2: 1.750
;Filament Compensation #1: 100.00
;Filament Compensation #2: 90.00
;Filament Density #1: 1240.00
;Filament Density #2: 1240.00
;Filament Type #1: Sunlu
;Filament Type #2: 
;Filament Name #1: Sunlu Grey PLA
;Filament Name #2: 
;Firmware: Marlin
;Bounding Box: 111.060 184.941 107.313 192.687 0.000 17.050
;Model Gap: 0.000
M92 E415.00000
M221 T0 S100.00
M140 S60.00
M104 T0 S210.00
M109 T0 S210.00
T0
M190 S60.00
M107
G28 ; home all axes
G29 ; Autoleveling processing ; à commenter si M420 actif
;M420 S1 Z10 ; Autolevel enable ; à commenter si G29 actif
;vous avez 2 choix, soit activer le G29 pour faire un autoleveling du plateau avant chaque impression
;C'est la méthode recvommandé par ARtillery3Dexpert.fr
;soit activer la ligne qui commance par M420 pour faire un rappel de la derniere mesure du plateau
;pour gagner du temp ( non recommandé par artillery3Dexpert.fr )
M500 ; sauvegarde eeprom
M117 Purge extruder
G92 E0 ; reset extruder
G1 Z1.0 F3000 ; move z up little to prevent scratching of surface
G1 X2 Y20 Z0.3 F5000.0 ; move to start-line position
G1 X2 Y200.0 Z0.3 F1500.0 E15 ; draw 1st line
G1 X2 Y200.0 Z0.4 F5000.0 ; move to side a little
G1 X2 Y20 Z0.4 F1500.0 E30 ; draw 2nd line
G92 E0 ; reset extruder
G1 Z1.0 F3000 ; move z up little to prevent scratching of surface
;TOTAL_NUM: 1
;PRINTING_TIME: 0
;REMAINING_TIME: 3782
M83
;LAYER:0
;Z:0.250
;HEIGHT:0.250
M106 S0
;PRINTING: NON-OBJECT
;PRINTING_ID: -1
G1 F2400 E-1.0000
M204 S1300.00
M205 X7.00 Y7.00
G0 F7200 X123.781 Y126.177
G0 F900 Z0.250
G0 F7200 X123.851 Y126.248
M204 S1250.00
;TYPE:SKIRT
;WIDTH:0.480
G1 F2400 E0.9700
G1 F2400 X125.725 Y124.643 E0.1231
G1 X126.229 Y124.280 E0.0310
G1 X128.236 Y123.050 E0.1174
G1 X128.789 Y122.765 E0.0310
G1 X130.999 Y121.848 E0.1194
G1 X131.625 Y121.646 E0.0328
G1 X133.988 Y121.082 E0.1212
G1 X134.568 Y120.992 E0.0293
G1 X137.241 Y120.795 E0.1337
G1 X165.091 Y120.795 E1.3894
G1 X165.092 Y115.462 E0.2661
G1 X165.165 Y114.454 E0.0504
G1 X165.275 Y113.805 E0.0328
G1 X165.459 Y113.090 E0.0368
G1 X165.632 Y112.585 E0.0266
G1 X165.943 Y111.871 E0.0389
G1 X166.258 Y111.291 E0.0329
G1 X166.620 Y110.738 E0.0330
G1 X166.990 Y110.259 E0.0302
G1 X167.546 Y109.654 E0.0410
G1 X168.004 Y109.236 E0.0309
G1 X168.558 Y108.808 E0.0349
G1 X169.101 Y108.455 E0.0323
G1 X169.682 Y108.140 E0.0330
G1 X170.325 Y107.859 E0.0350
G1 X171.024 Y107.622 E0.0368
G1 X171.618 Y107.475 E0.0305
G1 X172.310 Y107.361 E0.0350
G1 X172.883 Y107.313 E0.0287
G1 X173.701 Y107.313 E0.0408
G1 X174.313 Y107.367 E0.0307
G1 X174.965 Y107.476 E0.0330
G1 X175.633 Y107.645 E0.0344
G1 X176.295 Y107.873 E0.0349
G1 X176.827 Y108.105 E0.0290
G1 X177.548 Y108.496 E0.0409
G1 X178.057 Y108.831 E0.0304
G1 X178.578 Y109.236 E0.0329
G1 X179.091 Y109.708 E0.0348
G1 X179.565 Y110.225 E0.0350
G1 X179.919 Y110.679 E0.0287
G1 X180.325 Y111.296 E0.0368
G1 X180.639 Y111.870 E0.0326
G1 X180.950 Y112.585 E0.0389
G1 X181.133 Y113.123 E0.0284
G1 X181.315 Y113.840 E0.0369
G1 X181.419 Y114.460 E0.0314
G1 X181.491 Y115.495 E0.0518
G1 X181.491 Y120.869 E0.2681
G1 X181.901 Y120.961 E0.0210
G1 X182.394 Y121.136 E0.0261
G1 X182.979 Y121.444 E0.0330
G1 X183.457 Y121.794 E0.0296
G1 X183.879 Y122.208 E0.0295
G1 X184.234 Y122.667 E0.0289
G1 X184.527 Y123.183 E0.0296
G1 X184.765 Y123.796 E0.0328
G1 X184.882 Y124.309 E0.0263
G1 X184.941 Y124.995 E0.0344
G1 X184.941 Y170.495 E2.2700
G1 X184.887 Y171.153 E0.0329
G1 X184.754 Y171.730 E0.0295
G1 X184.541 Y172.279 E0.0294
G1 X184.254 Y172.793 E0.0294
G1 X183.901 Y173.259 E0.0292
G1 X183.536 Y173.627 E0.0259
G1 X183.069 Y173.988 E0.0294
G1 X182.617 Y174.250 E0.0261
G1 X181.940 Y174.519 E0.0363
G1 X181.429 Y174.636 E0.0262
G1 X180.825 Y174.691 E0.0303
G1 X162.446 Y174.695 E0.9169
G1 X162.417 Y175.042 E0.0174
G1 X162.319 Y175.631 E0.0298
G1 X162.119 Y176.424 E0.0408
G1 X161.923 Y176.985 E0.0296
G1 X161.630 Y177.646 E0.0361
G1 X161.322 Y178.208 E0.0320
G1 X160.912 Y178.834 E0.0373
G1 X160.464 Y179.401 E0.0361
G1 X159.954 Y179.938 E0.0369
G1 X159.442 Y180.390 E0.0341
G1 X158.814 Y180.854 E0.0390
G1 X158.268 Y181.188 E0.0319
G1 X157.533 Y181.552 E0.0409
G1 X156.941 Y181.783 E0.0317
G1 X156.274 Y181.983 E0.0347
G1 X155.608 Y182.124 E0.0340
G1 X154.793 Y182.220 E0.0409
G1 X154.158 Y182.237 E0.0317
G1 X153.421 Y182.197 E0.0368
G1 X152.738 Y182.100 E0.0344
G1 X152.206 Y181.978 E0.0272
G1 X151.978 Y182.388 E0.0234
G1 X151.645 Y182.896 E0.0303
G1 X150.042 Y184.994 E0.1317
G1 X149.662 Y185.422 E0.0286
G1 X147.800 Y187.243 E0.1299
G1 X147.336 Y187.636 E0.0303
G1 X145.231 Y189.169 E0.1299
G1 X144.775 Y189.455 E0.0269
G1 X142.410 Y190.704 E0.1334
G1 X141.854 Y190.945 E0.0302
G1 X139.399 Y191.814 E0.1299
G1 X138.845 Y191.969 E0.0287
G1 X136.186 Y192.492 E0.1352
G1 X135.654 Y192.554 E0.0267
G1 X132.983 Y192.687 E0.1334
G1 X132.444 Y192.673 E0.0269
G1 X129.782 Y192.417 E0.1334
G1 X129.252 Y192.325 E0.0268
G1 X126.721 Y191.707 E0.1300
G1 X126.144 Y191.521 E0.0302
G1 X123.730 Y190.545 E0.1299
G1 X123.247 Y190.310 E0.0268
G1 X120.900 Y188.939 E0.1356
G1 X120.466 Y188.637 E0.0264
G1 X118.352 Y186.951 E0.1349
G1 X117.952 Y186.580 E0.0272
G1 X116.173 Y184.678 E0.1299
G1 X115.792 Y184.206 E0.0303
G1 X114.287 Y182.038 E0.1317
G1 X113.995 Y181.543 E0.0287
G1 X112.833 Y179.212 E0.1299
G1 X112.627 Y178.718 E0.0267
G1 X111.770 Y176.111 E0.1369
G1 X111.656 Y175.656 E0.0234
G1 X111.194 Y173.023 E0.1334
G1 X111.135 Y172.452 E0.0286
G1 X111.060 Y169.778 E0.1335
G1 X111.087 Y169.207 E0.0285
G1 X111.390 Y166.620 E0.1299
G1 X111.504 Y166.021 E0.0304
G1 X112.200 Y163.438 E0.1335
G1 X112.378 Y162.933 E0.0267
G1 X113.408 Y160.540 E0.1300
G1 X113.688 Y160.002 E0.0303
G1 X115.052 Y157.784 E0.1299
G1 X115.408 Y157.290 E0.0304
G1 X117.124 Y155.240 E0.1334
G1 X117.500 Y154.853 E0.0269
G1 X118.041 Y154.369 E0.0362
G1 X118.042 Y139.959 E0.7189
G1 X118.248 Y137.243 E0.1359
G1 X118.341 Y136.669 E0.0290
G1 X118.890 Y134.380 E0.1174
G1 X119.096 Y133.752 E0.0330
G1 X119.997 Y131.578 E0.1174
G1 X120.258 Y131.059 E0.0290
G1 X121.546 Y128.953 E0.1232
G1 X121.912 Y128.451 E0.0310
G1 X123.441 Y126.661 E0.1174
G1 X123.781 Y126.319 E0.0241
G0 F2400 X123.851 Y126.248
M204 S1300.00
G0 F7200 X124.121 Y126.517
G0 F7200 X124.191 Y126.587
M204 S1250.00
G1 F2400 X126.007 Y125.032 E0.1193
G1 X126.480 Y124.689 E0.0291
G1 X128.487 Y123.459 E0.1174
G1 X129.008 Y123.192 E0.0292
G1 X131.183 Y122.292 E0.1174
G1 X131.737 Y122.113 E0.0290
G1 X134.062 Y121.556 E0.1193
G1 X134.604 Y121.471 E0.0274
G1 X137.241 Y121.275 E0.1319
G1 X165.571 Y121.275 E1.4134
G1 X165.571 Y115.495 E0.2884
G1 X165.638 Y114.533 E0.0481
G1 X165.740 Y113.924 E0.0308
G1 X165.913 Y113.246 E0.0349
G1 X166.086 Y112.741 E0.0266
G1 X166.365 Y112.099 E0.0349
G1 X166.660 Y111.554 E0.0309
G1 X167.022 Y111.001 E0.0330
G1 X167.369 Y110.553 E0.0283
G1 X167.870 Y110.008 E0.0369
G1 X168.299 Y109.615 E0.0290
G1 X168.820 Y109.210 E0.0329
G1 X169.330 Y108.877 E0.0304
G1 X169.911 Y108.562 E0.0330
G1 X170.479 Y108.313 E0.0309
G1 X171.141 Y108.088 E0.0349
G1 X171.696 Y107.949 E0.0285
G1 X172.388 Y107.835 E0.0350
G1 X172.922 Y107.791 E0.0267
G1 X173.660 Y107.791 E0.0368
G1 X174.234 Y107.840 E0.0287
G1 X174.886 Y107.949 E0.0330
G1 X175.478 Y108.099 E0.0305
G1 X176.103 Y108.313 E0.0330
G1 X176.635 Y108.545 E0.0290
G1 X177.285 Y108.897 E0.0369
G1 X177.762 Y109.210 E0.0285
G1 X178.283 Y109.615 E0.0329
G1 X178.738 Y110.033 E0.0308
G1 X179.186 Y110.520 E0.0330
G1 X179.540 Y110.974 E0.0287
G1 X179.924 Y111.559 E0.0349
G1 X180.217 Y112.099 E0.0307
G1 X180.496 Y112.741 E0.0349
G1 X180.668 Y113.241 E0.0264
G1 X180.850 Y113.958 E0.0369
G1 X180.945 Y114.538 E0.0293
G1 X181.011 Y115.495 E0.0479
G1 X181.011 Y121.293 E0.2893
G1 X181.295 Y121.318 E0.0142
G1 X181.740 Y121.413 E0.0227
G1 X182.233 Y121.588 E0.0261
G1 X182.752 Y121.867 E0.0294
G1 X183.170 Y122.179 E0.0260
G1 X183.541 Y122.548 E0.0261
G1 X183.819 Y122.908 E0.0227
G1 X184.081 Y123.360 E0.0261
G1 X184.298 Y123.908 E0.0294
G1 X184.404 Y124.351 E0.0227
G1 X184.461 Y124.995 E0.0323
G1 X184.461 Y170.495 E2.2700
G1 X184.418 Y171.049 E0.0277
G1 X184.305 Y171.560 E0.0261
G1 X184.120 Y172.048 E0.0260
G1 X183.869 Y172.506 E0.0261
G1 X183.557 Y172.924 E0.0260
G1 X183.239 Y173.250 E0.0227
G1 X182.828 Y173.573 E0.0261
G1 X182.376 Y173.835 E0.0261
G1 X181.828 Y174.052 E0.0294
G1 X181.385 Y174.158 E0.0227
G1 X180.781 Y174.213 E0.0303
G1 X162.001 Y174.215 E0.9369
G1 X161.944 Y174.963 E0.0374
G1 X161.846 Y175.552 E0.0298
G1 X161.665 Y176.267 E0.0368
G1 X161.484 Y176.790 E0.0276
G1 X161.191 Y177.451 E0.0361
G1 X160.920 Y177.945 E0.0281
G1 X160.510 Y178.571 E0.0373
G1 X160.116 Y179.070 E0.0317
G1 X159.606 Y179.607 E0.0369
G1 X159.125 Y180.030 E0.0320
G1 X158.530 Y180.467 E0.0368
G1 X158.054 Y180.758 E0.0278
G1 X157.357 Y181.105 E0.0388
G1 X156.803 Y181.323 E0.0297
G1 X156.136 Y181.523 E0.0347
G1 X155.551 Y181.647 E0.0298
G1 X154.778 Y181.740 E0.0388
G1 X154.183 Y181.758 E0.0297
G1 X153.488 Y181.722 E0.0347
G1 X152.846 Y181.632 E0.0323
G1 X152.168 Y181.476 E0.0347
G1 X151.969 Y181.414 E0.0104
G1 X151.558 Y182.155 E0.0423
G1 X151.263 Y182.605 E0.0268
G1 X149.683 Y184.676 E0.1300
G1 X149.326 Y185.079 E0.0269
G1 X147.464 Y186.900 E0.1299
G1 X147.053 Y187.248 E0.0269
G1 X144.948 Y188.781 E0.1299
G1 X144.521 Y189.048 E0.0251
G1 X142.186 Y190.279 E0.1317
G1 X141.694 Y190.493 E0.0268
G1 X139.239 Y191.362 E0.1299
G1 X138.752 Y191.498 E0.0252
G1 X136.129 Y192.015 E0.1334
G1 X135.630 Y192.075 E0.0251
G1 X132.994 Y192.207 E0.1317
G1 X132.490 Y192.195 E0.0252
G1 X129.863 Y191.944 E0.1317
G1 X129.366 Y191.859 E0.0252
G1 X126.835 Y191.241 E0.1300
G1 X126.324 Y191.076 E0.0268
G1 X123.910 Y190.100 E0.1299
G1 X123.457 Y189.879 E0.0251
G1 X121.173 Y188.544 E0.1320
G1 X120.765 Y188.262 E0.0247
G1 X118.678 Y186.599 E0.1331
G1 X118.303 Y186.252 E0.0255
G1 X116.524 Y184.350 E0.1299
G1 X116.186 Y183.932 E0.0268
G1 X114.700 Y181.793 E0.1299
G1 X114.425 Y181.329 E0.0269
G1 X113.263 Y178.998 E0.1299
G1 X113.071 Y178.534 E0.0251
G1 X112.236 Y175.994 E0.1334
G1 X112.122 Y175.539 E0.0234
G1 X111.667 Y172.940 E0.1316
G1 X111.615 Y172.439 E0.0251
G1 X111.540 Y169.765 E0.1335
G1 X111.564 Y169.263 E0.0251
G1 X111.867 Y166.676 E0.1299
G1 X111.968 Y166.146 E0.0269
G1 X112.653 Y163.597 E0.1317
G1 X112.819 Y163.123 E0.0251
G1 X113.849 Y160.730 E0.1300
G1 X114.097 Y160.253 E0.0268
G1 X115.461 Y158.035 E0.1299
G1 X115.776 Y157.598 E0.0269
G1 X117.469 Y155.574 E0.1316
G1 X117.820 Y155.211 E0.0252
G1 X118.521 Y154.584 E0.0469
G1 X118.522 Y139.959 E0.7296
G1 X118.722 Y137.319 E0.1321
G1 X118.808 Y136.781 E0.0272
G1 X119.357 Y134.492 E0.1174
G1 X119.539 Y133.936 E0.0292
G1 X120.440 Y131.762 E0.1174
G1 X120.686 Y131.275 E0.0272
G1 X121.955 Y129.204 E0.1212
G1 X122.277 Y128.763 E0.0272
G1 X123.806 Y126.973 E0.1174
G1 X124.121 Y126.657 E0.0223
G0 F2400 X124.191 Y126.587
M204 S1300.00
G0 F7200 X124.460 Y126.856
G0 F7200 X124.530 Y126.926
M204 S1250.00
G1 F2400 X126.319 Y125.397 E0.1174
G1 X126.731 Y125.098 E0.0254
G1 X128.738 Y123.868 E0.1174
G1 X129.192 Y123.636 E0.0254
G1 X131.367 Y122.736 E0.1174
G1 X131.849 Y122.580 E0.0253
G1 X134.138 Y122.030 E0.1174
G1 X134.640 Y121.950 E0.0254
G1 X137.241 Y121.755 E0.1301
G1 X166.051 Y121.755 E1.4373
G1 X166.051 Y115.495 E0.3123
G1 X166.117 Y114.567 E0.0464
G1 X166.205 Y114.042 E0.0266
G1 X166.367 Y113.402 E0.0329
G1 X166.540 Y112.897 E0.0266
G1 X166.805 Y112.292 E0.0330
G1 X167.062 Y111.817 E0.0269
G1 X167.424 Y111.264 E0.0330
G1 X167.748 Y110.848 E0.0263
G1 X168.195 Y110.361 E0.0330
G1 X168.594 Y109.994 E0.0270
G1 X169.115 Y109.589 E0.0329
G1 X169.559 Y109.299 E0.0265
G1 X170.140 Y108.984 E0.0330
G1 X170.634 Y108.767 E0.0269
G1 X171.259 Y108.553 E0.0330
G1 X171.775 Y108.422 E0.0266
G1 X172.427 Y108.313 E0.0330
G1 X172.961 Y108.269 E0.0267
G1 X173.621 Y108.269 E0.0329
G1 X174.155 Y108.313 E0.0267
G1 X174.807 Y108.422 E0.0330
G1 X175.323 Y108.553 E0.0266
G1 X175.948 Y108.767 E0.0330
G1 X176.442 Y108.984 E0.0269
G1 X177.023 Y109.299 E0.0330
G1 X177.467 Y109.589 E0.0265
G1 X177.988 Y109.994 E0.0329
G1 X178.385 Y110.358 E0.0269
G1 X178.833 Y110.845 E0.0330
G1 X179.161 Y111.268 E0.0267
G1 X179.522 Y111.821 E0.0329
G1 X179.777 Y112.292 E0.0267
G1 X180.042 Y112.897 E0.0330
G1 X180.214 Y113.397 E0.0264
G1 X180.377 Y114.037 E0.0329
G1 X180.466 Y114.572 E0.0271
G1 X180.531 Y115.495 E0.0462
G1 X180.531 Y121.755 E0.3123
G1 X180.741 Y121.755 E0.0105
G1 X181.195 Y121.787 E0.0227
G1 X181.640 Y121.882 E0.0227
G1 X182.067 Y122.039 E0.0227
G1 X182.468 Y122.254 E0.0227
G1 X182.835 Y122.523 E0.0227
G1 X183.161 Y122.841 E0.0227
G1 X183.439 Y123.201 E0.0227
G1 X183.664 Y123.597 E0.0227
G1 X183.831 Y124.020 E0.0227
G1 X183.937 Y124.463 E0.0227
G1 X183.981 Y124.995 E0.0266
G1 X183.981 Y170.495 E2.2700
G1 X183.949 Y170.949 E0.0227
G1 X183.854 Y171.394 E0.0227
G1 X183.697 Y171.821 E0.0227
G1 X183.482 Y172.222 E0.0227
G1 X183.213 Y172.589 E0.0227
G1 X182.895 Y172.915 E0.0227
G1 X182.535 Y173.193 E0.0227
G1 X182.139 Y173.418 E0.0227
G1 X181.716 Y173.585 E0.0227
G1 X181.273 Y173.691 E0.0227
G1 X180.741 Y173.735 E0.0266
G1 X161.517 Y173.735 E0.9591
G1 X161.522 Y174.192 E0.0228
G1 X161.470 Y174.886 E0.0347
G1 X161.381 Y175.435 E0.0277
G1 X161.211 Y176.110 E0.0347
G1 X161.030 Y176.633 E0.0276
G1 X160.769 Y177.221 E0.0321
G1 X160.518 Y177.682 E0.0262
G1 X160.108 Y178.308 E0.0373
G1 X159.740 Y178.772 E0.0295
G1 X159.259 Y179.275 E0.0347
G1 X158.840 Y179.644 E0.0279
G1 X158.280 Y180.057 E0.0347
G1 X157.804 Y180.348 E0.0278
G1 X157.181 Y180.659 E0.0347
G1 X156.665 Y180.863 E0.0277
G1 X155.998 Y181.063 E0.0347
G1 X155.453 Y181.177 E0.0278
G1 X154.762 Y181.260 E0.0347
G1 X154.208 Y181.279 E0.0277
G1 X153.513 Y181.243 E0.0347
G1 X152.954 Y181.164 E0.0282
G1 X152.276 Y181.008 E0.0347
G1 X151.741 Y180.835 E0.0281
G1 X151.138 Y181.922 E0.0620
G1 X150.881 Y182.314 E0.0234
G1 X149.301 Y184.385 E0.1300
G1 X148.990 Y184.736 E0.0234
G1 X147.128 Y186.557 E0.1299
G1 X146.770 Y186.860 E0.0234
G1 X144.665 Y188.393 E0.1299
G1 X144.267 Y188.641 E0.0234
G1 X141.962 Y189.854 E0.1299
G1 X141.534 Y190.041 E0.0233
G1 X139.079 Y190.910 E0.1299
G1 X138.625 Y191.035 E0.0235
G1 X136.070 Y191.539 E0.1299
G1 X135.606 Y191.596 E0.0233
G1 X133.004 Y191.727 E0.1300
G1 X132.535 Y191.717 E0.0234
G1 X129.943 Y191.471 E0.1299
G1 X129.480 Y191.393 E0.0234
G1 X126.949 Y190.775 E0.1300
G1 X126.504 Y190.631 E0.0233
G1 X124.090 Y189.655 E0.1299
G1 X123.668 Y189.448 E0.0235
G1 X121.445 Y188.148 E0.1285
G1 X121.064 Y187.886 E0.0231
G1 X119.003 Y186.246 E0.1314
G1 X118.654 Y185.924 E0.0237
G1 X116.875 Y184.022 E0.1299
G1 X116.580 Y183.658 E0.0234
G1 X115.094 Y181.519 E0.1299
G1 X114.855 Y181.115 E0.0234
G1 X113.693 Y178.784 E0.1299
G1 X113.515 Y178.351 E0.0234
G1 X112.702 Y175.877 E0.1299
G1 X112.588 Y175.422 E0.0234
G1 X112.140 Y172.857 E0.1299
G1 X112.093 Y172.391 E0.0234
G1 X112.020 Y169.787 E0.1300
G1 X112.041 Y169.319 E0.0234
G1 X112.344 Y166.732 E0.1299
G1 X112.432 Y166.270 E0.0235
G1 X113.106 Y163.755 E0.1299
G1 X113.260 Y163.313 E0.0234
G1 X114.290 Y160.920 E0.1300
G1 X114.506 Y160.504 E0.0234
G1 X115.870 Y158.286 E0.1299
G1 X116.144 Y157.906 E0.0234
G1 X117.814 Y155.907 E0.1300
G1 X118.140 Y155.569 E0.0234
G1 X119.001 Y154.799 E0.0576
G1 X119.001 Y139.995 E0.7386
G1 X119.196 Y137.394 E0.1301
G1 X119.275 Y136.893 E0.0253
G1 X119.824 Y134.604 E0.1174
G1 X119.982 Y134.120 E0.0254
G1 X120.883 Y131.946 E0.1174
G1 X121.114 Y131.493 E0.0254
G1 X122.344 Y129.486 E0.1174
G1 X122.642 Y129.075 E0.0253
G1 X124.171 Y127.285 E0.1174
G1 X124.460 Y126.996 E0.0204
G0 F2400 X124.530 Y126.926
;PRINTING: steper support gear box.STL
;PRINTING_ID: 0
G1 F2400 E-1.0000
M204 S1300.00
G0 F7200 X121.514 Y183.081
G0 F7200 X121.509 Y183.180
M204 S1000.00
M205 X6.00 Y6.00
;TYPE:WALL-INNER
;WIDTH:0.480
G1 F2400 E0.9700
G1 F2400 X119.803 Y181.356 E0.1246
G1 X118.377 Y179.304 E0.1247
G1 X117.260 Y177.064 E0.1249
G1 X116.479 Y174.686 E0.1249
G1 X116.051 Y172.232 E0.1243
G1 X115.980 Y169.724 E0.1252
