;Sliced by ideaMaker 4.2.3.5600, 2022-10-10 17:05:43 UTC+0200
;Dimension: 300.000 300.000 400.000 0.400
;Plate Shape: 0
;Origin Center: 0
;Extruder Offset #1: 25.000 0.000
;Filament Diameter #1: 1.750
;Filament Diameter #2: 1.750
;Filament Compensation #1: 100.00
;Filament Compensation #2: 90.00
;Filament Density #1: 1240.00
;Filament Density #2: 1240.00
;Filament Type #1: Sunlu
;Filament Type #2: 
;Filament Name #1: Sunlu Grey PLA
;Filament Name #2: 
;Firmware: Marlin
;Bounding Box: 133.096 166.902 122.803 173.394 0.000 28.050
;Model Gap: 0.000
M92 E415.00000
M221 T0 S100.00
M140 S60.00
M104 T0 S210.00
M109 T0 S210.00
T0
M190 S60.00
M107
G28 ; home all axes
G29 ; Autoleveling processing ; à commenter si M420 actif
;M420 S1 Z10 ; Autolevel enable ; à commenter si G29 actif
;vous avez 2 choix, soit activer le G29 pour faire un autoleveling du plateau avant chaque impression
;C'est la méthode recvommandé par ARtillery3Dexpert.fr
;soit activer la ligne qui commance par M420 pour faire un rappel de la derniere mesure du plateau
;pour gagner du temp ( non recommandé par artillery3Dexpert.fr )
M500 ; sauvegarde eeprom
M117 Purge extruder
G92 E0 ; reset extruder
G1 Z1.0 F3000 ; move z up little to prevent scratching of surface
G1 X2 Y20 Z0.3 F5000.0 ; move to start-line position
G1 X2 Y200.0 Z0.3 F1500.0 E15 ; draw 1st line
G1 X2 Y200.0 Z0.4 F5000.0 ; move to side a little
G1 X2 Y20 Z0.4 F1500.0 E30 ; draw 2nd line
G92 E0 ; reset extruder
G1 Z1.0 F3000 ; move z up little to prevent scratching of surface
;TOTAL_NUM: 1
;PRINTING_TIME: 0
;REMAINING_TIME: 2534
M83
;LAYER:0
;Z:0.250
;HEIGHT:0.250
M106 S0
;PRINTING: NON-OBJECT
;PRINTING_ID: -1
G1 F2400 E-1.0000
M204 S1300.00
M205 X7.00 Y7.00
G0 F7200 X134.022 Y124.217
G0 F900 Z0.250
G0 F7200 X134.095 Y124.284
M204 S1250.00
;TYPE:SKIRT
;WIDTH:0.480
G1 F2400 E0.9700
G1 F2400 X134.559 Y123.817 E0.0328
G1 X134.975 Y123.502 E0.0260
G1 X135.489 Y123.211 E0.0295
G1 X136.097 Y122.976 E0.0325
G1 X136.608 Y122.859 E0.0262
G1 X137.212 Y122.804 E0.0303
G1 X162.777 Y122.803 E1.2754
G1 X163.358 Y122.854 E0.0291
G1 X163.803 Y122.949 E0.0227
G1 X164.484 Y123.198 E0.0362
G1 X164.938 Y123.446 E0.0258
G1 X165.362 Y123.751 E0.0261
G1 X165.791 Y124.155 E0.0294
G1 X166.239 Y124.736 E0.0366
G1 X166.493 Y125.193 E0.0261
G1 X166.686 Y125.673 E0.0258
G1 X166.845 Y126.317 E0.0331
G1 X166.902 Y126.962 E0.0323
G1 X166.898 Y156.967 E1.4970
G1 X166.835 Y157.979 E0.0506
G1 X166.677 Y159.241 E0.0635
G1 X166.472 Y160.288 E0.0532
G1 X166.298 Y160.981 E0.0356
G1 X165.823 Y162.439 E0.0765
G1 X165.313 Y163.652 E0.0656
G1 X164.718 Y164.808 E0.0649
G1 X164.209 Y165.651 E0.0491
G1 X163.252 Y166.990 E0.0821
G1 X162.398 Y167.985 E0.0654
G1 X161.476 Y168.906 E0.0650
G1 X160.590 Y169.673 E0.0585
G1 X159.955 Y170.158 E0.0399
G1 X158.873 Y170.886 E0.0651
G1 X158.020 Y171.378 E0.0491
G1 X157.337 Y171.728 E0.0383
G1 X156.751 Y171.996 E0.0321
G1 X156.001 Y172.301 E0.0404
G1 X155.318 Y172.543 E0.0362
G1 X154.327 Y172.838 E0.0516
G1 X153.624 Y173.010 E0.0361
G1 X153.003 Y173.134 E0.0316
G1 X152.372 Y173.235 E0.0319
G1 X151.131 Y173.363 E0.0622
G1 X150.808 Y173.381 E0.0161
G1 X149.547 Y173.394 E0.0629
G1 X148.532 Y173.337 E0.0507
G1 X147.231 Y173.172 E0.0654
G1 X145.625 Y172.826 E0.0820
G1 X144.681 Y172.543 E0.0492
G1 X143.942 Y172.280 E0.0391
G1 X142.806 Y171.794 E0.0616
G1 X141.974 Y171.374 E0.0465
G1 X140.849 Y170.711 E0.0651
G1 X140.037 Y170.154 E0.0491
G1 X138.761 Y169.122 E0.0819
G1 X137.871 Y168.272 E0.0614
G1 X137.374 Y167.735 E0.0365
G1 X136.606 Y166.811 E0.0599
G1 X136.274 Y166.366 E0.0277
G1 X135.909 Y165.834 E0.0322
G1 X135.445 Y165.089 E0.0438
G1 X134.859 Y164.014 E0.0611
G1 X134.577 Y163.418 E0.0329
G1 X134.382 Y162.965 E0.0246
G1 X133.948 Y161.786 E0.0627
G1 X133.582 Y160.510 E0.0662
G1 X133.427 Y159.823 E0.0351
G1 X133.286 Y159.022 E0.0406
G1 X133.202 Y158.375 E0.0325
G1 X133.138 Y157.649 E0.0364
G1 X133.096 Y156.518 E0.0565
G1 X133.097 Y126.966 E1.4744
G1 X133.150 Y126.346 E0.0310
G1 X133.262 Y125.840 E0.0259
G1 X133.437 Y125.347 E0.0261
G1 X133.745 Y124.762 E0.0330
G1 X134.036 Y124.364 E0.0246
G0 F2400 X134.095 Y124.284
M204 S1300.00
G0 F7200 X134.400 Y124.512
G0 F7200 X134.480 Y124.571
M204 S1250.00
G1 F2400 X134.849 Y124.200 E0.0261
G1 X135.265 Y123.885 E0.0260
G1 X135.722 Y123.631 E0.0261
G1 X136.209 Y123.443 E0.0260
G1 X136.652 Y123.337 E0.0227
G1 X137.256 Y123.282 E0.0303
G1 X162.738 Y123.281 E1.2713
G1 X163.258 Y123.323 E0.0260
G1 X163.703 Y123.418 E0.0227
G1 X164.257 Y123.621 E0.0294
G1 X164.658 Y123.836 E0.0227
G1 X165.082 Y124.141 E0.0261
G1 X165.459 Y124.502 E0.0260
G1 X165.819 Y124.969 E0.0294
G1 X166.073 Y125.426 E0.0261
G1 X166.240 Y125.849 E0.0227
G1 X166.378 Y126.428 E0.0297
G1 X166.424 Y127.000 E0.0286
G1 X166.419 Y156.938 E1.4936
G1 X166.359 Y157.919 E0.0490
G1 X166.201 Y159.181 E0.0635
G1 X166.006 Y160.171 E0.0503
G1 X165.832 Y160.864 E0.0356
G1 X165.380 Y162.254 E0.0729
G1 X164.886 Y163.433 E0.0638
G1 X164.307 Y164.560 E0.0632
G1 X163.798 Y165.403 E0.0491
G1 X162.887 Y166.678 E0.0782
G1 X162.059 Y167.646 E0.0636
G1 X161.162 Y168.543 E0.0633
G1 X160.276 Y169.310 E0.0585
G1 X159.687 Y169.760 E0.0370
G1 X158.633 Y170.470 E0.0634
G1 X157.780 Y170.962 E0.0491
G1 X157.137 Y171.291 E0.0360
G1 X156.551 Y171.559 E0.0321
G1 X155.841 Y171.849 E0.0383
G1 X155.181 Y172.083 E0.0349
G1 X154.213 Y172.372 E0.0504
G1 X153.529 Y172.539 E0.0351
G1 X152.927 Y172.660 E0.0306
G1 X152.296 Y172.761 E0.0319
G1 X151.104 Y172.884 E0.0598
G1 X150.803 Y172.901 E0.0150
G1 X149.542 Y172.914 E0.0629
G1 X148.559 Y172.858 E0.0491
G1 X147.292 Y172.696 E0.0637
G1 X145.763 Y172.366 E0.0780
G1 X144.819 Y172.083 E0.0492
G1 X144.131 Y171.839 E0.0364
G1 X143.022 Y171.365 E0.0602
G1 X142.217 Y170.960 E0.0450
G1 X141.121 Y170.315 E0.0634
G1 X140.309 Y169.758 E0.0491
G1 X139.092 Y168.775 E0.0780
G1 X138.223 Y167.946 E0.0599
G1 X137.743 Y167.428 E0.0352
G1 X136.975 Y166.504 E0.0599
G1 X136.670 Y166.094 E0.0255
G1 X136.305 Y165.562 E0.0322
G1 X135.866 Y164.859 E0.0413
G1 X135.293 Y163.808 E0.0597
G1 X135.018 Y163.228 E0.0320
G1 X134.823 Y162.775 E0.0246
G1 X134.409 Y161.654 E0.0596
G1 X134.050 Y160.404 E0.0649
G1 X133.895 Y159.717 E0.0351
G1 X133.762 Y158.960 E0.0383
G1 X133.680 Y158.333 E0.0315
G1 X133.618 Y157.631 E0.0352
G1 X133.576 Y156.518 E0.0556
G1 X133.577 Y126.966 E1.4744
G1 X133.619 Y126.446 E0.0260
G1 X133.714 Y126.001 E0.0227
G1 X133.889 Y125.508 E0.0261
G1 X134.168 Y124.989 E0.0294
G1 X134.421 Y124.651 E0.0211
G0 F2400 X134.480 Y124.571
M204 S1300.00
G0 F7200 X134.753 Y124.837
G0 F7200 X134.824 Y124.906
M204 S1250.00
G1 F2400 X135.142 Y124.580 E0.0227
G1 X135.502 Y124.302 E0.0227
G1 X135.898 Y124.077 E0.0227
G1 X136.321 Y123.910 E0.0227
G1 X136.764 Y123.804 E0.0227
G1 X137.296 Y123.760 E0.0266
G1 X162.704 Y123.760 E1.2676
G1 X163.158 Y123.792 E0.0227
G1 X163.603 Y123.887 E0.0227
G1 X164.030 Y124.044 E0.0227
G1 X164.431 Y124.259 E0.0227
G1 X164.798 Y124.528 E0.0227
G1 X165.124 Y124.846 E0.0227
G1 X165.402 Y125.206 E0.0227
G1 X165.627 Y125.602 E0.0227
G1 X165.794 Y126.025 E0.0227
G1 X165.900 Y126.468 E0.0227
G1 X165.944 Y127.000 E0.0266
G1 X165.940 Y156.909 E1.4922
G1 X165.883 Y157.860 E0.0475
G1 X165.730 Y159.088 E0.0617
G1 X165.540 Y160.055 E0.0492
G1 X165.375 Y160.716 E0.0340
G1 X164.937 Y162.069 E0.0710
G1 X164.459 Y163.214 E0.0619
G1 X163.896 Y164.312 E0.0616
G1 X163.387 Y165.155 E0.0491
G1 X162.522 Y166.366 E0.0742
G1 X161.719 Y167.307 E0.0617
G1 X160.848 Y168.180 E0.0615
G1 X159.962 Y168.947 E0.0585
G1 X159.419 Y169.362 E0.0341
G1 X158.393 Y170.054 E0.0617
G1 X157.540 Y170.546 E0.0491
G1 X156.937 Y170.855 E0.0338
G1 X156.369 Y171.115 E0.0312
G1 X155.681 Y171.397 E0.0371
G1 X155.043 Y171.623 E0.0338
G1 X154.099 Y171.906 E0.0492
G1 X153.434 Y172.068 E0.0341
G1 X152.832 Y172.189 E0.0306
G1 X152.220 Y172.287 E0.0309
G1 X151.055 Y172.407 E0.0584
G1 X150.798 Y172.421 E0.0128
G1 X149.569 Y172.435 E0.0613
G1 X148.586 Y172.379 E0.0491
G1 X147.353 Y172.220 E0.0620
G1 X145.901 Y171.906 E0.0741
G1 X144.957 Y171.623 E0.0492
G1 X144.319 Y171.397 E0.0338
G1 X143.237 Y170.936 E0.0587
G1 X142.460 Y170.546 E0.0434
G1 X141.393 Y169.919 E0.0617
G1 X140.581 Y169.362 E0.0491
G1 X139.423 Y168.427 E0.0743
G1 X138.575 Y167.619 E0.0584
G1 X138.112 Y167.121 E0.0339
G1 X137.360 Y166.217 E0.0587
G1 X137.066 Y165.822 E0.0246
G1 X136.712 Y165.307 E0.0312
G1 X136.287 Y164.629 E0.0399
G1 X135.727 Y163.602 E0.0584
G1 X135.459 Y163.038 E0.0312
G1 X135.264 Y162.585 E0.0246
G1 X134.859 Y161.488 E0.0583
G1 X134.518 Y160.298 E0.0618
G1 X134.368 Y159.634 E0.0340
G1 X134.238 Y158.897 E0.0373
G1 X134.158 Y158.291 E0.0305
G1 X134.098 Y157.613 E0.0340
G1 X134.056 Y156.500 E0.0556
G1 X134.056 Y127.000 E1.4718
G1 X134.088 Y126.546 E0.0227
G1 X134.183 Y126.101 E0.0227
G1 X134.340 Y125.674 E0.0227
G1 X134.555 Y125.273 E0.0227
G1 X134.765 Y124.986 E0.0177
G0 F2400 X134.824 Y124.906
;PRINTING: Arm 03.stl
;PRINTING_ID: 0
G1 F2400 E-1.0000
M204 S1300.00
G0 F7200 X141.425 Y164.787
G0 F7200 X141.441 Y164.885
M204 S1000.00
M205 X6.00 Y6.00
;TYPE:WALL-INNER
;WIDTH:0.480
G1 F2400 E0.9700
G1 F2400 X141.127 Y164.553 E0.0228
G1 X140.530 Y163.843 E0.0463
G1 X139.989 Y163.084 E0.0465
G1 X139.740 Y162.692 E0.0232
G1 X139.287 Y161.870 E0.0468
G1 X138.911 Y161.040 E0.0455
G1 X138.586 Y160.150 E0.0473
G1 X138.340 Y159.264 E0.0459
G1 X138.161 Y158.357 E0.0461
G1 X138.053 Y157.429 E0.0466
G1 X138.016 Y156.491 E0.0468
G1 X138.016 Y127.720 E1.4354
G1 X161.984 Y127.720 E1.1958
G1 X161.984 Y156.715 E1.4466
G1 X161.947 Y157.422 E0.0353
G1 X161.840 Y158.347 E0.0465
G1 X161.661 Y159.264 E0.0466
G1 X161.548 Y159.700 E0.0225
G1 X161.259 Y160.602 E0.0473
G1 X160.908 Y161.461 E0.0463
G1 X160.490 Y162.290 E0.0463
G1 X160.013 Y163.081 E0.0461
G1 X159.477 Y163.834 E0.0461
G1 X158.871 Y164.555 E0.0470
G1 X158.229 Y165.210 E0.0458
G1 X157.517 Y165.832 E0.0472
G1 X157.161 Y166.108 E0.0225
G1 X156.389 Y166.638 E0.0467
G1 X155.576 Y167.106 E0.0468
G1 X154.738 Y167.506 E0.0463
G1 X153.882 Y167.836 E0.0458
G1 X152.991 Y168.104 E0.0464
G1 X152.082 Y168.301 E0.0464
G1 X151.634 Y168.371 E0.0226
G1 X150.696 Y168.462 E0.0470
G1 X149.772 Y168.480 E0.0461
G1 X148.838 Y168.426 E0.0467
G1 X147.920 Y168.301 E0.0462
G1 X147.007 Y168.103 E0.0466
G1 X146.118 Y167.836 E0.0463
G1 X145.683 Y167.679 E0.0231
G1 X144.826 Y167.309 E0.0466
G1 X144.428 Y167.108 E0.0222
G1 X143.611 Y166.638 E0.0470
G1 X142.846 Y166.113 E0.0463
G1 X142.123 Y165.529 E0.0464
G1 X141.513 Y164.953 E0.0419
G0 F2400 X141.441 Y164.885
G1 F2400 E-1.0000
M204 S1300.00
M205 X7.00 Y7.00
G0 F7200 X141.171 Y165.155
G0 F7200 X141.101 Y165.225
M204 S1000.00
M205 X6.00 Y6.00
;TYPE:WALL-OUTER
;WIDTH:0.480
G1 F2400 E0.9700
G1 F2400 X140.768 Y164.872 E0.0242
G1 X140.150 Y164.137 E0.0479
G1 X139.590 Y163.352 E0.0481
G1 X139.327 Y162.936 E0.0246
G1 X138.858 Y162.085 E0.0485
G1 X138.466 Y161.222 E0.0473
G1 X138.129 Y160.297 E0.0491
G1 X137.874 Y159.379 E0.0475
G1 X137.770 Y158.898 E0.0246
G1 X137.687 Y158.431 E0.0237
G1 X137.621 Y157.943 E0.0246
G1 X137.574 Y157.462 E0.0241
G1 X137.536 Y156.500 E0.0480
G1 X137.536 Y127.240 E1.4598
G1 X162.464 Y127.240 E1.2437
G1 X162.464 Y156.727 E1.4711
G1 X162.426 Y157.462 E0.0367
G1 X162.315 Y158.421 E0.0482
G1 X162.129 Y159.370 E0.0482
G1 X162.009 Y159.834 E0.0239
G1 X161.710 Y160.766 E0.0488
G1 X161.345 Y161.660 E0.0482
G1 X160.911 Y162.522 E0.0481
G1 X160.415 Y163.345 E0.0479
G1 X159.857 Y164.128 E0.0480
G1 X159.227 Y164.878 E0.0489
G1 X158.559 Y165.559 E0.0476
G1 X157.822 Y166.203 E0.0488
G1 X157.444 Y166.496 E0.0239
G1 X156.645 Y167.044 E0.0483
G1 X155.800 Y167.531 E0.0487
G1 X154.933 Y167.945 E0.0479
G1 X154.494 Y168.125 E0.0237
G1 X154.033 Y168.292 E0.0245
G1 X153.111 Y168.569 E0.0480
G1 X152.170 Y168.773 E0.0480
G1 X151.694 Y168.847 E0.0240
G1 X150.724 Y168.942 E0.0486
G1 X149.763 Y168.960 E0.0480
G1 X148.792 Y168.904 E0.0485
G1 X147.837 Y168.774 E0.0481
G1 X146.887 Y168.568 E0.0485
G1 X145.967 Y168.292 E0.0479
G1 X145.506 Y168.125 E0.0245
G1 X144.623 Y167.744 E0.0480
G1 X144.200 Y167.531 E0.0236
G1 X143.355 Y167.044 E0.0487
G1 X142.559 Y166.498 E0.0482
G1 X141.807 Y165.891 E0.0482
G1 X141.173 Y165.293 E0.0435
G0 F2400 X141.101 Y165.225
M204 S1300.00
M205 X7.00 Y7.00
G0 F1200 X141.032 Y165.152
G0 F1200 X140.964 Y165.080
G1 F2400 E-1.0000
G0 F7200 X141.037 Y165.013
G0 X144.797 Y160.147
G0 F7200 X144.858 Y160.068
M204 S1000.00
M205 X6.00 Y6.00
;TYPE:WALL-INNER
;WIDTH:0.480
G1 F2400 E0.9700
G1 F2400 X145.183 Y160.378 E0.0224
G1 X145.525 Y160.666 E0.0223
G1 X145.885 Y160.932 E0.0223
G1 X146.261 Y161.177 E0.0224
G1 X146.653 Y161.397 E0.0224
G1 X147.092 Y161.607 E0.0243
G1 X147.468 Y161.762 E0.0203
G1 X147.892 Y161.906 E0.0223
G1 X148.365 Y162.032 E0.0244
G1 X148.763 Y162.113 E0.0203
G1 X149.207 Y162.177 E0.0224
G1 X149.653 Y162.212 E0.0223
G1 X150.101 Y162.220 E0.0224
G1 X150.589 Y162.196 E0.0244
G1 X150.995 Y162.152 E0.0204
G1 X151.477 Y162.068 E0.0244
G1 X151.914 Y161.962 E0.0224
G1 X152.340 Y161.830 E0.0223
G1 X152.760 Y161.673 E0.0224
G1 X153.167 Y161.488 E0.0223
G1 X153.572 Y161.275 E0.0228
G1 X154.272 Y160.822 E0.0416
G1 X154.664 Y160.512 E0.0249
G1 X154.996 Y160.212 E0.0223
G1 X155.281 Y159.923 E0.0202
G1 X155.603 Y159.555 E0.0244
G1 X155.874 Y159.198 E0.0224
G1 X156.124 Y158.826 E0.0224
G1 X156.350 Y158.437 E0.0224
G1 X156.550 Y158.038 E0.0223
G1 X156.725 Y157.626 E0.0223
G1 X156.875 Y157.205 E0.0223
G1 X157.000 Y156.774 E0.0224
G1 X157.095 Y156.336 E0.0224
G1 X157.165 Y155.895 E0.0223
G1 X157.206 Y155.445 E0.0225
G1 X157.218 Y154.959 E0.0243
G1 X157.207 Y154.554 E0.0202
G1 X157.166 Y154.104 E0.0225
G1 X157.096 Y153.662 E0.0223
G1 X156.999 Y153.221 E0.0225
G1 X156.861 Y152.753 E0.0243
G1 X156.724 Y152.371 E0.0202
G1 X156.548 Y151.957 E0.0224
G1 X156.326 Y151.521 E0.0244
G1 X156.120 Y151.168 E0.0204
G1 X155.870 Y150.796 E0.0224
G1 X155.598 Y150.440 E0.0224
G1 X155.303 Y150.100 E0.0225
G1 X154.960 Y149.753 E0.0243
G1 X154.654 Y149.480 E0.0205
G1 X154.269 Y149.178 E0.0244
G1 X153.936 Y148.947 E0.0202
G1 X153.550 Y148.713 E0.0225
G1 X153.117 Y148.489 E0.0243
G1 X152.745 Y148.322 E0.0203
G1 X152.324 Y148.164 E0.0224
G1 X151.857 Y148.023 E0.0243
G1 X151.458 Y147.929 E0.0205
G1 X151.015 Y147.852 E0.0224
G1 X150.529 Y147.801 E0.0244
G1 X150.083 Y147.781 E0.0223
G1 X149.675 Y147.786 E0.0204
G1 X149.185 Y147.826 E0.0245
G1 X148.782 Y147.883 E0.0203
G1 X148.342 Y147.972 E0.0224
G1 X147.871 Y148.101 E0.0244
G1 X147.483 Y148.231 E0.0204
G1 X147.031 Y148.419 E0.0244
G1 X146.665 Y148.596 E0.0203
G1 X146.274 Y148.815 E0.0224
G1 X145.861 Y149.083 E0.0246
G1 X145.503 Y149.352 E0.0223
G1 X145.191 Y149.615 E0.0204
G1 X144.837 Y149.953 E0.0244
G1 X144.562 Y150.251 E0.0202
G1 X144.278 Y150.597 E0.0223
G1 X144.015 Y150.962 E0.0224
G1 X143.776 Y151.342 E0.0224
G1 X143.541 Y151.773 E0.0245
G1 X143.353 Y152.182 E0.0225
G1 X143.206 Y152.559 E0.0202
G1 X143.067 Y152.985 E0.0224
G1 X142.955 Y153.421 E0.0225
G1 X142.864 Y153.902 E0.0244
G1 X142.810 Y154.348 E0.0224
G1 X142.784 Y154.754 E0.0203
G1 X142.782 Y155.202 E0.0224
G1 X142.812 Y155.689 E0.0243
G1 X142.863 Y156.095 E0.0204
G1 X142.953 Y156.575 E0.0244
G1 X143.053 Y156.970 E0.0203
G1 X143.189 Y157.396 E0.0223
G1 X143.366 Y157.852 E0.0244
G1 X143.558 Y158.258 E0.0224
G1 X143.770 Y158.650 E0.0222
G1 X144.009 Y159.031 E0.0224
G1 X144.271 Y159.393 E0.0223
G1 X144.527 Y159.709 E0.0203
G1 X144.791 Y159.995 E0.0194
G0 F2400 X144.858 Y160.068
G1 F2400 E-1.0000
M204 S1300.00
M205 X7.00 Y7.00
G0 F7200 X145.129 Y159.801
G0 F7200 X145.200 Y159.731
M204 S1000.00
M205 X6.00 Y6.00
;TYPE:WALL-OUTER
;WIDTH:0.480
G1 F2400 E0.9700
G1 F2400 X145.503 Y160.020 E0.0209
G1 X145.823 Y160.289 E0.0209
G1 X146.159 Y160.538 E0.0209
G1 X146.510 Y160.766 E0.0209
G1 X146.874 Y160.971 E0.0208
G1 X147.287 Y161.168 E0.0228
G1 X147.637 Y161.312 E0.0189
G1 X148.032 Y161.446 E0.0208
G1 X148.475 Y161.565 E0.0229
G1 X148.845 Y161.640 E0.0188
G1 X149.260 Y161.700 E0.0209
G1 X149.676 Y161.732 E0.0208
G1 X150.094 Y161.740 E0.0209
G1 X150.551 Y161.717 E0.0228
G1 X150.928 Y161.676 E0.0189
G1 X151.379 Y161.598 E0.0228
G1 X151.786 Y161.499 E0.0209
G1 X152.185 Y161.376 E0.0208
G1 X152.576 Y161.229 E0.0208
