;Sliced by ideaMaker 4.2.3.5600, 2022-10-10 17:11:27 UTC+0200
;Dimension: 300.000 300.000 400.000 0.400
;Plate Shape: 0
;Origin Center: 0
;Extruder Offset #1: 25.000 0.000
;Filament Diameter #1: 1.750
;Filament Diameter #2: 1.750
;Filament Compensation #1: 100.00
;Filament Compensation #2: 90.00
;Filament Density #1: 1240.00
;Filament Density #2: 1240.00
;Filament Type #1: Sunlu
;Filament Type #2: 
;Filament Name #1: Sunlu Grey PLA
;Filament Name #2: 
;Firmware: Marlin
;Bounding Box: 121.295 178.710 132.486 167.513 0.000 4.050
;Model Gap: 0.000
M92 E415.00000
M221 T0 S100.00
M140 S60.00
M104 T0 S210.00
M109 T0 S210.00
T0
M190 S60.00
M107
G28 ; home all axes
G29 ; Autoleveling processing ; à commenter si M420 actif
;M420 S1 Z10 ; Autolevel enable ; à commenter si G29 actif
;vous avez 2 choix, soit activer le G29 pour faire un autoleveling du plateau avant chaque impression
;C'est la méthode recvommandé par ARtillery3Dexpert.fr
;soit activer la ligne qui commance par M420 pour faire un rappel de la derniere mesure du plateau
;pour gagner du temp ( non recommandé par artillery3Dexpert.fr )
M500 ; sauvegarde eeprom
M117 Purge extruder
G92 E0 ; reset extruder
G1 Z1.0 F3000 ; move z up little to prevent scratching of surface
G1 X2 Y20 Z0.3 F5000.0 ; move to start-line position
G1 X2 Y200.0 Z0.3 F1500.0 E15 ; draw 1st line
G1 X2 Y200.0 Z0.4 F5000.0 ; move to side a little
G1 X2 Y20 Z0.4 F1500.0 E30 ; draw 2nd line
G92 E0 ; reset extruder
G1 Z1.0 F3000 ; move z up little to prevent scratching of surface
;TOTAL_NUM: 1
;PRINTING_TIME: 0
;REMAINING_TIME: 745
M83
;LAYER:0
;Z:0.250
;HEIGHT:0.250
M106 S0
;PRINTING: NON-OBJECT
;PRINTING_ID: -1
G1 F2400 E-1.0000
M204 S1300.00
M205 X7.00 Y7.00
G0 F7200 X123.869 Y138.658
G0 F900 Z0.250
G0 F7200 X123.935 Y138.732
M204 S1250.00
;TYPE:SKIRT
;WIDTH:0.480
G1 F2400 E0.9700
G1 F2400 X124.387 Y138.347 E0.0296
G1 X124.661 Y138.138 E0.0172
G1 X125.337 Y137.694 E0.0403
G1 X125.957 Y137.365 E0.0350
G1 X126.492 Y137.133 E0.0291
G1 X126.836 Y137.007 E0.0183
G1 X127.421 Y136.830 E0.0305
G1 X128.020 Y136.699 E0.0306
G1 X128.637 Y136.612 E0.0311
G1 X129.426 Y136.567 E0.0394
G1 X130.105 Y136.588 E0.0339
G1 X130.439 Y136.620 E0.0167
G1 X147.100 Y138.812 E0.8384
G1 X147.819 Y137.928 E0.0568
G1 X148.180 Y137.537 E0.0265
G1 X148.699 Y137.019 E0.0366
G1 X149.309 Y136.460 E0.0413
G1 X149.703 Y136.131 E0.0256
G1 X150.263 Y135.697 E0.0353
G1 X150.948 Y135.215 E0.0418
G1 X151.529 Y134.847 E0.0343
G1 X152.006 Y134.568 E0.0276
G1 X152.728 Y134.185 E0.0408
G1 X153.364 Y133.887 E0.0350
G1 X153.836 Y133.686 E0.0256
G1 X154.659 Y133.377 E0.0439
G1 X155.297 Y133.172 E0.0334
G1 X155.848 Y133.018 E0.0285
G1 X156.651 Y132.829 E0.0412
G1 X157.194 Y132.724 E0.0276
G1 X157.840 Y132.626 E0.0326
G1 X158.712 Y132.535 E0.0437
G1 X159.401 Y132.496 E0.0344
G1 X159.972 Y132.486 E0.0285
G1 X160.628 Y132.499 E0.0327
G1 X161.494 Y132.557 E0.0433
G1 X162.192 Y132.637 E0.0351
G1 X162.877 Y132.746 E0.0346
G1 X163.540 Y132.880 E0.0337
G1 X164.040 Y133.000 E0.0257
G1 X164.867 Y133.237 E0.0429
G1 X165.522 Y133.459 E0.0345
G1 X166.190 Y133.718 E0.0357
G1 X166.821 Y133.994 E0.0344
G1 X167.402 Y134.277 E0.0322
G1 X168.032 Y134.618 E0.0357
G1 X168.713 Y135.030 E0.0397
G1 X169.604 Y135.638 E0.0538
G1 X170.161 Y136.062 E0.0349
G1 X170.832 Y136.629 E0.0438
G1 X171.225 Y136.993 E0.0267
G1 X171.842 Y137.618 E0.0438
G1 X172.593 Y138.476 E0.0569
G1 X173.161 Y139.209 E0.0463
G1 X173.545 Y139.763 E0.0336
G1 X173.916 Y140.348 E0.0346
G1 X174.258 Y140.943 E0.0342
G1 X174.559 Y141.518 E0.0324
G1 X174.875 Y142.189 E0.0370
G1 X175.141 Y142.830 E0.0346
G1 X175.384 Y143.490 E0.0351
G1 X175.590 Y144.131 E0.0336
G1 X175.773 Y144.797 E0.0345
G1 X175.929 Y145.478 E0.0349
G1 X176.086 Y146.392 E0.0463
G1 X176.316 Y146.526 E0.0133
G1 X176.923 Y146.940 E0.0367
G1 X177.380 Y147.311 E0.0294
G1 X177.782 Y147.744 E0.0295
G1 X178.117 Y148.225 E0.0292
G1 X178.355 Y148.686 E0.0259
G1 X178.535 Y149.177 E0.0261
G1 X178.663 Y149.750 E0.0293
G1 X178.710 Y150.472 E0.0361
G1 X178.676 Y150.929 E0.0229
G1 X178.581 Y151.617 E0.0347
G1 X178.454 Y152.193 E0.0294
G1 X178.274 Y152.684 E0.0261
G1 X177.999 Y153.206 E0.0294
G1 X177.763 Y153.533 E0.0201
G1 X177.800 Y154.035 E0.0251
G1 X177.765 Y154.627 E0.0296
G1 X177.633 Y155.262 E0.0324
G1 X177.504 Y155.637 E0.0198
G1 X177.217 Y156.330 E0.0374
G1 X177.014 Y156.737 E0.0227
G1 X176.689 Y157.225 E0.0293
G1 X176.244 Y157.716 E0.0331
G1 X175.926 Y157.975 E0.0205
G1 X175.820 Y158.521 E0.0277
G1 X175.627 Y159.076 E0.0293
G1 X175.360 Y159.600 E0.0293
G1 X175.110 Y159.971 E0.0223
G1 X174.696 Y160.509 E0.0339
G1 X174.372 Y160.876 E0.0244
G1 X173.933 Y161.262 E0.0292
G1 X173.376 Y161.622 E0.0331
G1 X173.000 Y161.791 E0.0206
G1 X172.718 Y162.355 E0.0315
G1 X172.333 Y162.893 E0.0330
G1 X171.921 Y163.317 E0.0295
G1 X171.166 Y163.913 E0.0480
G1 X170.692 Y164.224 E0.0283
G1 X170.159 Y164.477 E0.0294
G1 X169.593 Y164.653 E0.0296
G1 X169.192 Y164.719 E0.0203
G1 X168.857 Y165.105 E0.0255
G1 X168.358 Y165.541 E0.0331
G1 X167.873 Y165.851 E0.0287
G1 X167.494 Y166.035 E0.0210
G1 X166.892 Y166.285 E0.0325
G1 X166.264 Y166.488 E0.0329
G1 X165.749 Y166.579 E0.0261
G1 X165.159 Y166.603 E0.0295
G1 X164.749 Y166.561 E0.0206
G1 X164.280 Y166.876 E0.0282
G1 X163.753 Y167.131 E0.0292
G1 X163.192 Y167.311 E0.0294
G1 X162.736 Y167.399 E0.0232
G1 X162.051 Y167.486 E0.0344
G1 X161.597 Y167.513 E0.0227
G1 X161.013 Y167.475 E0.0292
G1 X160.368 Y167.335 E0.0329
G1 X159.984 Y167.191 E0.0205
G1 X159.439 Y167.376 E0.0287
G1 X158.926 Y167.477 E0.0261
G1 X158.282 Y167.513 E0.0322
G1 X157.858 Y167.483 E0.0212
G1 X157.212 Y167.399 E0.0325
G1 X156.631 Y167.278 E0.0296
G1 X156.015 Y167.054 E0.0327
G1 X155.552 Y166.806 E0.0262
G1 X155.221 Y166.564 E0.0205
G1 X154.586 Y166.602 E0.0317
G1 X153.928 Y166.538 E0.0330
G1 X153.353 Y166.393 E0.0296
G1 X152.495 Y166.052 E0.0461
G1 X151.952 Y165.779 E0.0303
G1 X151.467 Y165.443 E0.0294
G1 X151.033 Y165.043 E0.0294
G1 X150.776 Y164.728 E0.0203
G1 X150.231 Y164.623 E0.0277
G1 X149.676 Y164.430 E0.0293
G1 X149.152 Y164.163 E0.0293
G1 X148.763 Y163.899 E0.0235
G1 X148.242 Y163.497 E0.0328
G1 X147.876 Y163.174 E0.0244
G1 X147.490 Y162.736 E0.0291
G1 X147.130 Y162.179 E0.0331
G1 X146.961 Y161.803 E0.0206
G1 X146.335 Y161.483 E0.0351
G1 X145.859 Y161.136 E0.0294
G1 X145.434 Y160.724 E0.0295
G1 X144.836 Y159.967 E0.0481
G1 X144.495 Y159.433 E0.0316
G1 X144.251 Y158.899 E0.0293
G1 X144.100 Y158.398 E0.0261
G1 X144.035 Y157.994 E0.0204
G1 X143.512 Y157.522 E0.0351
G1 X143.141 Y157.062 E0.0295
G1 X142.837 Y156.553 E0.0296
G1 X142.457 Y155.669 E0.0480
G1 X142.298 Y155.200 E0.0247
G1 X142.199 Y154.709 E0.0250
G1 X128.393 Y152.890 E0.6947
G1 X127.629 Y152.749 E0.0388
G1 X127.043 Y152.590 E0.0303
G1 X126.499 Y152.398 E0.0288
G1 X125.960 Y152.164 E0.0293
G1 X125.374 Y151.855 E0.0331
G1 X125.056 Y151.661 E0.0186
G1 X124.423 Y151.210 E0.0388
G1 X123.887 Y150.751 E0.0352
G1 X123.634 Y150.501 E0.0177
G1 X123.117 Y149.921 E0.0388
G1 X122.695 Y149.356 E0.0352
G1 X122.499 Y149.048 E0.0182
G1 X122.114 Y148.346 E0.0399
G1 X121.849 Y147.743 E0.0329
G1 X121.720 Y147.386 E0.0189
G1 X121.504 Y146.629 E0.0393
G1 X121.418 Y146.210 E0.0213
G1 X121.335 Y145.632 E0.0291
G1 X121.295 Y145.074 E0.0279
G1 X121.308 Y144.220 E0.0426
G1 X121.388 Y143.496 E0.0363
G1 X121.499 Y142.919 E0.0293
G1 X121.569 Y142.639 E0.0144
G1 X121.848 Y141.791 E0.0445
G1 X122.081 Y141.249 E0.0294
G1 X122.397 Y140.649 E0.0338
G1 X122.575 Y140.357 E0.0171
G1 X122.901 Y139.883 E0.0287
G1 X123.331 Y139.352 E0.0341
G1 X123.866 Y138.803 E0.0382
G0 F2400 X123.935 Y138.732
M204 S1300.00
G0 F7200 X124.182 Y139.021
G0 F7200 X124.247 Y139.097
M204 S1250.00
G1 F2400 X124.678 Y138.729 E0.0283
G1 X124.952 Y138.520 E0.0172
G1 X125.600 Y138.096 E0.0386
G1 X126.149 Y137.805 E0.0310
G1 X126.658 Y137.583 E0.0277
G1 X126.976 Y137.466 E0.0169
G1 X127.525 Y137.299 E0.0286
G1 X128.088 Y137.174 E0.0288
G1 X128.664 Y137.091 E0.0290
G1 X129.453 Y137.046 E0.0394
G1 X130.060 Y137.066 E0.0303
G1 X130.376 Y137.096 E0.0158
G1 X147.304 Y139.323 E0.8518
G1 X148.172 Y138.254 E0.0687
G1 X148.533 Y137.863 E0.0265
G1 X149.023 Y137.373 E0.0346
G1 X149.618 Y136.828 E0.0403
G1 X149.997 Y136.510 E0.0247
G1 X150.540 Y136.089 E0.0343
G1 X151.205 Y135.620 E0.0406
G1 X151.771 Y135.261 E0.0334
G1 X152.231 Y134.992 E0.0266
G1 X152.953 Y134.609 E0.0408
G1 X153.552 Y134.329 E0.0330
G1 X154.024 Y134.128 E0.0256
G1 X154.806 Y133.834 E0.0417
G1 X155.444 Y133.629 E0.0334
G1 X155.958 Y133.485 E0.0266
G1 X156.742 Y133.300 E0.0402
G1 X157.266 Y133.199 E0.0266
G1 X157.912 Y133.101 E0.0326
G1 X158.739 Y133.014 E0.0415
G1 X159.410 Y132.976 E0.0335
G1 X159.962 Y132.966 E0.0275
G1 X160.618 Y132.979 E0.0327
G1 X161.440 Y133.034 E0.0411
G1 X162.117 Y133.111 E0.0340
G1 X162.782 Y133.216 E0.0336
G1 X163.428 Y133.347 E0.0329
G1 X163.928 Y133.467 E0.0257
G1 X164.713 Y133.692 E0.0407
G1 X165.349 Y133.907 E0.0335
G1 X165.998 Y134.158 E0.0347
G1 X166.611 Y134.426 E0.0334
G1 X167.192 Y134.709 E0.0322
G1 X167.803 Y135.040 E0.0347
G1 X168.443 Y135.427 E0.0373
G1 X169.313 Y136.020 E0.0525
G1 X169.870 Y136.444 E0.0349
G1 X170.506 Y136.982 E0.0416
G1 X170.883 Y137.330 E0.0256
G1 X171.500 Y137.955 E0.0438
G1 X172.214 Y138.770 E0.0541
G1 X172.767 Y139.483 E0.0450
G1 X173.140 Y140.020 E0.0326
G1 X173.500 Y140.587 E0.0335
G1 X173.833 Y141.166 E0.0333
G1 X174.134 Y141.741 E0.0324
G1 X174.432 Y142.374 E0.0349
G1 X174.691 Y142.996 E0.0336
G1 X174.927 Y143.637 E0.0341
G1 X175.127 Y144.258 E0.0325
G1 X175.305 Y144.905 E0.0335
G1 X175.457 Y145.565 E0.0338
G1 X175.578 Y146.222 E0.0333
G1 X175.644 Y146.691 E0.0236
G1 X176.046 Y146.923 E0.0232
G1 X176.623 Y147.315 E0.0348
G1 X177.031 Y147.641 E0.0261
G1 X177.390 Y148.021 E0.0261
G1 X177.692 Y148.448 E0.0261
G1 X177.904 Y148.851 E0.0227
G1 X178.084 Y149.342 E0.0261
G1 X178.194 Y149.851 E0.0260
G1 X178.231 Y150.437 E0.0293
G1 X178.200 Y150.865 E0.0214
G1 X178.112 Y151.517 E0.0328
G1 X178.003 Y152.028 E0.0261
G1 X177.823 Y152.519 E0.0261
G1 X177.576 Y152.979 E0.0260
G1 X177.256 Y153.411 E0.0268
G1 X177.284 Y153.557 E0.0074
G1 X177.321 Y154.011 E0.0227
G1 X177.295 Y154.532 E0.0260
G1 X177.179 Y155.106 E0.0292
G1 X177.050 Y155.481 E0.0198
G1 X176.787 Y156.116 E0.0343
G1 X176.584 Y156.523 E0.0227
G1 X176.291 Y156.956 E0.0261
G1 X175.891 Y157.391 E0.0295
G1 X175.465 Y157.728 E0.0271
G1 X175.444 Y157.977 E0.0125
G1 X175.350 Y158.422 E0.0227
G1 X175.175 Y158.915 E0.0261
G1 X174.934 Y159.379 E0.0261
G1 X174.729 Y159.679 E0.0181
G1 X174.336 Y160.191 E0.0322
G1 X174.012 Y160.558 E0.0244
G1 X173.618 Y160.900 E0.0260
G1 X173.119 Y161.216 E0.0295
G1 X172.620 Y161.432 E0.0271
G1 X172.532 Y161.674 E0.0128
G1 X172.325 Y162.079 E0.0227
G1 X171.986 Y162.561 E0.0294
G1 X171.623 Y162.941 E0.0262
G1 X170.899 Y163.514 E0.0461
G1 X170.486 Y163.790 E0.0248
G1 X169.953 Y164.043 E0.0294
G1 X169.454 Y164.194 E0.0260
G1 X168.917 Y164.274 E0.0271
G1 X168.833 Y164.399 E0.0075
G1 X168.538 Y164.746 E0.0227
G1 X168.097 Y165.138 E0.0294
G1 X167.663 Y165.419 E0.0258
G1 X167.284 Y165.603 E0.0210
G1 X166.708 Y165.842 E0.0311
G1 X166.180 Y166.015 E0.0277
G1 X165.665 Y166.106 E0.0261
G1 X165.143 Y166.123 E0.0261
G1 X164.599 Y166.060 E0.0273
G1 X164.401 Y166.226 E0.0129
G1 X164.019 Y166.473 E0.0227
G1 X163.547 Y166.697 E0.0261
G1 X163.049 Y166.853 E0.0260
G1 X162.675 Y166.923 E0.0190
G1 X162.023 Y167.007 E0.0328
G1 X161.569 Y167.034 E0.0227
G1 X161.048 Y166.996 E0.0261
G1 X160.473 Y166.867 E0.0294
G1 X159.972 Y166.670 E0.0269
G1 X159.839 Y166.734 E0.0074
G1 X159.346 Y166.905 E0.0260
G1 X158.833 Y167.006 E0.0261
G1 X158.316 Y167.034 E0.0258
G1 X157.892 Y167.004 E0.0212
G1 X157.274 Y166.923 E0.0311
G1 X156.730 Y166.808 E0.0277
G1 X156.238 Y166.629 E0.0261
G1 X155.835 Y166.418 E0.0227
G1 X155.339 Y166.056 E0.0306
G1 X155.082 Y166.101 E0.0130
G1 X154.628 Y166.124 E0.0227
G1 X154.042 Y166.072 E0.0294
G1 X153.530 Y165.947 E0.0263
G1 X152.672 Y165.606 E0.0461
G1 X152.169 Y165.351 E0.0281
G1 X151.743 Y165.051 E0.0260
G1 X151.362 Y164.693 E0.0261
G1 X151.024 Y164.268 E0.0271
G1 X150.775 Y164.247 E0.0125
G1 X150.330 Y164.153 E0.0227
G1 X149.837 Y163.978 E0.0261
G1 X149.373 Y163.737 E0.0261
G1 X149.056 Y163.519 E0.0192
G1 X148.535 Y163.117 E0.0328
G1 X148.194 Y162.815 E0.0227
G1 X147.852 Y162.421 E0.0260
G1 X147.536 Y161.922 E0.0295
G1 X147.320 Y161.423 E0.0271
G1 X147.078 Y161.335 E0.0128
G1 X146.615 Y161.093 E0.0261
G1 X146.191 Y160.789 E0.0260
G1 X145.811 Y160.426 E0.0262
G1 X145.213 Y159.669 E0.0481
G1 X144.930 Y159.231 E0.0260
G1 X144.709 Y158.756 E0.0261
G1 X144.574 Y158.322 E0.0227
G1 X144.477 Y157.718 E0.0305
G1 X144.267 Y157.570 E0.0128
G1 X143.883 Y157.217 E0.0260
G1 X143.551 Y156.813 E0.0261
G1 X143.278 Y156.363 E0.0263
G1 X142.912 Y155.515 E0.0461
G1 X142.753 Y155.046 E0.0247
G1 X142.654 Y154.533 E0.0261
G1 X142.638 Y154.282 E0.0125
G1 X128.479 Y152.418 E0.7125
G1 X127.754 Y152.286 E0.0368
G1 X127.203 Y152.137 E0.0285
G1 X126.659 Y151.945 E0.0288
G1 X126.152 Y151.724 E0.0276
G1 X125.623 Y151.445 E0.0298
G1 X125.335 Y151.270 E0.0168
G1 X124.702 Y150.819 E0.0388
G1 X124.223 Y150.408 E0.0315
G1 X123.992 Y150.182 E0.0161
G1 X123.475 Y149.602 E0.0388
G1 X123.099 Y149.096 E0.0315
G1 X122.919 Y148.816 E0.0166
G1 X122.553 Y148.152 E0.0378
G1 X122.300 Y147.579 E0.0312
G1 X122.182 Y147.254 E0.0172
G1 X121.966 Y146.497 E0.0393
G1 X121.893 Y146.141 E0.0181
G1 X121.814 Y145.598 E0.0274
G1 X121.774 Y145.040 E0.0279
G1 X121.788 Y144.228 E0.0405
G1 X121.859 Y143.587 E0.0322
G1 X121.965 Y143.035 E0.0280
G1 X122.035 Y142.755 E0.0144
G1 X122.289 Y141.981 E0.0406
G1 X122.522 Y141.439 E0.0294
G1 X122.807 Y140.898 E0.0305
G1 X122.971 Y140.628 E0.0158
G1 X123.275 Y140.184 E0.0268
G1 X123.676 Y139.686 E0.0319
G1 X124.178 Y139.168 E0.0360
G0 F2400 X124.247 Y139.097
M204 S1300.00
G0 F7200 X124.495 Y139.386
G0 F7200 X124.560 Y139.461
M204 S1250.00
G1 F2400 X124.969 Y139.110 E0.0269
G1 X125.215 Y138.922 E0.0154
G1 X125.863 Y138.498 E0.0386
G1 X126.341 Y138.245 E0.0270
G1 X126.826 Y138.033 E0.0264
G1 X127.116 Y137.925 E0.0154
G1 X127.639 Y137.765 E0.0273
G1 X127.865 Y137.710 E0.0116
G1 X128.158 Y137.649 E0.0149
G1 X128.691 Y137.570 E0.0269
G1 X129.480 Y137.525 E0.0394
G1 X130.015 Y137.544 E0.0267
G1 X130.313 Y137.572 E0.0149
G1 X147.523 Y139.836 E0.8660
G1 X147.755 Y139.520 E0.0196
G1 X148.525 Y138.580 E0.0606
G1 X148.886 Y138.189 E0.0265
G1 X149.347 Y137.727 E0.0326
G1 X149.927 Y137.196 E0.0392
G1 X150.306 Y136.878 E0.0247
G1 X150.817 Y136.481 E0.0323
G1 X151.463 Y136.025 E0.0394
G1 X152.013 Y135.675 E0.0325
G1 X152.456 Y135.416 E0.0256
G1 X153.157 Y135.044 E0.0396
G1 X153.740 Y134.771 E0.0321
G1 X154.212 Y134.570 E0.0256
G1 X154.953 Y134.291 E0.0395
G1 X155.574 Y134.091 E0.0325
G1 X156.069 Y133.952 E0.0257
G1 X156.833 Y133.771 E0.0392
G1 X157.338 Y133.674 E0.0257
G1 X157.984 Y133.576 E0.0326
G1 X158.766 Y133.493 E0.0392
G1 X159.419 Y133.456 E0.0326
G1 X159.952 Y133.446 E0.0266
G1 X160.608 Y133.459 E0.0327
G1 X161.386 Y133.511 E0.0389
G1 X162.042 Y133.585 E0.0329
G1 X162.687 Y133.687 E0.0326
G1 X163.316 Y133.814 E0.0320
G1 X163.816 Y133.934 E0.0257
G1 X164.559 Y134.147 E0.0386
G1 X165.195 Y134.362 E0.0335
G1 X165.806 Y134.598 E0.0327
G1 X166.401 Y134.858 E0.0324
G1 X166.982 Y135.141 E0.0322
G1 X167.555 Y135.451 E0.0325
G1 X168.173 Y135.824 E0.0360
G1 X169.022 Y136.402 E0.0512
G1 X169.579 Y136.826 E0.0349
G1 X170.180 Y137.335 E0.0393
G1 X170.557 Y137.683 E0.0256
G1 X171.158 Y138.292 E0.0427
G1 X171.835 Y139.064 E0.0512
G1 X172.373 Y139.757 E0.0438
G1 X172.735 Y140.278 E0.0317
G1 X173.084 Y140.826 E0.0324
G1 X173.408 Y141.389 E0.0324
G1 X173.709 Y141.964 E0.0324
G1 X173.989 Y142.559 E0.0328
G1 X174.241 Y143.162 E0.0326
G1 X174.470 Y143.784 E0.0331
G1 X174.664 Y144.385 E0.0315
G1 X174.837 Y145.013 E0.0325
G1 X174.985 Y145.652 E0.0327
G1 X175.103 Y146.289 E0.0323
G1 X175.202 Y146.990 E0.0353
G1 X175.777 Y147.321 E0.0331
G1 X176.327 Y147.693 E0.0331
G1 X176.685 Y147.974 E0.0227
G1 X177.001 Y148.302 E0.0227
G1 X177.267 Y148.671 E0.0227
G1 X177.479 Y149.074 E0.0227
G1 X177.632 Y149.503 E0.0227
G1 X177.724 Y149.948 E0.0227
G1 X177.752 Y150.403 E0.0227
G1 X177.724 Y150.802 E0.0200
