;Sliced by ideaMaker 4.2.3.5600, 2022-10-10 17:09:47 UTC+0200
;Dimension: 300.000 300.000 400.000 0.400
;Plate Shape: 0
;Origin Center: 0
;Extruder Offset #1: 25.000 0.000
;Filament Diameter #1: 1.750
;Filament Diameter #2: 1.750
;Filament Compensation #1: 100.00
;Filament Compensation #2: 90.00
;Filament Density #1: 1240.00
;Filament Density #2: 1240.00
;Filament Type #1: Sunlu
;Filament Type #2: 
;Filament Name #1: Sunlu Grey PLA
;Filament Name #2: 
;Firmware: Marlin
;Bounding Box: 121.160 178.842 132.486 167.513 0.000 4.050
;Model Gap: 0.000
M92 E415.00000
M221 T0 S100.00
M140 S60.00
M104 T0 S210.00
M109 T0 S210.00
T0
M190 S60.00
M107
G28 ; home all axes
G29 ; Autoleveling processing ; à commenter si M420 actif
;M420 S1 Z10 ; Autolevel enable ; à commenter si G29 actif
;vous avez 2 choix, soit activer le G29 pour faire un autoleveling du plateau avant chaque impression
;C'est la méthode recvommandé par ARtillery3Dexpert.fr
;soit activer la ligne qui commance par M420 pour faire un rappel de la derniere mesure du plateau
;pour gagner du temp ( non recommandé par artillery3Dexpert.fr )
M500 ; sauvegarde eeprom
M117 Purge extruder
G92 E0 ; reset extruder
G1 Z1.0 F3000 ; move z up little to prevent scratching of surface
G1 X2 Y20 Z0.3 F5000.0 ; move to start-line position
G1 X2 Y200.0 Z0.3 F1500.0 E15 ; draw 1st line
G1 X2 Y200.0 Z0.4 F5000.0 ; move to side a little
G1 X2 Y20 Z0.4 F1500.0 E30 ; draw 2nd line
G92 E0 ; reset extruder
G1 Z1.0 F3000 ; move z up little to prevent scratching of surface
;TOTAL_NUM: 1
;PRINTING_TIME: 0
;REMAINING_TIME: 685
M83
;LAYER:0
;Z:0.250
;HEIGHT:0.250
M106 S0
;PRINTING: NON-OBJECT
;PRINTING_ID: -1
G1 F2400 E-1.0000
M204 S1300.00
M205 X7.00 Y7.00
G0 F7200 X128.609 Y136.889
G0 F900 Z0.250
G0 F7200 X128.677 Y136.961
M204 S1250.00
;TYPE:SKIRT
;WIDTH:0.480
G1 F2400 E0.9700
G1 F2400 X129.189 Y136.496 E0.0345
G1 X129.726 Y136.048 E0.0349
G1 X130.248 Y135.649 E0.0328
G1 X130.711 Y135.319 E0.0284
G1 X131.263 Y134.958 E0.0329
G1 X131.902 Y134.580 E0.0370
G1 X132.595 Y134.211 E0.0392
G1 X133.224 Y133.913 E0.0347
G1 X133.908 Y133.625 E0.0370
G1 X134.533 Y133.393 E0.0333
G1 X135.186 Y133.181 E0.0343
G1 X135.878 Y132.989 E0.0358
G1 X136.559 Y132.830 E0.0349
G1 X137.235 Y132.705 E0.0343
G1 X137.915 Y132.608 E0.0343
G1 X138.615 Y132.536 E0.0351
G1 X139.295 Y132.497 E0.0340
G1 X139.845 Y132.486 E0.0274
G1 X140.474 Y132.496 E0.0314
G1 X141.229 Y132.541 E0.0377
G1 X141.903 Y132.610 E0.0338
G1 X142.754 Y132.739 E0.0429
G1 X143.514 Y132.894 E0.0387
G1 X144.751 Y133.226 E0.0639
G1 X145.420 Y133.452 E0.0352
G1 X145.920 Y133.642 E0.0267
G1 X146.704 Y133.977 E0.0425
G1 X147.314 Y134.273 E0.0338
G1 X147.818 Y134.542 E0.0285
G1 X148.514 Y134.952 E0.0403
G1 X148.993 Y135.264 E0.0285
G1 X149.545 Y135.653 E0.0337
G1 X150.218 Y136.176 E0.0425
G1 X150.742 Y136.623 E0.0344
G1 X151.150 Y136.999 E0.0277
G1 X151.725 Y137.577 E0.0407
G1 X152.203 Y138.103 E0.0355
G1 X152.534 Y138.497 E0.0257
G1 X153.049 Y139.168 E0.0422
G1 X153.460 Y139.754 E0.0357
G1 X153.738 Y140.186 E0.0256
G1 X153.963 Y140.578 E0.0225
G1 X170.689 Y140.578 E0.8345
G1 X171.118 Y140.593 E0.0214
G1 X172.028 Y140.697 E0.0457
G1 X172.387 Y140.767 E0.0182
G1 X172.913 Y140.900 E0.0271
G1 X173.764 Y141.197 E0.0450
G1 X174.369 Y141.476 E0.0332
G1 X175.021 Y141.851 E0.0375
G1 X175.548 Y142.212 E0.0319
G1 X175.845 Y142.440 E0.0187
G1 X176.314 Y142.858 E0.0313
G1 X176.592 Y143.136 E0.0196
G1 X176.947 Y143.536 E0.0267
G1 X177.517 Y144.309 E0.0479
G1 X177.809 Y144.794 E0.0282
G1 X178.100 Y145.369 E0.0322
G1 X178.241 Y145.695 E0.0177
G1 X178.442 Y146.247 E0.0293
G1 X178.529 Y146.533 E0.0149
G1 X178.658 Y147.050 E0.0266
G1 X178.775 Y147.733 E0.0346
G1 X178.830 Y148.316 E0.0292
G1 X178.842 Y148.626 E0.0155
G1 X178.823 Y149.323 E0.0348
G1 X178.719 Y150.191 E0.0436
G1 X178.587 Y150.800 E0.0311
G1 X178.371 Y151.507 E0.0369
G1 X178.134 Y152.103 E0.0320
G1 X177.954 Y152.489 E0.0212
G1 X177.661 Y153.018 E0.0302
G1 X177.456 Y153.340 E0.0190
G1 X176.967 Y153.996 E0.0408
G1 X176.535 Y154.479 E0.0323
G1 X176.149 Y154.853 E0.0268
G1 X175.632 Y155.284 E0.0336
G1 X175.332 Y155.503 E0.0185
G1 X174.656 Y155.927 E0.0398
G1 X174.051 Y156.235 E0.0339
G1 X173.728 Y156.374 E0.0175
G1 X173.203 Y156.567 E0.0279
G1 X172.879 Y156.665 E0.0169
G1 X172.309 Y156.805 E0.0293
G1 X171.971 Y156.868 E0.0172
G1 X171.436 Y156.938 E0.0269
G1 X170.644 Y156.978 E0.0396
G1 X156.772 Y156.978 E0.6921
G1 X156.566 Y157.278 E0.0182
G1 X156.216 Y157.666 E0.0261
G1 X155.845 Y157.973 E0.0240
G1 X155.720 Y158.586 E0.0312
G1 X155.489 Y159.205 E0.0330
G1 X155.208 Y159.715 E0.0291
G1 X154.640 Y160.478 E0.0475
G1 X154.240 Y160.926 E0.0300
G1 X153.790 Y161.309 E0.0295
G1 X153.291 Y161.624 E0.0294
G1 X152.919 Y161.791 E0.0203
G1 X152.599 Y162.417 E0.0351
G1 X152.252 Y162.893 E0.0294
G1 X151.840 Y163.318 E0.0295
G1 X151.083 Y163.916 E0.0481
G1 X150.549 Y164.257 E0.0316
G1 X150.015 Y164.501 E0.0293
G1 X149.514 Y164.652 E0.0261
G1 X149.108 Y164.717 E0.0205
G1 X149.030 Y164.820 E0.0064
G1 X148.631 Y165.246 E0.0291
G1 X148.230 Y165.574 E0.0258
G1 X147.740 Y165.879 E0.0288
G1 X147.430 Y166.028 E0.0172
G1 X146.811 Y166.285 E0.0334
G1 X146.316 Y166.453 E0.0261
G1 X145.604 Y166.586 E0.0361
G1 X145.149 Y166.605 E0.0227
G1 X144.671 Y166.559 E0.0240
G1 X144.200 Y166.876 E0.0283
G1 X143.541 Y167.181 E0.0362
G1 X142.997 Y167.340 E0.0283
G1 X142.656 Y167.399 E0.0173
G1 X142.037 Y167.480 E0.0311
G1 X141.445 Y167.512 E0.0296
G1 X140.858 Y167.464 E0.0294
G1 X140.283 Y167.334 E0.0294
G1 X139.904 Y167.191 E0.0202
G1 X139.363 Y167.375 E0.0285
G1 X138.852 Y167.476 E0.0260
G1 X138.207 Y167.513 E0.0322
G1 X137.751 Y167.480 E0.0228
G1 X137.095 Y167.393 E0.0330
G1 X136.486 Y167.259 E0.0311
G1 X135.937 Y167.054 E0.0292
G1 X135.473 Y166.806 E0.0262
G1 X135.142 Y166.565 E0.0204
G1 X135.029 Y166.581 E0.0057
G1 X134.444 Y166.601 E0.0292
G1 X133.861 Y166.542 E0.0292
G1 X133.417 Y166.439 E0.0227
G1 X132.979 Y166.285 E0.0232
G1 X132.342 Y166.020 E0.0344
G1 X131.935 Y165.817 E0.0227
G1 X131.338 Y165.405 E0.0362
G1 X130.955 Y165.046 E0.0262
G1 X130.698 Y164.729 E0.0204
G1 X130.084 Y164.604 E0.0313
G1 X129.466 Y164.373 E0.0329
G1 X128.974 Y164.104 E0.0280
G1 X128.701 Y163.914 E0.0166
G1 X128.083 Y163.435 E0.0390
G1 X127.701 Y163.080 E0.0260
G1 X127.325 Y162.623 E0.0295
G1 X127.019 Y162.122 E0.0293
G1 X126.878 Y161.803 E0.0174
G1 X126.316 Y161.521 E0.0314
G1 X125.780 Y161.138 E0.0329
G1 X125.409 Y160.787 E0.0255
G1 X125.161 Y160.497 E0.0190
G1 X124.729 Y159.929 E0.0356
G1 X124.479 Y159.549 E0.0227
G1 X124.195 Y158.962 E0.0325
G1 X124.036 Y158.463 E0.0261
G1 X123.955 Y157.995 E0.0237
G1 X123.482 Y157.576 E0.0315
G1 X123.063 Y157.068 E0.0329
G1 X122.823 Y156.681 E0.0227
G1 X122.621 Y156.263 E0.0232
G1 X122.383 Y155.686 E0.0311
G1 X122.217 Y155.194 E0.0259
G1 X122.086 Y154.479 E0.0363
G1 X122.068 Y154.024 E0.0227
G1 X122.113 Y153.555 E0.0235
G1 X121.800 Y153.091 E0.0279
G1 X121.544 Y152.565 E0.0292
G1 X121.349 Y151.948 E0.0323
G1 X121.274 Y151.546 E0.0204
G1 X121.186 Y150.857 E0.0347
G1 X121.160 Y150.269 E0.0294
G1 X121.214 Y149.687 E0.0292
G1 X121.313 Y149.242 E0.0227
G1 X121.513 Y148.689 E0.0293
G1 X121.786 Y148.169 E0.0293
G1 X122.224 Y147.582 E0.0365
G1 X122.643 Y147.172 E0.0292
G1 X123.181 Y146.767 E0.0336
G1 X123.784 Y146.384 E0.0356
G1 X123.846 Y145.970 E0.0209
G1 X123.979 Y145.285 E0.0348
G1 X124.141 Y144.618 E0.0342
G1 X124.323 Y143.981 E0.0331
G1 X124.553 Y143.293 E0.0362
G1 X124.801 Y142.641 E0.0348
G1 X125.074 Y142.008 E0.0344
G1 X125.358 Y141.417 E0.0327
G1 X125.681 Y140.814 E0.0341
G1 X126.067 Y140.161 E0.0378
G1 X126.733 Y139.174 E0.0594
G1 X127.159 Y138.616 E0.0350
G1 X127.603 Y138.082 E0.0346
G1 X128.185 Y137.450 E0.0429
G1 X128.607 Y137.031 E0.0297
G0 F2400 X128.677 Y136.961
M204 S1300.00
G0 F7200 X128.933 Y137.242
G0 F7200 X129.000 Y137.316
M204 S1250.00
G1 F2400 X129.497 Y136.864 E0.0335
G1 X130.018 Y136.429 E0.0339
G1 X130.526 Y136.040 E0.0319
G1 X130.974 Y135.721 E0.0274
G1 X131.526 Y135.360 E0.0329
G1 X132.128 Y135.004 E0.0349
G1 X132.821 Y134.635 E0.0392
G1 X133.429 Y134.347 E0.0336
G1 X134.075 Y134.075 E0.0350
G1 X134.681 Y133.850 E0.0323
G1 X135.334 Y133.638 E0.0343
G1 X135.987 Y133.456 E0.0338
G1 X136.647 Y133.302 E0.0338
G1 X137.303 Y133.180 E0.0333
G1 X137.964 Y133.085 E0.0333
G1 X138.642 Y133.015 E0.0340
G1 X139.305 Y132.977 E0.0331
G1 X139.837 Y132.966 E0.0265
G1 X140.466 Y132.976 E0.0314
G1 X141.180 Y133.019 E0.0357
G1 X141.854 Y133.088 E0.0338
G1 X142.658 Y133.209 E0.0406
G1 X143.390 Y133.358 E0.0373
G1 X144.598 Y133.681 E0.0624
G1 X145.250 Y133.901 E0.0343
G1 X145.731 Y134.083 E0.0257
G1 X146.494 Y134.409 E0.0414
G1 X147.104 Y134.705 E0.0338
G1 X147.574 Y134.956 E0.0266
G1 X148.270 Y135.366 E0.0403
G1 X148.716 Y135.656 E0.0265
G1 X149.268 Y136.045 E0.0337
G1 X149.907 Y136.541 E0.0404
G1 X150.417 Y136.976 E0.0334
G1 X150.810 Y137.338 E0.0267
G1 X151.385 Y137.916 E0.0407
G1 X151.835 Y138.412 E0.0334
G1 X152.166 Y138.806 E0.0257
G1 X152.656 Y139.444 E0.0401
G1 X153.056 Y140.014 E0.0347
G1 X153.334 Y140.446 E0.0256
G1 X153.685 Y141.058 E0.0352
G1 X170.672 Y141.058 E0.8475
G1 X171.101 Y141.073 E0.0214
G1 X171.937 Y141.168 E0.0420
G1 X172.269 Y141.232 E0.0169
G1 X172.795 Y141.365 E0.0271
G1 X173.564 Y141.633 E0.0406
G1 X174.131 Y141.893 E0.0311
G1 X174.750 Y142.247 E0.0356
G1 X175.256 Y142.593 E0.0306
G1 X175.553 Y142.821 E0.0187
G1 X175.975 Y143.197 E0.0282
G1 X176.233 Y143.455 E0.0182
G1 X176.588 Y143.855 E0.0267
G1 X177.106 Y144.557 E0.0435
G1 X177.398 Y145.042 E0.0282
G1 X177.660 Y145.560 E0.0290
G1 X177.790 Y145.860 E0.0163
G1 X177.983 Y146.387 E0.0280
G1 X178.063 Y146.649 E0.0137
G1 X178.192 Y147.166 E0.0266
G1 X178.297 Y147.778 E0.0310
G1 X178.350 Y148.335 E0.0279
G1 X178.362 Y148.645 E0.0155
G1 X178.346 Y149.267 E0.0310
G1 X178.249 Y150.091 E0.0414
G1 X178.128 Y150.661 E0.0291
G1 X177.925 Y151.330 E0.0349
G1 X177.699 Y151.901 E0.0306
G1 X177.534 Y152.257 E0.0196
G1 X177.256 Y152.761 E0.0287
G1 X177.071 Y153.053 E0.0172
G1 X176.582 Y153.709 E0.0408
G1 X176.201 Y154.134 E0.0285
G1 X175.815 Y154.508 E0.0268
G1 X175.348 Y154.897 E0.0303
G1 X175.077 Y155.096 E0.0168
G1 X174.401 Y155.520 E0.0398
G1 X173.861 Y155.794 E0.0302
G1 X173.562 Y155.923 E0.0162
G1 X173.037 Y156.116 E0.0279
G1 X172.764 Y156.199 E0.0142
G1 X172.220 Y156.333 E0.0280
G1 X171.909 Y156.392 E0.0158
G1 X171.374 Y156.462 E0.0269
G1 X170.644 Y156.498 E0.0365
G1 X156.515 Y156.498 E0.7049
G1 X156.210 Y156.956 E0.0275
G1 X155.860 Y157.344 E0.0261
G1 X155.384 Y157.728 E0.0305
G1 X155.363 Y157.977 E0.0125
G1 X155.269 Y158.422 E0.0227
G1 X155.067 Y158.977 E0.0295
G1 X154.823 Y159.428 E0.0256
G1 X154.255 Y160.191 E0.0475
G1 X153.883 Y160.605 E0.0278
G1 X153.482 Y160.941 E0.0261
G1 X153.038 Y161.216 E0.0261
G1 X152.539 Y161.432 E0.0271
G1 X152.451 Y161.674 E0.0128
G1 X152.209 Y162.137 E0.0261
G1 X151.905 Y162.561 E0.0260
G1 X151.542 Y162.941 E0.0262
G1 X150.785 Y163.539 E0.0481
G1 X150.347 Y163.822 E0.0260
G1 X149.872 Y164.043 E0.0261
G1 X149.438 Y164.178 E0.0227
G1 X148.834 Y164.275 E0.0305
G1 X148.678 Y164.494 E0.0134
G1 X148.324 Y164.877 E0.0260
G1 X147.974 Y165.168 E0.0227
G1 X147.532 Y165.446 E0.0261
G1 X147.222 Y165.595 E0.0172
G1 X146.627 Y165.842 E0.0321
G1 X146.163 Y165.998 E0.0244
G1 X145.584 Y166.106 E0.0294
G1 X145.129 Y166.125 E0.0227
G1 X144.518 Y166.060 E0.0307
G1 X144.321 Y166.226 E0.0129
G1 X143.939 Y166.473 E0.0227
G1 X143.404 Y166.721 E0.0294
G1 X142.914 Y166.867 E0.0255
G1 X142.594 Y166.923 E0.0162
G1 X141.975 Y167.004 E0.0311
G1 X141.420 Y167.033 E0.0277
G1 X140.901 Y166.986 E0.0260
G1 X140.392 Y166.867 E0.0261
G1 X139.891 Y166.671 E0.0268
G1 X139.764 Y166.732 E0.0070
G1 X139.270 Y166.904 E0.0261
G1 X138.759 Y167.005 E0.0260
G1 X138.241 Y167.034 E0.0259
G1 X137.813 Y167.004 E0.0214
G1 X137.194 Y166.923 E0.0311
G1 X136.650 Y166.808 E0.0277
G1 X136.159 Y166.629 E0.0261
G1 X135.755 Y166.418 E0.0227
G1 X135.259 Y166.057 E0.0306
G1 X135.009 Y166.101 E0.0127
G1 X134.489 Y166.123 E0.0260
G1 X133.969 Y166.074 E0.0261
G1 X133.525 Y165.971 E0.0227
G1 X133.163 Y165.842 E0.0192
G1 X132.556 Y165.590 E0.0328
G1 X132.149 Y165.387 E0.0227
G1 X131.663 Y165.052 E0.0294
G1 X131.328 Y164.744 E0.0227
G1 X130.943 Y164.268 E0.0305
G1 X130.694 Y164.247 E0.0125
G1 X130.249 Y164.153 E0.0227
G1 X129.694 Y163.950 E0.0295
G1 X129.247 Y163.709 E0.0253
G1 X128.994 Y163.534 E0.0153
G1 X128.410 Y163.083 E0.0368
G1 X128.028 Y162.728 E0.0260
G1 X127.698 Y162.321 E0.0261
G1 X127.431 Y161.875 E0.0259
G1 X127.237 Y161.423 E0.0245
G1 X126.997 Y161.335 E0.0128
G1 X126.592 Y161.128 E0.0227
G1 X126.110 Y160.789 E0.0294
G1 X125.739 Y160.438 E0.0255
G1 X125.543 Y160.206 E0.0152
G1 X125.130 Y159.665 E0.0340
G1 X124.880 Y159.285 E0.0227
G1 X124.652 Y158.816 E0.0260
G1 X124.493 Y158.317 E0.0261
G1 X124.397 Y157.719 E0.0302
G1 X124.188 Y157.572 E0.0127
G1 X123.850 Y157.268 E0.0227
G1 X123.471 Y156.815 E0.0295
G1 X123.231 Y156.428 E0.0227
G1 X123.065 Y156.080 E0.0192
G1 X122.827 Y155.503 E0.0311
G1 X122.672 Y155.041 E0.0243
G1 X122.566 Y154.460 E0.0295
G1 X122.548 Y154.005 E0.0227
G1 X122.611 Y153.402 E0.0302
G1 X122.451 Y153.211 E0.0124
G1 X122.202 Y152.829 E0.0227
G1 X121.977 Y152.358 E0.0260
G1 X121.821 Y151.858 E0.0261
G1 X121.750 Y151.484 E0.0190
G1 X121.665 Y150.832 E0.0328
G1 X121.638 Y150.310 E0.0261
G1 X121.683 Y149.791 E0.0260
G1 X121.782 Y149.346 E0.0227
G1 X121.963 Y148.855 E0.0261
G1 X122.209 Y148.395 E0.0260
G1 X122.562 Y147.923 E0.0294
G1 X122.933 Y147.555 E0.0261
G1 X123.442 Y147.170 E0.0318
G1 X123.929 Y146.854 E0.0290
G1 X124.225 Y146.688 E0.0169
G1 X124.317 Y146.062 E0.0316
G1 X124.446 Y145.398 E0.0337
G1 X124.603 Y144.750 E0.0333
G1 X124.785 Y144.113 E0.0331
G1 X125.002 Y143.463 E0.0342
G1 X125.242 Y142.831 E0.0337
G1 X125.507 Y142.216 E0.0334
G1 X125.791 Y141.625 E0.0327
G1 X126.104 Y141.041 E0.0331
G1 X126.465 Y140.429 E0.0354
G1 X127.115 Y139.465 E0.0580
G1 X127.528 Y138.923 E0.0340
G1 X127.972 Y138.389 E0.0346
G1 X128.523 Y137.790 E0.0406
G1 X128.930 Y137.386 E0.0286
G0 F2400 X129.000 Y137.316
M204 S1300.00
G0 F7200 X129.257 Y137.598
G0 F7200 X129.324 Y137.671
M204 S1250.00
G1 F2400 X129.805 Y137.232 E0.0325
G1 X130.310 Y136.810 E0.0328
G1 X130.818 Y136.421 E0.0319
G1 X131.237 Y136.123 E0.0257
G1 X131.789 Y135.762 E0.0329
G1 X132.354 Y135.428 E0.0327
G1 X133.047 Y135.059 E0.0392
G1 X133.634 Y134.781 E0.0324
G1 X134.242 Y134.525 E0.0329
G1 X134.848 Y134.300 E0.0323
G1 X135.463 Y134.100 E0.0323
G1 X136.096 Y133.923 E0.0328
G1 X136.735 Y133.774 E0.0327
G1 X137.372 Y133.655 E0.0323
G1 X138.013 Y133.562 E0.0323
G1 X138.669 Y133.494 E0.0329
G1 X139.315 Y133.457 E0.0323
G1 X139.829 Y133.446 E0.0256
G1 X140.458 Y133.456 E0.0314
G1 X141.131 Y133.496 E0.0336
G1 X141.783 Y133.563 E0.0327
G1 X142.562 Y133.679 E0.0393
G1 X143.266 Y133.822 E0.0358
G1 X144.445 Y134.136 E0.0609
G1 X145.080 Y134.350 E0.0334
G1 X145.561 Y134.532 E0.0257
G1 X146.285 Y134.841 E0.0393
G1 X146.878 Y135.128 E0.0329
G1 X147.331 Y135.370 E0.0256
G1 X148.009 Y135.769 E0.0392
G1 X148.440 Y136.048 E0.0256
G1 X148.974 Y136.424 E0.0326
G1 X149.596 Y136.906 E0.0393
G1 X150.092 Y137.329 E0.0325
G1 X150.470 Y137.677 E0.0256
G1 X151.029 Y138.238 E0.0395
G1 X151.467 Y138.721 E0.0325
G1 X151.798 Y139.115 E0.0257
G1 X152.263 Y139.719 E0.0380
G1 X152.652 Y140.274 E0.0338
G1 X152.930 Y140.706 E0.0256
G1 X153.407 Y141.538 E0.0478
G1 X170.655 Y141.538 E0.8605
G1 X171.084 Y141.553 E0.0214
G1 X171.847 Y141.639 E0.0383
G1 X172.151 Y141.697 E0.0154
G1 X172.677 Y141.830 E0.0271
G1 X173.405 Y142.086 E0.0385
G1 X173.894 Y142.310 E0.0268
G1 X174.479 Y142.643 E0.0336
G1 X174.964 Y142.974 E0.0293
G1 X175.261 Y143.202 E0.0187
G1 X175.655 Y143.555 E0.0264
G1 X175.874 Y143.774 E0.0155
G1 X176.229 Y144.174 E0.0267
G1 X176.695 Y144.805 E0.0391
G1 X176.970 Y145.260 E0.0265
G1 X177.220 Y145.751 E0.0275
G1 X177.339 Y146.025 E0.0149
G1 X177.524 Y146.529 E0.0268
G1 X177.597 Y146.765 E0.0123
G1 X177.726 Y147.282 E0.0266
G1 X177.819 Y147.824 E0.0274
G1 X177.870 Y148.354 E0.0266
G1 X177.882 Y148.664 E0.0155
G1 X177.869 Y149.212 E0.0273
G1 X177.779 Y149.993 E0.0392
G1 X177.669 Y150.522 E0.0270
G1 X177.478 Y151.154 E0.0329
