;Sliced by ideaMaker 4.2.3.5600, 2022-10-10 17:12:50 UTC+0200
;Dimension: 300.000 300.000 400.000 0.400
;Plate Shape: 0
;Origin Center: 0
;Extruder Offset #1: 25.000 0.000
;Filament Diameter #1: 1.750
;Filament Diameter #2: 1.750
;Filament Compensation #1: 100.00
;Filament Compensation #2: 90.00
;Filament Density #1: 1240.00
;Filament Density #2: 1240.00
;Filament Type #1: Sunlu
;Filament Type #2: 
;Filament Name #1: Sunlu Grey PLA
;Filament Name #2: 
;Firmware: Marlin
;Bounding Box: 126.304 173.687 141.807 158.197 0.000 4.050
;Model Gap: 0.000
M92 E415.00000
M221 T0 S100.00
M140 S60.00
M104 T0 S210.00
M109 T0 S210.00
T0
M190 S60.00
M107
G28 ; home all axes
G29 ; Autoleveling processing ; à commenter si M420 actif
;M420 S1 Z10 ; Autolevel enable ; à commenter si G29 actif
;vous avez 2 choix, soit activer le G29 pour faire un autoleveling du plateau avant chaque impression
;C'est la méthode recvommandé par ARtillery3Dexpert.fr
;soit activer la ligne qui commance par M420 pour faire un rappel de la derniere mesure du plateau
;pour gagner du temp ( non recommandé par artillery3Dexpert.fr )
M500 ; sauvegarde eeprom
M117 Purge extruder
G92 E0 ; reset extruder
G1 Z1.0 F3000 ; move z up little to prevent scratching of surface
G1 X2 Y20 Z0.3 F5000.0 ; move to start-line position
G1 X2 Y200.0 Z0.3 F1500.0 E15 ; draw 1st line
G1 X2 Y200.0 Z0.4 F5000.0 ; move to side a little
G1 X2 Y20 Z0.4 F1500.0 E30 ; draw 2nd line
G92 E0 ; reset extruder
G1 Z1.0 F3000 ; move z up little to prevent scratching of surface
;TOTAL_NUM: 1
;PRINTING_TIME: 0
;REMAINING_TIME: 281
M83
;LAYER:0
;Z:0.250
;HEIGHT:0.250
M106 S0
;PRINTING: NON-OBJECT
;PRINTING_ID: -1
G1 F2400 E-1.0000
M204 S1300.00
M205 X7.00 Y7.00
G0 F7200 X128.831 Y143.944
G0 F900 Z0.250
G0 F7200 X128.897 Y144.018
M204 S1250.00
;TYPE:SKIRT
;WIDTH:0.480
G1 F2400 E0.9700
G1 F2400 X129.374 Y143.602 E0.0316
G1 X130.107 Y143.081 E0.0449
G1 X130.565 Y142.810 E0.0266
G1 X131.407 Y142.407 E0.0466
G1 X131.901 Y142.224 E0.0263
G1 X132.499 Y142.051 E0.0311
G1 X133.021 Y141.938 E0.0266
G1 X133.488 Y141.867 E0.0236
G1 X134.089 Y141.814 E0.0301
G1 X134.753 Y141.807 E0.0331
G1 X135.628 Y141.883 E0.0438
G1 X136.245 Y141.988 E0.0312
G1 X136.611 Y142.082 E0.0189
G1 X137.419 Y142.340 E0.0423
G1 X137.980 Y142.579 E0.0304
G1 X138.491 Y142.841 E0.0286
G1 X139.224 Y143.300 E0.0431
G1 X160.781 Y143.300 E1.0755
G1 X161.062 Y143.110 E0.0169
G1 X161.524 Y142.833 E0.0269
G1 X162.141 Y142.522 E0.0345
G1 X162.978 Y142.201 E0.0447
G1 X163.535 Y142.040 E0.0289
G1 X163.930 Y141.955 E0.0202
G1 X164.485 Y141.866 E0.0280
G1 X164.884 Y141.826 E0.0200
G1 X165.833 Y141.809 E0.0474
G1 X166.630 Y141.880 E0.0399
G1 X167.560 Y142.067 E0.0473
G1 X168.008 Y142.197 E0.0233
G1 X168.483 Y142.366 E0.0252
G1 X169.095 Y142.632 E0.0333
G1 X169.576 Y142.886 E0.0271
G1 X170.320 Y143.370 E0.0443
G1 X170.710 Y143.673 E0.0246
G1 X171.114 Y144.028 E0.0268
G1 X171.536 Y144.453 E0.0299
G1 X172.156 Y145.217 E0.0491
G1 X172.523 Y145.773 E0.0332
G1 X172.936 Y146.554 E0.0441
G1 X173.190 Y147.159 E0.0327
G1 X173.451 Y148.010 E0.0444
G1 X173.546 Y148.437 E0.0218
G1 X173.630 Y148.963 E0.0266
G1 X173.680 Y149.507 E0.0273
G1 X173.687 Y150.416 E0.0454
G1 X173.627 Y151.056 E0.0321
G1 X173.463 Y151.950 E0.0453
G1 X173.292 Y152.544 E0.0308
G1 X173.112 Y153.041 E0.0264
G1 X172.954 Y153.413 E0.0202
G1 X172.675 Y153.962 E0.0307
G1 X172.384 Y154.450 E0.0283
G1 X172.103 Y154.854 E0.0246
G1 X171.535 Y155.548 E0.0447
G1 X171.076 Y156.007 E0.0324
G1 X170.456 Y156.531 E0.0405
G1 X170.023 Y156.837 E0.0265
G1 X169.416 Y157.201 E0.0353
G1 X168.966 Y157.428 E0.0251
G1 X168.482 Y157.635 E0.0263
G1 X167.950 Y157.822 E0.0281
G1 X167.501 Y157.949 E0.0233
G1 X166.984 Y158.062 E0.0264
G1 X166.614 Y158.123 E0.0187
G1 X165.780 Y158.193 E0.0418
G1 X164.883 Y158.173 E0.0448
G1 X164.427 Y158.126 E0.0229
G1 X163.930 Y158.045 E0.0251
G1 X163.306 Y157.899 E0.0320
G1 X162.422 Y157.596 E0.0466
G1 X161.867 Y157.349 E0.0303
G1 X161.048 Y156.881 E0.0471
G1 X160.782 Y156.700 E0.0161
G1 X139.206 Y156.707 E1.0764
G1 X138.891 Y156.922 E0.0190
G1 X138.544 Y157.130 E0.0202
G1 X137.655 Y157.567 E0.0494
G1 X137.077 Y157.780 E0.0307
G1 X136.534 Y157.940 E0.0282
G1 X136.053 Y158.047 E0.0246
G1 X135.150 Y158.173 E0.0455
G1 X134.351 Y158.197 E0.0399
G1 X133.458 Y158.129 E0.0447
G1 X132.991 Y158.057 E0.0236
G1 X132.469 Y157.941 E0.0267
G1 X131.991 Y157.803 E0.0248
G1 X131.488 Y157.623 E0.0267
G1 X131.052 Y157.435 E0.0237
G1 X130.249 Y157.010 E0.0453
G1 X129.686 Y156.633 E0.0338
G1 X129.014 Y156.093 E0.0430
G1 X128.578 Y155.666 E0.0304
G1 X128.004 Y155.000 E0.0439
G1 X127.582 Y154.396 E0.0368
G1 X127.325 Y153.962 E0.0252
G1 X127.114 Y153.551 E0.0230
G1 X126.864 Y152.977 E0.0312
G1 X126.700 Y152.515 E0.0245
G1 X126.466 Y151.629 E0.0457
G1 X126.346 Y150.836 E0.0400
G1 X126.304 Y149.945 E0.0445
G1 X126.323 Y149.458 E0.0243
G1 X126.413 Y148.658 E0.0402
G1 X126.570 Y147.932 E0.0371
G1 X126.845 Y147.065 E0.0454
G1 X127.101 Y146.478 E0.0319
G1 X127.501 Y145.732 E0.0422
G1 X127.844 Y145.217 E0.0309
G1 X128.234 Y144.717 E0.0316
G1 X128.540 Y144.374 E0.0229
G1 X128.827 Y144.088 E0.0202
G0 F2400 X128.897 Y144.018
M204 S1300.00
G0 F7200 X129.166 Y144.288
G0 F7200 X129.236 Y144.358
M204 S1250.00
G1 F2400 X129.689 Y143.964 E0.0300
G1 X130.384 Y143.473 E0.0425
G1 X130.773 Y143.243 E0.0225
G1 X131.575 Y142.857 E0.0444
G1 X132.035 Y142.685 E0.0245
G1 X132.602 Y142.520 E0.0295
G1 X133.094 Y142.412 E0.0251
G1 X133.531 Y142.345 E0.0221
G1 X134.096 Y142.294 E0.0283
G1 X134.712 Y142.285 E0.0307
G1 X135.548 Y142.356 E0.0419
G1 X136.128 Y142.454 E0.0293
G1 X136.466 Y142.539 E0.0174
G1 X137.231 Y142.782 E0.0400
G1 X137.792 Y143.021 E0.0304
G1 X138.271 Y143.268 E0.0269
G1 X138.824 Y143.607 E0.0324
G1 X139.072 Y143.780 E0.0151
G1 X160.929 Y143.780 E1.0905
G1 X161.310 Y143.521 E0.0230
G1 X161.742 Y143.261 E0.0252
G1 X162.313 Y142.970 E0.0320
G1 X163.113 Y142.662 E0.0428
G1 X163.636 Y142.509 E0.0272
G1 X164.007 Y142.429 E0.0189
G1 X164.533 Y142.344 E0.0266
G1 X164.932 Y142.304 E0.0200
G1 X165.790 Y142.287 E0.0428
G1 X166.587 Y142.358 E0.0399
G1 X167.427 Y142.528 E0.0428
G1 X167.847 Y142.649 E0.0218
G1 X168.322 Y142.818 E0.0252
G1 X168.872 Y143.057 E0.0299
G1 X169.315 Y143.289 E0.0249
G1 X170.026 Y143.750 E0.0423
G1 X170.393 Y144.034 E0.0232
G1 X170.797 Y144.389 E0.0268
G1 X171.195 Y144.791 E0.0282
G1 X171.756 Y145.483 E0.0444
G1 X172.099 Y145.998 E0.0309
G1 X172.494 Y146.741 E0.0420
G1 X172.731 Y147.301 E0.0303
G1 X172.982 Y148.114 E0.0424
G1 X173.077 Y148.541 E0.0218
G1 X173.156 Y149.038 E0.0251
G1 X173.200 Y149.512 E0.0237
G1 X173.209 Y150.373 E0.0430
G1 X173.155 Y150.971 E0.0300
G1 X173.002 Y151.817 E0.0429
G1 X172.840 Y152.381 E0.0293
G1 X172.669 Y152.855 E0.0251
G1 X172.526 Y153.196 E0.0184
G1 X172.262 Y153.717 E0.0291
G1 X171.989 Y154.177 E0.0267
G1 X171.731 Y154.551 E0.0227
G1 X171.195 Y155.209 E0.0423
G1 X170.766 Y155.640 E0.0303
G1 X170.146 Y156.164 E0.0405
G1 X169.747 Y156.445 E0.0243
G1 X169.200 Y156.772 E0.0318
G1 X168.750 Y156.999 E0.0251
G1 X168.322 Y157.182 E0.0232
G1 X167.818 Y157.360 E0.0267
G1 X167.398 Y157.480 E0.0218
G1 X166.906 Y157.588 E0.0251
G1 X166.536 Y157.649 E0.0187
G1 X165.790 Y157.713 E0.0374
G1 X164.932 Y157.696 E0.0428
G1 X164.504 Y157.652 E0.0215
G1 X164.007 Y157.571 E0.0251
G1 X163.416 Y157.432 E0.0303
G1 X162.579 Y157.142 E0.0442
G1 X162.063 Y156.911 E0.0282
G1 X161.318 Y156.484 E0.0428
G1 X160.930 Y156.220 E0.0234
G1 X139.056 Y156.227 E1.0913
G1 X138.644 Y156.510 E0.0249
G1 X138.297 Y156.718 E0.0202
G1 X137.488 Y157.117 E0.0450
G1 X136.941 Y157.320 E0.0291
G1 X136.428 Y157.472 E0.0267
G1 X135.985 Y157.572 E0.0227
G1 X135.134 Y157.693 E0.0429
G1 X134.386 Y157.718 E0.0373
G1 X133.531 Y157.655 E0.0428
G1 X133.094 Y157.588 E0.0221
G1 X132.602 Y157.480 E0.0251
G1 X132.153 Y157.351 E0.0233
G1 X131.650 Y157.171 E0.0267
G1 X131.277 Y157.011 E0.0202
G1 X130.474 Y156.586 E0.0453
G1 X129.986 Y156.258 E0.0293
G1 X129.350 Y155.750 E0.0406
G1 X128.914 Y155.323 E0.0304
G1 X128.368 Y154.687 E0.0418
G1 X127.995 Y154.151 E0.0326
G1 X127.738 Y153.717 E0.0252
G1 X127.541 Y153.332 E0.0216
G1 X127.316 Y152.815 E0.0281
G1 X127.164 Y152.391 E0.0225
G1 X126.940 Y151.556 E0.0431
G1 X126.825 Y150.813 E0.0375
G1 X126.784 Y149.962 E0.0425
G1 X126.800 Y149.512 E0.0225
G1 X126.890 Y148.712 E0.0402
G1 X127.028 Y148.076 E0.0325
G1 X127.286 Y147.255 E0.0429
G1 X127.524 Y146.704 E0.0299
G1 X127.901 Y145.998 E0.0399
G1 X128.244 Y145.483 E0.0309
G1 X128.593 Y145.036 E0.0283
G1 X128.879 Y144.714 E0.0215
G1 X129.166 Y144.428 E0.0202
G0 F2400 X129.236 Y144.358
M204 S1300.00
G0 F7200 X129.505 Y144.628
G0 F7200 X129.575 Y144.698
M204 S1250.00
G1 F2400 X130.003 Y144.327 E0.0283
G1 X130.660 Y143.866 E0.0400
G1 X131.016 Y143.657 E0.0206
G1 X131.744 Y143.306 E0.0403
G1 X132.170 Y143.146 E0.0227
G1 X132.705 Y142.989 E0.0278
G1 X133.197 Y142.881 E0.0251
G1 X133.603 Y142.819 E0.0205
G1 X134.105 Y142.774 E0.0251
G1 X134.672 Y142.763 E0.0283
G1 X135.469 Y142.829 E0.0399
G1 X136.013 Y142.920 E0.0275
G1 X136.321 Y142.996 E0.0158
G1 X137.086 Y143.239 E0.0400
G1 X137.602 Y143.462 E0.0280
G1 X138.050 Y143.694 E0.0252
G1 X138.550 Y144.001 E0.0293
G1 X138.922 Y144.260 E0.0226
G1 X161.054 Y144.260 E1.1042
G1 X161.080 Y144.258 E0.0013
G1 X161.558 Y143.932 E0.0289
G1 X161.990 Y143.672 E0.0252
G1 X162.486 Y143.418 E0.0278
G1 X163.248 Y143.123 E0.0408
G1 X163.771 Y142.970 E0.0272
G1 X164.084 Y142.903 E0.0160
G1 X164.581 Y142.822 E0.0251
G1 X164.980 Y142.782 E0.0200
G1 X165.799 Y142.767 E0.0409
G1 X166.493 Y142.829 E0.0348
G1 X167.295 Y142.989 E0.0408
G1 X167.686 Y143.101 E0.0203
G1 X168.161 Y143.270 E0.0252
G1 X168.679 Y143.497 E0.0282
G1 X169.066 Y143.700 E0.0218
G1 X169.340 Y143.866 E0.0160
G1 X169.757 Y144.148 E0.0251
G1 X170.077 Y144.395 E0.0202
G1 X170.456 Y144.727 E0.0251
G1 X170.854 Y145.129 E0.0282
G1 X171.358 Y145.751 E0.0399
G1 X171.676 Y146.224 E0.0284
G1 X172.053 Y146.930 E0.0399
G1 X172.273 Y147.444 E0.0279
G1 X172.514 Y148.219 E0.0405
G1 X172.603 Y148.616 E0.0203
G1 X172.682 Y149.113 E0.0251
G1 X172.720 Y149.519 E0.0203
G1 X172.731 Y150.331 E0.0405
G1 X172.682 Y150.887 E0.0278
G1 X172.540 Y151.685 E0.0404
G1 X172.388 Y152.218 E0.0277
G1 X172.217 Y152.692 E0.0251
G1 X172.097 Y152.980 E0.0156
G1 X171.849 Y153.472 E0.0275
G1 X171.592 Y153.906 E0.0252
G1 X171.358 Y154.249 E0.0207
G1 X170.854 Y154.871 E0.0399
G1 X170.456 Y155.273 E0.0282
G1 X169.836 Y155.797 E0.0405
G1 X169.472 Y156.052 E0.0222
G1 X168.984 Y156.343 E0.0283
G1 X168.534 Y156.570 E0.0251
G1 X168.161 Y156.730 E0.0202
G1 X167.686 Y156.899 E0.0252
G1 X167.295 Y157.011 E0.0203
G1 X166.803 Y157.119 E0.0251
G1 X166.493 Y157.171 E0.0157
G1 X165.799 Y157.233 E0.0348
G1 X164.980 Y157.218 E0.0409
G1 X164.581 Y157.178 E0.0200
G1 X164.084 Y157.097 E0.0251
G1 X163.527 Y156.965 E0.0286
G1 X162.775 Y156.704 E0.0397
G1 X162.259 Y156.473 E0.0282
G1 X161.558 Y156.068 E0.0404
G1 X161.078 Y155.740 E0.0290
G1 X138.907 Y155.747 E1.1061
G1 X138.397 Y156.098 E0.0309
G1 X138.050 Y156.306 E0.0202
G1 X137.320 Y156.667 E0.0406
G1 X136.804 Y156.860 E0.0275
G1 X136.321 Y157.004 E0.0251
G1 X135.916 Y157.097 E0.0207
G1 X135.116 Y157.213 E0.0403
G1 X134.420 Y157.239 E0.0347
G1 X133.603 Y157.181 E0.0409
G1 X133.197 Y157.119 E0.0205
G1 X132.705 Y157.011 E0.0251
G1 X132.314 Y156.899 E0.0203
G1 X131.839 Y156.730 E0.0252
G1 X131.466 Y156.570 E0.0202
G1 X130.741 Y156.187 E0.0409
G1 X130.286 Y155.883 E0.0273
G1 X129.650 Y155.375 E0.0406
G1 X129.251 Y154.981 E0.0280
G1 X128.733 Y154.375 E0.0398
G1 X128.408 Y153.906 E0.0285
G1 X128.151 Y153.472 E0.0252
G1 X127.968 Y153.114 E0.0201
G1 X127.767 Y152.652 E0.0251
G1 X127.627 Y152.265 E0.0205
G1 X127.414 Y151.481 E0.0405
G1 X127.304 Y150.789 E0.0350
G1 X127.264 Y149.977 E0.0406
G1 X127.277 Y149.566 E0.0205
G1 X127.367 Y148.766 E0.0402
G1 X127.486 Y148.219 E0.0279
G1 X127.727 Y147.444 E0.0405
G1 X127.947 Y146.930 E0.0279
G1 X128.324 Y146.224 E0.0399
G1 X128.642 Y145.751 E0.0284
G1 X128.952 Y145.354 E0.0251
G1 X129.218 Y145.054 E0.0200
G1 X129.505 Y144.768 E0.0202
G0 F2400 X129.575 Y144.698
;PRINTING: grip link 1.stl
;PRINTING_ID: 0
G1 F2400 E-1.0000
M204 S1300.00
G0 F7200 X132.298 Y152.366
G0 F7200 X132.331 Y152.460
M204 S1000.00
M205 X6.00 Y6.00
;TYPE:WALL-INNER
;WIDTH:0.480
G1 F2400 E0.9700
G1 F2400 X132.198 Y152.336 E0.0091
G1 X131.902 Y152.000 E0.0223
G1 X131.801 Y151.863 E0.0085
G1 X131.580 Y151.491 E0.0216
G1 X131.415 Y151.111 E0.0207
G1 X131.301 Y150.721 E0.0203
G1 X131.237 Y150.310 E0.0208
G1 X131.223 Y149.896 E0.0207
G1 X131.264 Y149.476 E0.0211
G1 X131.300 Y149.282 E0.0098
G1 X131.417 Y148.881 E0.0208
G1 X131.487 Y148.706 E0.0094
G1 X131.688 Y148.314 E0.0220
G1 X131.785 Y148.160 E0.0091
G1 X132.048 Y147.824 E0.0213
G1 X132.342 Y147.530 E0.0207
G1 X132.491 Y147.408 E0.0096
G1 X132.842 Y147.171 E0.0211
G1 X133.221 Y146.979 E0.0212
G1 X133.393 Y146.913 E0.0092
G1 X133.596 Y146.848 E0.0106
G1 X133.998 Y146.759 E0.0205
G1 X134.422 Y146.721 E0.0212
G1 X134.605 Y146.723 E0.0091
G1 X135.042 Y146.766 E0.0219
G1 X135.227 Y146.802 E0.0094
G1 X135.640 Y146.926 E0.0215
G1 X135.815 Y146.996 E0.0094
G1 X136.186 Y147.188 E0.0208
G1 X136.936 Y147.704 E0.0454
G1 X137.370 Y147.923 E0.0243
G1 X137.624 Y148.020 E0.0136
G1 X138.091 Y148.148 E0.0242
G1 X138.582 Y148.213 E0.0247
G1 X161.194 Y148.220 E1.1281
G1 X161.653 Y148.189 E0.0230
G1 X161.920 Y148.144 E0.0135
G1 X162.376 Y148.020 E0.0236
G1 X162.631 Y147.923 E0.0136
G1 X163.068 Y147.702 E0.0244
G1 X163.615 Y147.316 E0.0334
G1 X164.010 Y147.079 E0.0230
G1 X164.171 Y147.002 E0.0089
G1 X164.571 Y146.855 E0.0213
G1 X164.756 Y146.806 E0.0095
G1 X165.173 Y146.738 E0.0211
G1 X165.596 Y146.722 E0.0211
G1 X165.801 Y146.734 E0.0102
G1 X165.990 Y146.757 E0.0095
G1 X166.400 Y146.846 E0.0209
G1 X166.800 Y146.989 E0.0212
G1 X166.978 Y147.073 E0.0098
G1 X167.151 Y147.166 E0.0098
G1 X167.499 Y147.402 E0.0210
G1 X167.823 Y147.686 E0.0215
G1 X167.945 Y147.816 E0.0089
G1 X168.215 Y148.161 E0.0219
G1 X168.312 Y148.314 E0.0090
G1 X168.513 Y148.706 E0.0220
G1 X168.583 Y148.881 E0.0094
G1 X168.698 Y149.275 E0.0205
G1 X168.763 Y149.690 E0.0210
G1 X168.777 Y150.111 E0.0210
G1 X168.765 Y150.302 E0.0095
G1 X168.696 Y150.733 E0.0218
G1 X168.653 Y150.903 E0.0087
G1 X168.504 Y151.314 E0.0218
G1 X168.425 Y151.481 E0.0092
G1 X168.207 Y151.850 E0.0214
G1 X167.945 Y152.184 E0.0212
G1 X167.823 Y152.314 E0.0089
G1 X167.499 Y152.598 E0.0215
G1 X167.158 Y152.829 E0.0205
G1 X166.792 Y153.014 E0.0205
G1 X166.400 Y153.154 E0.0208
G1 X166.002 Y153.241 E0.0203
G1 X165.589 Y153.277 E0.0207
G1 X165.173 Y153.262 E0.0208
G1 X164.756 Y153.194 E0.0211
G1 X164.571 Y153.145 E0.0095
G1 X164.171 Y152.998 E0.0213
G1 X164.010 Y152.921 E0.0089
G1 X163.615 Y152.684 E0.0230
G1 X163.068 Y152.298 E0.0334
G1 X162.621 Y152.072 E0.0250
G1 X162.161 Y151.913 E0.0243
G1 X161.897 Y151.851 E0.0135
G1 X161.431 Y151.789 E0.0235
G1 X161.183 Y151.780 E0.0124
G1 X138.582 Y151.787 E1.1276
G1 X138.103 Y151.851 E0.0241
G1 X137.839 Y151.913 E0.0135
G1 X137.380 Y152.072 E0.0242
G1 X136.936 Y152.296 E0.0248
G1 X136.186 Y152.812 E0.0454
G1 X135.815 Y153.004 E0.0208
G1 X135.641 Y153.074 E0.0094
G1 X135.234 Y153.195 E0.0212
G1 X134.826 Y153.262 E0.0206
G1 X134.411 Y153.277 E0.0207
G1 X133.998 Y153.241 E0.0207
G1 X133.600 Y153.154 E0.0203
G1 X133.208 Y153.014 E0.0208
G1 X132.833 Y152.825 E0.0210
G1 X132.672 Y152.723 E0.0095
G1 X132.410 Y152.521 E0.0165
G0 F2400 X132.331 Y152.460
G1 F2400 E-1.0000
M204 S1300.00
M205 X7.00 Y7.00
G0 F7200 X132.084 Y152.750
G0 F7200 X132.020 Y152.826
M204 S1000.00
M205 X6.00 Y6.00
;TYPE:WALL-OUTER
;WIDTH:0.480
G1 F2400 E0.9700
G1 F2400 X131.854 Y152.671 E0.0113
G1 X131.528 Y152.302 E0.0246
G1 X131.400 Y152.128 E0.0108
G1 X131.152 Y151.710 E0.0242
G1 X130.963 Y151.274 E0.0237
G1 X130.832 Y150.826 E0.0233
G1 X130.758 Y150.356 E0.0237
G1 X130.742 Y149.881 E0.0237
G1 X130.788 Y149.408 E0.0237
G1 X130.833 Y149.170 E0.0121
G1 X130.963 Y148.724 E0.0232
G1 X131.050 Y148.507 E0.0117
G1 X131.271 Y148.076 E0.0242
G1 X131.392 Y147.884 E0.0113
G1 X131.688 Y147.505 E0.0240
G1 X132.020 Y147.174 E0.0234
G1 X132.204 Y147.023 E0.0119
G1 X132.598 Y146.756 E0.0237
