;Sliced by ideaMaker 4.2.3.5600, 2022-10-10 17:17:12 UTC+0200
;Dimension: 300.000 300.000 400.000 0.400
;Plate Shape: 0
;Origin Center: 0
;Extruder Offset #1: 25.000 0.000
;Filament Diameter #1: 1.750
;Filament Diameter #2: 1.750
;Filament Compensation #1: 100.00
;Filament Compensation #2: 90.00
;Filament Density #1: 1240.00
;Filament Density #2: 1240.00
;Filament Type #1: Sunlu
;Filament Type #2: 
;Filament Name #1: Sunlu Grey PLA
;Filament Name #2: 
;Firmware: Marlin
;Bounding Box: 123.600 176.400 111.340 192.700 0.000 28.050
;Model Gap: 0.000
M92 E415.00000
M221 T0 S100.00
M140 S60.00
M104 T0 S210.00
M109 T0 S210.00
T0
M190 S60.00
M107
G28 ; home all axes
G29 ; Autoleveling processing ; à commenter si M420 actif
;M420 S1 Z10 ; Autolevel enable ; à commenter si G29 actif
;vous avez 2 choix, soit activer le G29 pour faire un autoleveling du plateau avant chaque impression
;C'est la méthode recvommandé par ARtillery3Dexpert.fr
;soit activer la ligne qui commance par M420 pour faire un rappel de la derniere mesure du plateau
;pour gagner du temp ( non recommandé par artillery3Dexpert.fr )
M500 ; sauvegarde eeprom
M117 Purge extruder
G92 E0 ; reset extruder
G1 Z1.0 F3000 ; move z up little to prevent scratching of surface
G1 X2 Y20 Z0.3 F5000.0 ; move to start-line position
G1 X2 Y200.0 Z0.3 F1500.0 E15 ; draw 1st line
G1 X2 Y200.0 Z0.4 F5000.0 ; move to side a little
G1 X2 Y20 Z0.4 F1500.0 E30 ; draw 2nd line
G92 E0 ; reset extruder
G1 Z1.0 F3000 ; move z up little to prevent scratching of surface
;TOTAL_NUM: 1
;PRINTING_TIME: 0
;REMAINING_TIME: 2703
M83
;LAYER:0
;Z:0.250
;HEIGHT:0.250
M106 S0
;PRINTING: NON-OBJECT
;PRINTING_ID: -1
G1 F2400 E-1.0000
M204 S1300.00
M205 X7.00 Y7.00
G0 F7200 X129.826 Y112.593
G0 F900 Z0.250
G0 F7200 X129.901 Y112.658
M204 S1250.00
;TYPE:SKIRT
;WIDTH:0.480
G1 F2400 E0.9700
G1 F2400 X130.283 Y112.302 E0.0261
G1 X130.822 Y111.926 E0.0328
G1 X131.289 Y111.690 E0.0261
G1 X132.159 Y111.425 E0.0454
G1 X132.979 Y111.340 E0.0411
G1 X142.556 Y111.347 E0.4778
G1 X143.216 Y111.402 E0.0330
G1 X143.787 Y111.533 E0.0292
G1 X144.214 Y111.690 E0.0227
G1 X144.854 Y112.035 E0.0363
G1 X145.325 Y112.393 E0.0295
G1 X145.695 Y112.762 E0.0261
G1 X146.013 Y113.169 E0.0258
G1 X146.310 Y113.673 E0.0292
G1 X146.580 Y114.357 E0.0367
G1 X146.706 Y114.938 E0.0297
G1 X146.754 Y115.548 E0.0305
G1 X146.753 Y118.884 E0.1664
G1 X146.719 Y119.404 E0.0260
G1 X146.568 Y120.115 E0.0363
G1 X146.411 Y120.542 E0.0227
G1 X146.142 Y121.061 E0.0292
G1 X146.000 Y121.268 E0.0125
G1 X146.000 Y139.292 E0.8992
G1 X152.183 Y139.301 E0.3085
G1 X153.070 Y139.355 E0.0443
G1 X153.756 Y139.461 E0.0346
G1 X154.086 Y139.534 E0.0169
G1 X154.756 Y139.731 E0.0348
G1 X155.505 Y140.023 E0.0401
G1 X156.141 Y140.344 E0.0355
G1 X156.742 Y140.713 E0.0352
G1 X156.996 Y140.893 E0.0155
G1 X157.524 Y141.315 E0.0337
G1 X157.822 Y141.588 E0.0202
G1 X165.546 Y149.299 E0.5445
G1 X168.250 Y149.300 E0.1349
G1 X168.777 Y149.322 E0.0263
G1 X169.532 Y149.410 E0.0379
G1 X169.909 Y149.482 E0.0191
G1 X170.311 Y149.579 E0.0206
G1 X170.961 Y149.782 E0.0340
G1 X171.740 Y150.106 E0.0421
G1 X172.360 Y150.436 E0.0350
G1 X172.641 Y150.609 E0.0165
G1 X173.311 Y151.091 E0.0412
G1 X173.864 Y151.575 E0.0367
G1 X174.125 Y151.836 E0.0184
G1 X174.609 Y152.389 E0.0367
G1 X175.113 Y153.094 E0.0432
G1 X175.441 Y153.656 E0.0325
G1 X175.801 Y154.428 E0.0425
G1 X176.031 Y155.078 E0.0344
G1 X176.236 Y155.886 E0.0416
G1 X176.348 Y156.592 E0.0357
G1 X176.380 Y156.944 E0.0176
G1 X176.400 Y157.462 E0.0259
G1 X176.400 Y169.550 E0.6031
G1 X176.376 Y170.098 E0.0274
G1 X176.292 Y170.810 E0.0358
G1 X176.218 Y171.208 E0.0202
G1 X176.036 Y171.909 E0.0361
G1 X175.912 Y172.281 E0.0196
G1 X175.623 Y172.977 E0.0376
G1 X175.466 Y173.296 E0.0177
G1 X175.051 Y174.001 E0.0408
G1 X174.599 Y174.623 E0.0384
G1 X174.142 Y175.147 E0.0347
G1 X173.580 Y175.686 E0.0388
G1 X173.296 Y175.922 E0.0184
G1 X172.654 Y176.382 E0.0394
G1 X172.350 Y176.570 E0.0178
G1 X171.696 Y176.915 E0.0369
G1 X171.285 Y177.094 E0.0224
G1 X170.587 Y177.343 E0.0370
G1 X170.302 Y177.424 E0.0148
G1 X169.514 Y177.591 E0.0402
G1 X169.102 Y177.648 E0.0208
G1 X168.727 Y177.681 E0.0188
G1 X168.135 Y177.700 E0.0296
G1 X166.046 Y177.706 E0.1042
G1 X158.455 Y189.087 E0.6825
G1 X158.124 Y189.541 E0.0280
G1 X157.706 Y190.036 E0.0323
G1 X157.123 Y190.611 E0.0409
G1 X156.590 Y191.049 E0.0344
G1 X155.948 Y191.487 E0.0388
G1 X155.382 Y191.804 E0.0324
G1 X154.625 Y192.142 E0.0414
G1 X153.990 Y192.359 E0.0335
G1 X153.274 Y192.536 E0.0368
G1 X152.599 Y192.643 E0.0341
G1 X151.659 Y192.700 E0.0470
G1 X139.890 Y192.700 E0.5872
G1 X139.308 Y192.673 E0.0291
G1 X138.664 Y192.597 E0.0324
G1 X138.280 Y192.527 E0.0195
G1 X137.869 Y192.430 E0.0211
G1 X137.204 Y192.228 E0.0347
G1 X136.874 Y192.102 E0.0176
G1 X136.218 Y191.804 E0.0359
G1 X135.647 Y191.484 E0.0327
G1 X135.255 Y191.227 E0.0234
G1 X134.656 Y190.766 E0.0377
G1 X134.120 Y190.272 E0.0364
G1 X133.629 Y189.731 E0.0364
G1 X133.218 Y189.191 E0.0339
G1 X124.949 Y176.793 E0.7435
G1 X124.525 Y176.068 E0.0419
G1 X124.257 Y175.500 E0.0313
G1 X124.099 Y175.101 E0.0214
G1 X123.912 Y174.525 E0.0302
G1 X123.821 Y174.173 E0.0181
G1 X123.689 Y173.483 E0.0350
G1 X123.647 Y173.150 E0.0167
G1 X123.600 Y172.289 E0.0430
G1 X123.600 Y156.198 E0.8028
G1 X123.659 Y155.250 E0.0474
G1 X123.785 Y154.490 E0.0384
G1 X123.955 Y153.830 E0.0340
G1 X124.075 Y153.463 E0.0193
G1 X124.351 Y152.787 E0.0364
G1 X124.748 Y152.031 E0.0426
G1 X125.159 Y151.403 E0.0374
G1 X125.688 Y150.742 E0.0422
G1 X129.594 Y146.365 E0.2927
G1 X129.600 Y121.401 E1.2455
G1 X129.410 Y121.146 E0.0159
G1 X129.128 Y120.629 E0.0294
G1 X128.920 Y120.075 E0.0295
G1 X128.793 Y119.493 E0.0297
G1 X128.745 Y118.889 E0.0302
G1 X128.740 Y115.588 E0.1647
G1 X128.807 Y114.854 E0.0368
G1 X128.961 Y114.229 E0.0321
G1 X129.220 Y113.614 E0.0333
G1 X129.488 Y113.166 E0.0260
G1 X129.838 Y112.735 E0.0277
G0 F2400 X129.901 Y112.658
M204 S1300.00
G0 F7200 X130.160 Y112.936
G0 F7200 X130.228 Y113.009
M204 S1250.00
G1 F2400 X130.610 Y112.653 E0.0261
G1 X131.038 Y112.354 E0.0260
G1 X131.505 Y112.118 E0.0261
G1 X132.295 Y111.885 E0.0411
G1 X132.979 Y111.820 E0.0343
G1 X142.556 Y111.827 E0.4778
G1 X143.111 Y111.870 E0.0278
G1 X143.621 Y111.984 E0.0261
G1 X144.048 Y112.141 E0.0227
G1 X144.567 Y112.420 E0.0294
G1 X144.986 Y112.733 E0.0261
G1 X145.356 Y113.102 E0.0261
G1 X145.633 Y113.462 E0.0227
G1 X145.895 Y113.914 E0.0261
G1 X146.112 Y114.463 E0.0295
G1 X146.228 Y114.977 E0.0263
G1 X146.274 Y115.548 E0.0286
G1 X146.273 Y118.884 E0.1664
G1 X146.240 Y119.372 E0.0244
G1 X146.117 Y119.949 E0.0294
G1 X145.960 Y120.376 E0.0227
G1 X145.717 Y120.838 E0.0260
G1 X145.520 Y121.115 E0.0170
G1 X145.520 Y139.411 E0.9128
G1 X145.542 Y139.592 E0.0091
G1 X145.578 Y139.662 E0.0039
G1 X145.684 Y139.748 E0.0068
G1 X145.765 Y139.772 E0.0042
G1 X152.155 Y139.780 E0.3188
G1 X152.997 Y139.829 E0.0421
G1 X153.652 Y139.930 E0.0331
G1 X153.982 Y140.003 E0.0169
G1 X154.621 Y140.191 E0.0332
G1 X155.290 Y140.452 E0.0358
G1 X155.890 Y140.753 E0.0335
G1 X156.466 Y141.106 E0.0337
G1 X156.697 Y141.268 E0.0141
G1 X157.201 Y141.670 E0.0322
G1 X157.483 Y141.927 E0.0190
G1 X165.179 Y149.619 E0.5429
G1 X165.339 Y149.748 E0.0103
G1 X165.406 Y149.770 E0.0035
G1 X165.546 Y149.780 E0.0070
G1 X168.230 Y149.780 E0.1339
G1 X168.757 Y149.802 E0.0263
G1 X169.476 Y149.887 E0.0361
G1 X169.796 Y149.949 E0.0163
G1 X170.198 Y150.046 E0.0206
G1 X170.818 Y150.240 E0.0324
G1 X171.515 Y150.530 E0.0377
G1 X172.108 Y150.845 E0.0335
G1 X172.389 Y151.018 E0.0165
G1 X172.996 Y151.453 E0.0373
G1 X173.525 Y151.914 E0.0350
G1 X173.786 Y152.175 E0.0184
G1 X174.247 Y152.704 E0.0350
G1 X174.698 Y153.336 E0.0387
G1 X175.026 Y153.898 E0.0325
G1 X175.348 Y154.588 E0.0380
G1 X175.578 Y155.238 E0.0344
G1 X175.762 Y155.962 E0.0373
G1 X175.870 Y156.636 E0.0341
G1 X175.900 Y156.963 E0.0164
G1 X175.920 Y157.481 E0.0259
G1 X175.920 Y169.530 E0.6011
G1 X175.899 Y170.042 E0.0256
G1 X175.815 Y170.754 E0.0358
G1 X175.753 Y171.087 E0.0169
G1 X175.571 Y171.788 E0.0361
G1 X175.457 Y172.128 E0.0179
G1 X175.180 Y172.792 E0.0359
G1 X175.036 Y173.083 E0.0162
G1 X174.662 Y173.720 E0.0369
G1 X174.237 Y174.308 E0.0362
G1 X173.780 Y174.832 E0.0347
G1 X173.273 Y175.317 E0.0350
G1 X172.989 Y175.553 E0.0184
G1 X172.401 Y175.974 E0.0361
G1 X172.126 Y176.145 E0.0162
G1 X171.472 Y176.490 E0.0369
G1 X171.094 Y176.654 E0.0206
G1 X170.456 Y176.881 E0.0338
G1 X170.171 Y176.962 E0.0148
G1 X169.448 Y177.116 E0.0369
G1 X169.059 Y177.170 E0.0196
G1 X168.711 Y177.201 E0.0174
G1 X168.134 Y177.220 E0.0288
G1 X165.917 Y177.226 E0.1106
G1 X165.831 Y177.249 E0.0044
G1 X165.766 Y177.291 E0.0039
G1 X165.655 Y177.424 E0.0086
G1 X158.066 Y188.805 E0.6825
G1 X157.757 Y189.231 E0.0263
G1 X157.339 Y189.726 E0.0323
G1 X156.818 Y190.240 E0.0365
G1 X156.285 Y190.678 E0.0344
G1 X155.713 Y191.068 E0.0345
G1 X155.147 Y191.385 E0.0324
G1 X154.468 Y191.688 E0.0371
G1 X153.875 Y191.893 E0.0313
G1 X153.159 Y192.070 E0.0368
G1 X152.525 Y192.169 E0.0320
G1 X151.659 Y192.220 E0.0433
G1 X139.911 Y192.220 E0.5861
G1 X139.364 Y192.196 E0.0273
G1 X138.720 Y192.120 E0.0324
G1 X138.389 Y192.060 E0.0168
G1 X138.008 Y191.971 E0.0195
G1 X137.374 Y191.779 E0.0330
G1 X137.072 Y191.665 E0.0161
G1 X136.453 Y191.385 E0.0339
G1 X135.882 Y191.065 E0.0327
G1 X135.519 Y190.826 E0.0217
G1 X134.980 Y190.412 E0.0339
G1 X134.475 Y189.949 E0.0342
G1 X134.011 Y189.440 E0.0344
G1 X133.600 Y188.900 E0.0339
G1 X125.363 Y176.550 E0.7406
G1 X124.959 Y175.863 E0.0398
G1 X124.703 Y175.322 E0.0299
G1 X124.556 Y174.953 E0.0198
G1 X124.369 Y174.377 E0.0302
G1 X124.292 Y174.082 E0.0152
G1 X124.165 Y173.423 E0.0335
G1 X124.123 Y173.090 E0.0167
G1 X124.080 Y172.289 E0.0400
G1 X124.080 Y156.198 E0.8028
G1 X124.133 Y155.327 E0.0435
G1 X124.250 Y154.610 E0.0362
G1 X124.420 Y153.950 E0.0340
G1 X124.531 Y153.614 E0.0177
G1 X124.795 Y152.969 E0.0348
G1 X125.150 Y152.293 E0.0381
G1 X125.534 Y151.703 E0.0351
G1 X126.046 Y151.062 E0.0409
G1 X129.938 Y146.708 E0.2914
G1 X130.052 Y146.551 E0.0097
G1 X130.074 Y146.461 E0.0046
G1 X130.080 Y121.238 E1.2584
G1 X129.830 Y120.913 E0.0205
G1 X129.576 Y120.456 E0.0261
G1 X129.388 Y119.969 E0.0260
G1 X129.271 Y119.454 E0.0263
G1 X129.225 Y118.888 E0.0283
G1 X129.220 Y115.587 E0.1647
G1 X129.285 Y114.899 E0.0345
G1 X129.426 Y114.348 E0.0284
G1 X129.661 Y113.804 E0.0296
G1 X129.898 Y113.416 E0.0227
G1 X130.165 Y113.086 E0.0212
G0 F2400 X130.228 Y113.009
M204 S1300.00
G0 F7200 X130.521 Y113.252
G0 F7200 X130.598 Y113.315
M204 S1250.00
G1 F2400 X130.934 Y113.007 E0.0227
G1 X131.309 Y112.750 E0.0227
G1 X131.717 Y112.549 E0.0227
G1 X132.342 Y112.363 E0.0325
G1 X132.979 Y112.300 E0.0319
G1 X142.556 Y112.307 E0.4778
G1 X143.010 Y112.339 E0.0227
G1 X143.455 Y112.435 E0.0227
G1 X143.882 Y112.592 E0.0227
G1 X144.283 Y112.807 E0.0227
G1 X144.650 Y113.076 E0.0227
G1 X144.976 Y113.395 E0.0228
G1 X145.253 Y113.755 E0.0227
G1 X145.478 Y114.151 E0.0227
G1 X145.645 Y114.574 E0.0227
G1 X145.750 Y115.017 E0.0227
G1 X145.794 Y115.548 E0.0266
G1 X145.793 Y118.884 E0.1664
G1 X145.761 Y119.338 E0.0227
G1 X145.666 Y119.783 E0.0227
G1 X145.509 Y120.210 E0.0227
G1 X145.294 Y120.611 E0.0227
G1 X145.040 Y120.956 E0.0214
G1 X145.040 Y139.436 E0.9220
G1 X145.074 Y139.714 E0.0140
G1 X145.119 Y139.830 E0.0062
G1 X145.191 Y139.949 E0.0069
G1 X145.288 Y140.057 E0.0072
G1 X145.458 Y140.175 E0.0103
G1 X145.590 Y140.227 E0.0071
G1 X145.717 Y140.252 E0.0065
G1 X152.154 Y140.260 E0.3211
G1 X152.925 Y140.304 E0.0385
G1 X153.548 Y140.399 E0.0314
G1 X153.878 Y140.472 E0.0169
G1 X154.485 Y140.651 E0.0316
G1 X155.076 Y140.882 E0.0317
G1 X155.640 Y141.163 E0.0314
G1 X156.190 Y141.499 E0.0322
G1 X156.421 Y141.661 E0.0141
G1 X156.901 Y142.045 E0.0307
G1 X157.159 Y142.281 E0.0174
G1 X164.863 Y149.981 E0.5434
G1 X165.084 Y150.159 E0.0142
G1 X165.199 Y150.211 E0.0063
G1 X165.329 Y150.246 E0.0067
G1 X165.526 Y150.260 E0.0099
G1 X168.210 Y150.260 E0.1339
G1 X168.737 Y150.282 E0.0263
G1 X169.386 Y150.359 E0.0326
G1 X169.685 Y150.416 E0.0152
G1 X170.055 Y150.504 E0.0190
G1 X170.675 Y150.698 E0.0324
G1 X171.290 Y150.954 E0.0332
G1 X171.883 Y151.269 E0.0335
G1 X172.137 Y151.426 E0.0149
G1 X172.682 Y151.816 E0.0334
G1 X173.186 Y152.253 E0.0333
G1 X173.447 Y152.514 E0.0184
G1 X173.884 Y153.018 E0.0333
G1 X174.283 Y153.578 E0.0343
G1 X174.611 Y154.140 E0.0325
G1 X174.895 Y154.748 E0.0335
G1 X175.125 Y155.398 E0.0344
G1 X175.288 Y156.039 E0.0330
G1 X175.392 Y156.680 E0.0324
G1 X175.420 Y156.982 E0.0151
G1 X175.440 Y157.500 E0.0259
G1 X175.440 Y169.510 E0.5992
G1 X175.419 Y170.022 E0.0256
G1 X175.338 Y170.697 E0.0339
G1 X175.281 Y170.998 E0.0153
G1 X175.116 Y171.635 E0.0328
G1 X175.002 Y171.975 E0.0179
G1 X174.737 Y172.606 E0.0341
G1 X174.606 Y172.869 E0.0147
G1 X174.272 Y173.440 E0.0330
G1 X173.875 Y173.993 E0.0340
G1 X173.447 Y174.486 E0.0326
G1 X172.966 Y174.948 E0.0333
G1 X172.682 Y175.184 E0.0184
G1 X172.122 Y175.583 E0.0343
G1 X171.874 Y175.736 E0.0145
G1 X171.280 Y176.050 E0.0335
G1 X170.932 Y176.202 E0.0189
G1 X170.325 Y176.419 E0.0322
G1 X170.040 Y176.500 E0.0148
G1 X169.382 Y176.641 E0.0336
G1 X169.016 Y176.692 E0.0184
G1 X168.695 Y176.721 E0.0161
G1 X168.133 Y176.740 E0.0281
G1 X165.873 Y176.746 E0.1128
G1 X165.737 Y176.772 E0.0069
G1 X165.616 Y176.817 E0.0064
G1 X165.444 Y176.928 E0.0102
G1 X165.272 Y177.134 E0.0134
G1 X157.677 Y188.524 E0.6830
G1 X157.390 Y188.921 E0.0244
G1 X156.972 Y189.416 E0.0323
G1 X156.512 Y189.870 E0.0322
G1 X156.014 Y190.282 E0.0322
G1 X155.478 Y190.649 E0.0324
G1 X154.912 Y190.966 E0.0324
G1 X154.311 Y191.234 E0.0328
G1 X153.718 Y191.439 E0.0313
G1 X153.085 Y191.596 E0.0325
G1 X152.451 Y191.695 E0.0320
G1 X151.659 Y191.740 E0.0396
G1 X139.931 Y191.740 E0.5851
G1 X139.420 Y191.719 E0.0255
G1 X138.776 Y191.643 E0.0324
G1 X138.496 Y191.592 E0.0142
G1 X138.147 Y191.512 E0.0179
G1 X137.542 Y191.329 E0.0315
G1 X137.269 Y191.227 E0.0145
G1 X136.688 Y190.966 E0.0318
G1 X136.117 Y190.646 E0.0327
G1 X135.810 Y190.444 E0.0183
G1 X135.304 Y190.058 E0.0318
G1 X134.829 Y189.624 E0.0321
G1 X134.392 Y189.148 E0.0322
G1 X133.999 Y188.634 E0.0323
G1 X125.776 Y176.305 E0.7394
G1 X125.393 Y175.658 E0.0375
G1 X125.137 Y175.117 E0.0299
G1 X125.013 Y174.805 E0.0168
G1 X124.826 Y174.229 E0.0302
G1 X124.757 Y173.962 E0.0138
G1 X124.641 Y173.363 E0.0304
G1 X124.599 Y173.030 E0.0167
G1 X124.560 Y172.289 E0.0370
G1 X124.560 Y156.198 E0.8028
G1 X124.607 Y155.403 E0.0397
G1 X124.715 Y154.729 E0.0341
G1 X124.876 Y154.101 E0.0323
G1 X124.987 Y153.765 E0.0177
G1 X125.239 Y153.152 E0.0331
G1 X125.553 Y152.553 E0.0337
G1 X125.909 Y152.002 E0.0327
G1 X126.404 Y151.382 E0.0396
G1 X130.311 Y147.012 E0.2925
G1 X130.478 Y146.781 E0.0142
G1 X130.528 Y146.652 E0.0069
G1 X130.554 Y146.505 E0.0074
G1 X130.560 Y121.070 E1.2690
G1 X130.247 Y120.676 E0.0251
G1 X130.022 Y120.280 E0.0227
G1 X129.855 Y119.857 E0.0227
G1 X129.749 Y119.414 E0.0227
G1 X129.705 Y118.887 E0.0264
G1 X129.700 Y115.586 E0.1647
G1 X129.763 Y114.946 E0.0321
G1 X129.890 Y114.472 E0.0245
G1 X130.071 Y114.054 E0.0227
G1 X130.308 Y113.666 E0.0227
G1 X130.535 Y113.392 E0.0178
G0 F2400 X130.598 Y113.315
;PRINTING: Gripper base.stl
;PRINTING_ID: 0
G1 F2400 E-1.0000
M204 S1300.00
G0 F7200 X137.378 Y186.458
G0 F7200 X137.387 Y186.557
M204 S1000.00
M205 X6.00 Y6.00
;TYPE:WALL-INNER
;WIDTH:0.480
G1 F2400 E0.9700
G1 F2400 X137.200 Y186.302 E0.0158
G1 X129.077 Y174.117 E0.7306
G1 X128.926 Y173.869 E0.0145
G1 X128.808 Y173.632 E0.0132
G1 X128.704 Y173.369 E0.0141
G1 X128.623 Y173.104 E0.0138
G1 X128.565 Y172.829 E0.0140
G1 X128.533 Y172.569 E0.0131
G1 X128.520 Y172.279 E0.0145
G1 X128.520 Y156.222 E0.8011
G1 X128.535 Y155.910 E0.0156
G1 X128.577 Y155.605 E0.0154
G1 X128.646 Y155.309 E0.0152
G1 X128.736 Y155.039 E0.0142
G1 X128.856 Y154.763 E0.0150
G1 X129.005 Y154.494 E0.0153
G1 X129.174 Y154.243 E0.0151
G1 X129.362 Y154.015 E0.0147
G1 X133.330 Y149.578 E0.2970
G1 X133.597 Y149.247 E0.0212
G1 X133.836 Y148.892 E0.0214
G1 X134.038 Y148.524 E0.0209
G1 X134.210 Y148.129 E0.0215
G1 X134.345 Y147.720 E0.0215
G1 X134.443 Y147.301 E0.0215
G1 X134.500 Y146.875 E0.0214
G1 X134.520 Y146.461 E0.0207
G1 X134.520 Y120.509 E1.2948
