;Sliced by ideaMaker 4.2.3.5600, 2022-10-11 08:59:12 UTC+0200
;Dimension: 300.000 300.000 400.000 0.400
;Plate Shape: 0
;Origin Center: 0
;Extruder Offset #1: 25.000 0.000
;Filament Diameter #1: 1.750
;Filament Diameter #2: 1.750
;Filament Compensation #1: 100.00
;Filament Compensation #2: 90.00
;Filament Density #1: 1240.00
;Filament Density #2: 1240.00
;Filament Type #1: Sunlu
;Filament Type #2: 
;Filament Name #1: Sunlu Grey PLA
;Filament Name #2: 
;Firmware: Marlin
;Bounding Box: 113.145 186.854 135.605 164.396 0.000 15.450
;Model Gap: 0.000
M92 E415.00000
M221 T0 S100.00
M140 S60.00
M104 T0 S210.00
M109 T0 S210.00
T0
M190 S60.00
M107
G28 ; home all axes
G29 ; Autoleveling processing ; à commenter si M420 actif
;M420 S1 Z10 ; Autolevel enable ; à commenter si G29 actif
;vous avez 2 choix, soit activer le G29 pour faire un autoleveling du plateau avant chaque impression
;C'est la méthode recvommandé par ARtillery3Dexpert.fr
;soit activer la ligne qui commance par M420 pour faire un rappel de la derniere mesure du plateau
;pour gagner du temp ( non recommandé par artillery3Dexpert.fr )
M500 ; sauvegarde eeprom
M117 Purge extruder
G92 E0 ; reset extruder
G1 Z1.0 F3000 ; move z up little to prevent scratching of surface
G1 X2 Y20 Z0.3 F5000.0 ; move to start-line position
G1 X2 Y200.0 Z0.3 F1500.0 E15 ; draw 1st line
G1 X2 Y200.0 Z0.4 F5000.0 ; move to side a little
G1 X2 Y20 Z0.4 F1500.0 E30 ; draw 2nd line
G92 E0 ; reset extruder
G1 Z1.0 F3000 ; move z up little to prevent scratching of surface
;TOTAL_NUM: 1
;PRINTING_TIME: 0
;REMAINING_TIME: 1012
M83
;LAYER:0
;Z:0.250
;HEIGHT:0.250
M106 S0
;PRINTING: NON-OBJECT
;PRINTING_ID: -1
G1 F2400 E-1.0000
M204 S1300.00
M205 X7.00 Y7.00
G0 F7200 X116.153 Y137.866
G0 F900 Z0.250
G0 F7200 X116.217 Y137.942
M204 S1250.00
;TYPE:SKIRT
;WIDTH:0.480
G1 F2400 E0.9700
G1 F2400 X116.727 Y137.518 E0.0331
G1 X117.027 Y137.296 E0.0186
G1 X117.635 Y136.901 E0.0362
G1 X118.508 Y136.442 E0.0492
G1 X119.070 Y136.206 E0.0304
G1 X119.778 Y135.968 E0.0373
G1 X120.139 Y135.871 E0.0186
G1 X120.809 Y135.734 E0.0341
G1 X121.554 Y135.640 E0.0375
G1 X122.222 Y135.605 E0.0334
G1 X144.489 Y135.606 E1.1109
G1 X145.198 Y135.644 E0.0354
G1 X145.573 Y135.687 E0.0188
G1 X146.573 Y135.879 E0.0508
G1 X147.221 Y136.066 E0.0336
G1 X147.576 Y136.191 E0.0188
G1 X148.362 Y136.526 E0.0426
G1 X157.264 Y140.848 E0.4937
G1 X158.008 Y141.312 E0.0437
G1 X158.976 Y142.065 E0.0612
G1 X159.499 Y142.447 E0.0323
G1 X159.882 Y142.713 E0.0233
G1 X160.903 Y143.373 E0.0607
G1 X161.907 Y143.958 E0.0580
G1 X162.859 Y144.453 E0.0535
G1 X163.855 Y144.912 E0.0547
G1 X164.992 Y145.368 E0.0611
G1 X165.419 Y145.521 E0.0226
G1 X166.559 Y145.881 E0.0596
G1 X167.660 Y146.165 E0.0567
G1 X168.163 Y146.274 E0.0257
G1 X169.271 Y146.474 E0.0562
G1 X170.428 Y146.626 E0.0582
G1 X171.494 Y146.711 E0.0534
G1 X172.685 Y146.754 E0.0595
G1 X173.844 Y146.744 E0.0578
G1 X175.127 Y146.677 E0.0641
G1 X175.582 Y146.684 E0.0227
G1 X176.316 Y146.803 E0.0371
G1 X176.922 Y147.004 E0.0319
G1 X184.294 Y150.124 E0.3994
G1 X184.818 Y150.394 E0.0294
G1 X185.357 Y150.777 E0.0330
G1 X185.736 Y151.138 E0.0261
G1 X186.105 Y151.598 E0.0294
G1 X186.406 Y152.104 E0.0294
G1 X186.633 Y152.648 E0.0294
G1 X186.783 Y153.218 E0.0294
G1 X186.854 Y153.870 E0.0327
G1 X186.835 Y154.390 E0.0260
G1 X186.737 Y154.976 E0.0296
G1 X186.524 Y155.630 E0.0343
G1 X184.963 Y159.313 E0.1996
G1 X184.694 Y159.838 E0.0294
G1 X184.313 Y160.373 E0.0328
G1 X183.955 Y160.749 E0.0259
G1 X183.487 Y161.125 E0.0300
G1 X182.852 Y161.489 E0.0365
G1 X181.510 Y162.106 E0.0737
G1 X180.750 Y162.418 E0.0410
G1 X180.034 Y162.687 E0.0382
G1 X178.751 Y163.120 E0.0676
G1 X177.753 Y163.412 E0.0519
G1 X176.809 Y163.652 E0.0486
G1 X176.001 Y163.829 E0.0413
G1 X174.975 Y164.019 E0.0521
G1 X174.160 Y164.141 E0.0411
G1 X173.264 Y164.247 E0.0450
G1 X172.192 Y164.335 E0.0537
G1 X171.265 Y164.380 E0.0463
G1 X170.337 Y164.396 E0.0463
G1 X169.494 Y164.387 E0.0421
G1 X168.454 Y164.341 E0.0519
G1 X167.618 Y164.279 E0.0418
G1 X166.708 Y164.187 E0.0456
G1 X165.642 Y164.047 E0.0536
G1 X163.858 Y163.742 E0.0903
G1 X162.120 Y163.365 E0.0887
G1 X160.439 Y162.931 E0.0866
G1 X158.784 Y162.443 E0.0861
G1 X157.966 Y162.185 E0.0428
G1 X155.480 Y161.325 E0.1312
G1 X153.103 Y160.427 E0.1268
G1 X146.929 Y157.958 E0.3317
G1 X145.430 Y157.372 E0.0803
G1 X143.152 Y156.523 E0.1213
G1 X141.703 Y156.019 E0.0765
G1 X140.251 Y155.556 E0.0760
G1 X138.816 Y155.144 E0.0745
G1 X137.338 Y154.775 E0.0760
G1 X135.943 Y154.484 E0.0711
G1 X134.538 Y154.255 E0.0710
G1 X133.131 Y154.096 E0.0706
G1 X132.445 Y154.047 E0.0343
G1 X131.718 Y154.014 E0.0363
G1 X130.991 Y154.004 E0.0363
G1 X122.169 Y153.999 E0.4401
G1 X121.485 Y153.960 E0.0342
G1 X120.825 Y153.876 E0.0332
G1 X120.427 Y153.800 E0.0202
G1 X119.723 Y153.620 E0.0363
G1 X119.070 Y153.400 E0.0344
G1 X118.508 Y153.164 E0.0304
G1 X117.609 Y152.690 E0.0507
G1 X117.243 Y152.458 E0.0216
G1 X116.739 Y152.096 E0.0310
G1 X115.994 Y151.458 E0.0489
G1 X115.512 Y150.963 E0.0345
G1 X115.248 Y150.657 E0.0202
G1 X114.657 Y149.857 E0.0496
G1 X114.429 Y149.490 E0.0216
G1 X114.114 Y148.909 E0.0330
G1 X113.753 Y148.089 E0.0447
G1 X113.507 Y147.364 E0.0382
G1 X113.410 Y147.002 E0.0187
G1 X113.230 Y146.049 E0.0484
G1 X113.159 Y145.333 E0.0359
G1 X113.145 Y144.902 E0.0215
G1 X113.159 Y144.286 E0.0307
G1 X113.260 Y143.354 E0.0468
G1 X113.416 Y142.586 E0.0391
G1 X113.606 Y141.925 E0.0343
G1 X113.815 Y141.355 E0.0303
G1 X113.986 Y140.960 E0.0215
G1 X114.463 Y140.058 E0.0509
G1 X114.798 Y139.541 E0.0307
G1 X115.053 Y139.193 E0.0215
G1 X115.517 Y138.638 E0.0361
G1 X116.147 Y138.012 E0.0443
G0 F2400 X116.217 Y137.942
M204 S1300.00
G0 F7200 X116.461 Y138.235
G0 F7200 X116.524 Y138.311
M204 S1250.00
G1 F2400 X117.013 Y137.904 E0.0317
G1 X117.313 Y137.682 E0.0186
G1 X117.896 Y137.304 E0.0347
G1 X118.694 Y136.885 E0.0450
G1 X119.256 Y136.649 E0.0304
G1 X119.903 Y136.432 E0.0340
G1 X120.264 Y136.335 E0.0186
G1 X120.905 Y136.204 E0.0326
G1 X121.579 Y136.119 E0.0339
G1 X122.222 Y136.085 E0.0321
G1 X144.489 Y136.086 E1.1109
G1 X145.143 Y136.121 E0.0327
G1 X145.518 Y136.164 E0.0188
G1 X146.440 Y136.340 E0.0468
G1 X147.062 Y136.519 E0.0323
G1 X147.417 Y136.644 E0.0188
G1 X148.152 Y136.958 E0.0399
G1 X157.054 Y141.280 E0.4937
G1 X157.713 Y141.691 E0.0387
G1 X158.693 Y142.453 E0.0619
G1 X159.216 Y142.835 E0.0323
G1 X159.621 Y143.116 E0.0246
G1 X160.647 Y143.780 E0.0610
G1 X161.676 Y144.379 E0.0594
G1 X162.651 Y144.886 E0.0548
G1 X163.676 Y145.358 E0.0563
G1 X164.813 Y145.814 E0.0611
G1 X165.264 Y145.976 E0.0239
G1 X166.429 Y146.343 E0.0609
G1 X167.542 Y146.631 E0.0574
G1 X168.059 Y146.743 E0.0264
G1 X169.206 Y146.950 E0.0581
G1 X170.367 Y147.102 E0.0584
G1 X171.477 Y147.191 E0.0556
G1 X172.672 Y147.234 E0.0597
G1 X173.850 Y147.224 E0.0588
G1 X175.120 Y147.157 E0.0634
G1 X175.575 Y147.164 E0.0227
G1 X176.166 Y147.259 E0.0299
G1 X176.735 Y147.446 E0.0299
G1 X184.107 Y150.566 E0.3994
G1 X184.543 Y150.788 E0.0244
G1 X185.026 Y151.125 E0.0294
G1 X185.405 Y151.486 E0.0261
G1 X185.728 Y151.895 E0.0260
G1 X185.992 Y152.346 E0.0261
G1 X186.189 Y152.829 E0.0260
G1 X186.318 Y153.336 E0.0261
G1 X186.374 Y153.857 E0.0261
G1 X186.362 Y154.311 E0.0227
G1 X186.264 Y154.897 E0.0296
G1 X186.082 Y155.443 E0.0287
G1 X184.521 Y159.126 E0.1996
G1 X184.301 Y159.562 E0.0244
G1 X183.962 Y160.045 E0.0294
G1 X183.651 Y160.378 E0.0227
G1 X183.247 Y160.709 E0.0261
G1 X182.652 Y161.053 E0.0343
G1 X181.327 Y161.662 E0.0728
G1 X180.581 Y161.969 E0.0402
G1 X179.880 Y162.232 E0.0374
G1 X178.616 Y162.659 E0.0666
G1 X177.618 Y162.951 E0.0519
G1 X176.706 Y163.183 E0.0469
G1 X175.914 Y163.357 E0.0405
G1 X174.904 Y163.544 E0.0512
G1 X174.104 Y163.664 E0.0404
G1 X173.208 Y163.770 E0.0450
G1 X172.169 Y163.856 E0.0520
G1 X171.257 Y163.900 E0.0456
G1 X170.342 Y163.916 E0.0457
G1 X169.515 Y163.907 E0.0413
G1 X168.489 Y163.862 E0.0512
G1 X167.666 Y163.801 E0.0412
G1 X166.756 Y163.709 E0.0456
G1 X165.723 Y163.574 E0.0520
G1 X163.960 Y163.273 E0.0892
G1 X162.240 Y162.900 E0.0878
G1 X160.559 Y162.466 E0.0866
G1 X158.920 Y161.983 E0.0852
G1 X158.123 Y161.731 E0.0417
G1 X155.637 Y160.871 E0.1312
G1 X153.273 Y159.978 E0.1261
G1 X147.107 Y157.512 E0.3313
G1 X145.598 Y156.922 E0.0808
G1 X143.320 Y156.073 E0.1213
G1 X141.849 Y155.562 E0.0777
G1 X140.397 Y155.099 E0.0760
G1 X138.933 Y154.679 E0.0760
G1 X137.455 Y154.309 E0.0760
G1 X136.028 Y154.011 E0.0727
G1 X134.615 Y153.781 E0.0714
G1 X133.878 Y153.688 E0.0371
G1 X133.179 Y153.618 E0.0350
G1 X132.467 Y153.567 E0.0356
G1 X131.740 Y153.534 E0.0363
G1 X130.997 Y153.524 E0.0371
G1 X122.196 Y153.520 E0.4391
G1 X121.545 Y153.484 E0.0325
G1 X120.913 Y153.404 E0.0318
G1 X120.545 Y153.335 E0.0187
G1 X119.876 Y153.165 E0.0344
G1 X119.256 Y152.957 E0.0326
G1 X118.694 Y152.721 E0.0304
G1 X117.865 Y152.284 E0.0468
G1 X117.523 Y152.068 E0.0202
G1 X117.019 Y151.706 E0.0310
G1 X116.338 Y151.123 E0.0447
G1 X115.856 Y150.628 E0.0345
G1 X115.612 Y150.344 E0.0187
G1 X115.064 Y149.602 E0.0460
G1 X114.850 Y149.260 E0.0201
G1 X114.553 Y148.716 E0.0309
G1 X114.192 Y147.896 E0.0447
G1 X113.971 Y147.240 E0.0345
G1 X113.874 Y146.878 E0.0187
G1 X113.708 Y146.001 E0.0445
G1 X113.639 Y145.316 E0.0343
G1 X113.625 Y144.913 E0.0201
G1 X113.639 Y144.297 E0.0307
G1 X113.737 Y143.407 E0.0447
G1 X113.877 Y142.718 E0.0351
G1 X114.057 Y142.090 E0.0326
G1 X114.266 Y141.520 E0.0303
G1 X114.426 Y141.151 E0.0201
G1 X114.866 Y140.319 E0.0470
G1 X115.201 Y139.802 E0.0307
G1 X115.440 Y139.477 E0.0201
G1 X115.885 Y138.946 E0.0346
G1 X116.453 Y138.381 E0.0400
G0 F2400 X116.524 Y138.311
M204 S1300.00
G0 F7200 X116.768 Y138.604
G0 F7200 X116.831 Y138.680
M204 S1250.00
G1 F2400 X117.299 Y138.290 E0.0304
G1 X117.599 Y138.068 E0.0186
G1 X118.120 Y137.729 E0.0310
G1 X118.880 Y137.328 E0.0429
G1 X119.442 Y137.092 E0.0304
G1 X120.028 Y136.896 E0.0308
G1 X120.389 Y136.799 E0.0186
G1 X121.001 Y136.674 E0.0312
G1 X121.605 Y136.598 E0.0304
G1 X122.222 Y136.565 E0.0308
G1 X144.464 Y136.565 E1.1097
G1 X145.088 Y136.598 E0.0312
G1 X145.463 Y136.641 E0.0188
G1 X146.308 Y136.802 E0.0429
G1 X146.903 Y136.972 E0.0309
G1 X147.258 Y137.097 E0.0188
G1 X147.942 Y137.390 E0.0371
G1 X156.844 Y141.712 E0.4937
G1 X157.418 Y142.070 E0.0338
G1 X158.410 Y142.841 E0.0627
G1 X158.933 Y143.223 E0.0323
G1 X159.360 Y143.519 E0.0259
G1 X160.405 Y144.195 E0.0621
G1 X161.435 Y144.795 E0.0595
G1 X162.443 Y145.319 E0.0567
G1 X163.497 Y145.804 E0.0579
G1 X164.634 Y146.260 E0.0611
G1 X165.110 Y146.431 E0.0252
G1 X166.299 Y146.805 E0.0622
G1 X167.424 Y147.096 E0.0580
G1 X167.955 Y147.212 E0.0271
G1 X169.141 Y147.426 E0.0601
G1 X170.308 Y147.578 E0.0587
G1 X171.460 Y147.671 E0.0577
G1 X172.659 Y147.714 E0.0599
G1 X173.858 Y147.704 E0.0598
G1 X175.113 Y147.637 E0.0627
G1 X175.568 Y147.644 E0.0227
G1 X176.018 Y147.716 E0.0227
G1 X176.548 Y147.888 E0.0278
G1 X183.920 Y151.008 E0.3994
G1 X184.325 Y151.215 E0.0227
G1 X184.698 Y151.476 E0.0227
G1 X185.031 Y151.787 E0.0227
G1 X185.316 Y152.141 E0.0227
G1 X185.549 Y152.532 E0.0227
G1 X185.725 Y152.951 E0.0227
G1 X185.841 Y153.392 E0.0227
G1 X185.894 Y153.844 E0.0227
G1 X185.882 Y154.298 E0.0227
G1 X185.808 Y154.747 E0.0227
G1 X185.640 Y155.256 E0.0267
G1 X184.079 Y158.939 E0.1996
G1 X183.873 Y159.345 E0.0227
G1 X183.611 Y159.717 E0.0227
G1 X183.300 Y160.050 E0.0227
G1 X182.946 Y160.335 E0.0227
G1 X182.452 Y160.617 E0.0284
G1 X181.144 Y161.218 E0.0718
G1 X180.398 Y161.525 E0.0402
G1 X179.726 Y161.777 E0.0358
G1 X178.481 Y162.198 E0.0656
G1 X177.483 Y162.490 E0.0519
G1 X176.603 Y162.714 E0.0453
G1 X175.827 Y162.885 E0.0396
G1 X174.833 Y163.069 E0.0504
G1 X174.048 Y163.187 E0.0396
G1 X173.152 Y163.293 E0.0450
G1 X172.146 Y163.377 E0.0504
G1 X171.248 Y163.420 E0.0449
G1 X170.347 Y163.436 E0.0450
G1 X169.536 Y163.427 E0.0405
G1 X168.524 Y163.383 E0.0505
G1 X167.714 Y163.323 E0.0405
G1 X166.818 Y163.233 E0.0449
G1 X165.804 Y163.101 E0.0510
G1 X164.062 Y162.804 E0.0882
G1 X162.360 Y162.435 E0.0869
G1 X160.679 Y162.001 E0.0866
G1 X159.056 Y161.523 E0.0844
G1 X158.280 Y161.277 E0.0406
G1 X155.807 Y160.422 E0.1305
G1 X153.443 Y159.529 E0.1261
G1 X147.285 Y157.066 E0.3309
G1 X145.766 Y156.472 E0.0814
G1 X143.488 Y155.623 E0.1213
G1 X141.995 Y155.105 E0.0788
G1 X140.543 Y154.642 E0.0760
G1 X139.049 Y154.213 E0.0775
G1 X137.565 Y153.842 E0.0763
G1 X136.113 Y153.538 E0.0740
G1 X134.692 Y153.307 E0.0718
G1 X133.926 Y153.210 E0.0385
G1 X133.227 Y153.140 E0.0350
G1 X132.489 Y153.087 E0.0369
G1 X131.762 Y153.054 E0.0363
G1 X131.003 Y153.044 E0.0379
G1 X122.222 Y153.041 E0.4381
G1 X121.605 Y153.008 E0.0308
G1 X121.001 Y152.932 E0.0304
G1 X120.633 Y152.863 E0.0187
G1 X120.028 Y152.710 E0.0311
G1 X119.442 Y152.514 E0.0308
G1 X118.880 Y152.278 E0.0304
G1 X118.120 Y151.877 E0.0429
G1 X117.803 Y151.678 E0.0187
G1 X117.299 Y151.316 E0.0310
G1 X116.651 Y150.759 E0.0426
G1 X116.220 Y150.315 E0.0309
G1 X115.976 Y150.031 E0.0187
G1 X115.470 Y149.346 E0.0425
G1 X115.271 Y149.030 E0.0186
G1 X114.974 Y148.486 E0.0309
G1 X114.632 Y147.704 E0.0426
G1 X114.435 Y147.116 E0.0309
G1 X114.338 Y146.754 E0.0187
G1 X114.180 Y145.912 E0.0427
G1 X114.119 Y145.298 E0.0308
G1 X114.105 Y144.924 E0.0187
G1 X114.119 Y144.308 E0.0307
G1 X114.214 Y143.461 E0.0425
G1 X114.339 Y142.849 E0.0312
G1 X114.508 Y142.255 E0.0308
G1 X114.717 Y141.685 E0.0303
G1 X114.866 Y141.342 E0.0187
G1 X115.269 Y140.580 E0.0430
G1 X115.604 Y140.063 E0.0307
G1 X115.826 Y139.762 E0.0187
G1 X116.224 Y139.286 E0.0310
G1 X116.761 Y138.750 E0.0379
G0 F2400 X116.831 Y138.680
;PRINTING: Gripper 1.stl
;PRINTING_ID: 0
G1 F2400 E-1.0000
M204 S1300.00
G0 F7200 X119.641 Y148.049
G0 F7200 X119.669 Y148.144
M204 S1000.00
M205 X6.00 Y6.00
;TYPE:WALL-INNER
;WIDTH:0.480
G1 F2400 E0.9700
G1 F2400 X119.439 Y147.946 E0.0151
G1 X119.200 Y147.707 E0.0169
G1 X118.997 Y147.471 E0.0155
G1 X118.810 Y147.217 E0.0157
G1 X118.635 Y146.940 E0.0163
G1 X118.489 Y146.663 E0.0156
G1 X118.356 Y146.359 E0.0166
G1 X118.255 Y146.069 E0.0153
G1 X118.170 Y145.754 E0.0163
G1 X118.110 Y145.433 E0.0163
G1 X118.076 Y145.132 E0.0151
G1 X118.063 Y144.803 E0.0164
G1 X118.076 Y144.474 E0.0164
G1 X118.110 Y144.173 E0.0151
G1 X118.170 Y143.851 E0.0163
G1 X118.256 Y143.533 E0.0164
G1 X118.356 Y143.247 E0.0151
G1 X118.491 Y142.938 E0.0168
G1 X118.635 Y142.667 E0.0153
G1 X118.812 Y142.385 E0.0166
G1 X118.991 Y142.142 E0.0151
G1 X119.206 Y141.893 E0.0164
G1 X119.439 Y141.660 E0.0164
G1 X119.669 Y141.462 E0.0151
G1 X119.935 Y141.266 E0.0165
G1 X120.206 Y141.095 E0.0160
G1 X120.483 Y140.949 E0.0156
G1 X120.784 Y140.818 E0.0164
G1 X121.077 Y140.715 E0.0155
G1 X121.391 Y140.630 E0.0162
G1 X121.712 Y140.570 E0.0163
G1 X122.014 Y140.536 E0.0152
G1 X122.361 Y140.523 E0.0173
G1 X144.325 Y140.523 E1.0958
G1 X144.673 Y140.536 E0.0174
G1 X144.977 Y140.571 E0.0153
G1 X145.301 Y140.632 E0.0164
G1 X145.622 Y140.719 E0.0166
G1 X145.908 Y140.820 E0.0151
G1 X146.228 Y140.961 E0.0174
G1 X155.050 Y145.244 E0.4893
G1 X156.057 Y146.028 E0.0637
G1 X157.172 Y146.821 E0.0683
G1 X158.321 Y147.564 E0.0683
G1 X159.494 Y148.247 E0.0677
G1 X160.705 Y148.878 E0.0681
G1 X161.943 Y149.448 E0.0680
G1 X163.213 Y149.957 E0.0683
G1 X163.870 Y150.193 E0.0348
G1 X165.192 Y150.609 E0.0691
G1 X166.512 Y150.950 E0.0680
G1 X167.187 Y151.098 E0.0345
G1 X168.528 Y151.339 E0.0680
G1 X169.888 Y151.516 E0.0684
G1 X171.237 Y151.626 E0.0675
G1 X172.608 Y151.675 E0.0684
G1 X173.968 Y151.663 E0.0679
G1 X175.158 Y151.600 E0.0595
G1 X181.713 Y154.375 E0.3551
G1 X180.542 Y157.138 E0.1497
G1 X179.621 Y157.562 E0.0506
G1 X178.992 Y157.822 E0.0340
G1 X178.343 Y158.066 E0.0346
G1 X177.227 Y158.442 E0.0588
G1 X176.491 Y158.657 E0.0383
G1 X175.743 Y158.849 E0.0385
G1 X174.991 Y159.014 E0.0384
G1 X174.228 Y159.156 E0.0387
G1 X173.468 Y159.270 E0.0383
G1 X172.710 Y159.358 E0.0381
G1 X171.939 Y159.422 E0.0386
G1 X171.159 Y159.461 E0.0390
G1 X170.380 Y159.476 E0.0389
G1 X169.595 Y159.467 E0.0392
G1 X168.801 Y159.433 E0.0396
G1 X168.019 Y159.375 E0.0391
G1 X167.225 Y159.294 E0.0398
G1 X166.453 Y159.194 E0.0388
G1 X164.882 Y158.929 E0.0795
G1 X163.327 Y158.595 E0.0793
G1 X161.791 Y158.200 E0.0791
G1 X160.248 Y157.746 E0.0802
G1 X159.483 Y157.503 E0.0400
