;Sliced by ideaMaker 4.2.3.5600, 2022-10-10 17:15:30 UTC+0200
;Dimension: 300.000 300.000 400.000 0.400
;Plate Shape: 0
;Origin Center: 0
;Extruder Offset #1: 25.000 0.000
;Filament Diameter #1: 1.750
;Filament Diameter #2: 1.750
;Filament Compensation #1: 100.00
;Filament Compensation #2: 90.00
;Filament Density #1: 1240.00
;Filament Density #2: 1240.00
;Filament Type #1: Sunlu
;Filament Type #2: 
;Filament Name #1: Sunlu Grey PLA
;Filament Name #2: 
;Firmware: Marlin
;Bounding Box: 113.146 186.855 135.603 164.393 0.000 15.450
;Model Gap: 0.000
M92 E415.00000
M221 T0 S100.00
M140 S60.00
M104 T0 S210.00
M109 T0 S210.00
T0
M190 S60.00
M107
G28 ; home all axes
G29 ; Autoleveling processing ; à commenter si M420 actif
;M420 S1 Z10 ; Autolevel enable ; à commenter si G29 actif
;vous avez 2 choix, soit activer le G29 pour faire un autoleveling du plateau avant chaque impression
;C'est la méthode recvommandé par ARtillery3Dexpert.fr
;soit activer la ligne qui commance par M420 pour faire un rappel de la derniere mesure du plateau
;pour gagner du temp ( non recommandé par artillery3Dexpert.fr )
M500 ; sauvegarde eeprom
M117 Purge extruder
G92 E0 ; reset extruder
G1 Z1.0 F3000 ; move z up little to prevent scratching of surface
G1 X2 Y20 Z0.3 F5000.0 ; move to start-line position
G1 X2 Y200.0 Z0.3 F1500.0 E15 ; draw 1st line
G1 X2 Y200.0 Z0.4 F5000.0 ; move to side a little
G1 X2 Y20 Z0.4 F1500.0 E30 ; draw 2nd line
G92 E0 ; reset extruder
G1 Z1.0 F3000 ; move z up little to prevent scratching of surface
;TOTAL_NUM: 1
;PRINTING_TIME: 0
;REMAINING_TIME: 1011
M83
;LAYER:0
;Z:0.250
;HEIGHT:0.250
M106 S0
;PRINTING: NON-OBJECT
;PRINTING_ID: -1
G1 F2400 E-1.0000
M204 S1300.00
M205 X7.00 Y7.00
G0 F7200 X114.611 Y150.676
G0 F900 Z0.250
G0 F7200 X114.671 Y150.755
M204 S1250.00
;TYPE:SKIRT
;WIDTH:0.480
G1 F2400 E0.9700
G1 F2400 X115.159 Y150.408 E0.0299
G1 X115.705 Y150.126 E0.0307
G1 X123.071 Y147.004 E0.3991
G1 X123.698 Y146.797 E0.0329
G1 X124.292 Y146.694 E0.0301
G1 X124.851 Y146.676 E0.0279
G1 X126.184 Y146.744 E0.0666
G1 X126.726 Y146.756 E0.0270
G1 X127.930 Y146.742 E0.0601
G1 X129.037 Y146.678 E0.0553
G1 X130.161 Y146.558 E0.0564
G1 X131.259 Y146.389 E0.0554
G1 X132.353 Y146.163 E0.0557
G1 X133.465 Y145.875 E0.0573
G1 X134.533 Y145.538 E0.0559
G1 X135.581 Y145.149 E0.0558
G1 X136.624 Y144.699 E0.0567
G1 X137.645 Y144.198 E0.0567
G1 X138.108 Y143.950 E0.0262
G1 X139.110 Y143.366 E0.0579
G1 X140.043 Y142.765 E0.0554
G1 X141.010 Y142.076 E0.0592
G1 X142.034 Y141.284 E0.0646
G1 X142.736 Y140.849 E0.0412
G1 X151.660 Y136.517 E0.4949
G1 X152.437 Y136.188 E0.0421
G1 X153.095 Y135.970 E0.0346
G1 X153.760 Y135.803 E0.0342
G1 X154.453 Y135.684 E0.0351
G1 X155.118 Y135.621 E0.0333
G1 X155.640 Y135.603 E0.0261
G1 X177.778 Y135.605 E1.1045
G1 X178.518 Y135.646 E0.0370
G1 X179.201 Y135.736 E0.0344
G1 X179.873 Y135.876 E0.0342
G1 X180.459 Y136.042 E0.0304
G1 X180.935 Y136.210 E0.0252
G1 X181.795 Y136.589 E0.0469
G1 X182.404 Y136.925 E0.0347
G1 X182.983 Y137.304 E0.0345
G1 X183.490 Y137.691 E0.0318
G1 X183.848 Y138.002 E0.0237
G1 X184.513 Y138.672 E0.0471
G1 X184.955 Y139.204 E0.0345
G1 X185.327 Y139.725 E0.0319
G1 X185.557 Y140.090 E0.0215
G1 X185.906 Y140.737 E0.0367
G1 X186.279 Y141.600 E0.0469
G1 X186.494 Y142.255 E0.0344
G1 X186.646 Y142.858 E0.0310
G1 X186.775 Y143.589 E0.0370
G1 X186.821 Y144.018 E0.0215
G1 X186.855 Y144.704 E0.0343
G1 X186.838 Y145.364 E0.0329
G1 X186.732 Y146.297 E0.0468
G1 X186.584 Y147.020 E0.0368
G1 X186.393 Y147.682 E0.0344
G1 X186.163 Y148.304 E0.0331
G1 X185.988 Y148.702 E0.0217
G1 X185.687 Y149.288 E0.0329
G1 X185.353 Y149.840 E0.0322
G1 X184.793 Y150.606 E0.0473
G1 X184.286 Y151.180 E0.0382
G1 X183.794 Y151.656 E0.0342
G1 X183.466 Y151.936 E0.0215
G1 X182.924 Y152.344 E0.0338
G1 X182.339 Y152.721 E0.0347
G1 X181.718 Y153.056 E0.0352
G1 X180.934 Y153.398 E0.0427
G1 X180.276 Y153.621 E0.0347
G1 X179.538 Y153.807 E0.0380
G1 X178.886 Y153.919 E0.0330
G1 X178.187 Y153.987 E0.0350
G1 X177.778 Y154.001 E0.0204
G1 X169.025 Y154.003 E0.4367
G1 X168.221 Y154.015 E0.0401
G1 X167.511 Y154.049 E0.0355
G1 X166.741 Y154.107 E0.0385
G1 X165.256 Y154.284 E0.0746
G1 X163.798 Y154.533 E0.0738
G1 X163.057 Y154.686 E0.0377
G1 X161.493 Y155.062 E0.0803
G1 X160.027 Y155.474 E0.0760
G1 X158.433 Y155.976 E0.0834
G1 X156.931 Y156.494 E0.0793
G1 X155.294 Y157.096 E0.0870
G1 X153.773 Y157.680 E0.0813
G1 X148.856 Y159.653 E0.2643
G1 X145.537 Y160.947 E0.1777
G1 X143.825 Y161.573 E0.0909
G1 X142.161 Y162.141 E0.0877
G1 X140.347 Y162.707 E0.0948
G1 X139.439 Y162.966 E0.0471
G1 X137.647 Y163.421 E0.0922
G1 X136.739 Y163.623 E0.0464
G1 X135.882 Y163.793 E0.0436
G1 X134.876 Y163.969 E0.0510
G1 X134.035 Y164.093 E0.0424
G1 X133.081 Y164.210 E0.0480
G1 X132.143 Y164.298 E0.0470
G1 X131.166 Y164.361 E0.0488
G1 X130.216 Y164.392 E0.0474
G1 X129.111 Y164.393 E0.0551
G1 X128.249 Y164.363 E0.0430
G1 X126.649 Y164.241 E0.0801
G1 X125.740 Y164.131 E0.0457
G1 X124.798 Y163.986 E0.0476
G1 X123.955 Y163.827 E0.0428
G1 X123.202 Y163.663 E0.0384
G1 X122.064 Y163.370 E0.0586
G1 X121.296 Y163.143 E0.0400
G1 X119.941 Y162.679 E0.0715
G1 X118.568 Y162.133 E0.0737
G1 X117.119 Y161.478 E0.0793
G1 X116.661 Y161.225 E0.0261
G1 X116.133 Y160.828 E0.0330
G1 X115.720 Y160.409 E0.0294
G1 X115.358 Y159.919 E0.0304
G1 X115.041 Y159.319 E0.0339
G1 X113.452 Y155.567 E0.2033
G1 X113.271 Y155.012 E0.0291
G1 X113.184 Y154.566 E0.0227
G1 X113.146 Y153.977 E0.0294
G1 X113.212 Y153.250 E0.0364
G1 X113.356 Y152.679 E0.0294
G1 X113.580 Y152.131 E0.0295
G1 X113.878 Y151.623 E0.0294
G1 X114.243 Y151.162 E0.0293
G1 X114.599 Y150.823 E0.0245
G0 F2400 X114.671 Y150.755
M204 S1300.00
G0 F7200 X114.894 Y151.063
G0 F7200 X114.952 Y151.144
M204 S1250.00
G1 F2400 X115.381 Y150.834 E0.0264
G1 X115.892 Y150.568 E0.0287
G1 X123.258 Y147.446 E0.3991
G1 X123.784 Y147.269 E0.0277
G1 X124.307 Y147.174 E0.0265
G1 X124.866 Y147.156 E0.0279
G1 X126.173 Y147.224 E0.0653
G1 X126.721 Y147.236 E0.0273
G1 X127.942 Y147.222 E0.0609
G1 X129.074 Y147.156 E0.0566
G1 X130.220 Y147.034 E0.0575
G1 X131.350 Y146.860 E0.0570
G1 X132.468 Y146.629 E0.0570
G1 X133.595 Y146.337 E0.0581
G1 X134.687 Y145.993 E0.0571
G1 X135.763 Y145.593 E0.0573
G1 X136.819 Y145.138 E0.0574
G1 X137.869 Y144.623 E0.0583
G1 X138.351 Y144.365 E0.0273
G1 X139.352 Y143.781 E0.0578
G1 X140.322 Y143.156 E0.0576
G1 X141.296 Y142.462 E0.0597
G1 X142.288 Y141.691 E0.0627
G1 X142.946 Y141.281 E0.0387
G1 X151.848 Y136.959 E0.4937
G1 X152.589 Y136.643 E0.0402
G1 X153.213 Y136.435 E0.0328
G1 X153.842 Y136.276 E0.0324
G1 X154.499 Y136.162 E0.0333
G1 X155.135 Y136.101 E0.0319
G1 X155.657 Y136.083 E0.0261
G1 X177.778 Y136.085 E1.1036
G1 X178.456 Y136.122 E0.0339
G1 X179.104 Y136.206 E0.0326
G1 X179.742 Y136.338 E0.0325
G1 X180.328 Y136.504 E0.0304
G1 X180.742 Y136.649 E0.0219
G1 X181.564 Y137.010 E0.0448
G1 X182.142 Y137.327 E0.0329
G1 X182.692 Y137.686 E0.0328
G1 X183.176 Y138.054 E0.0303
G1 X183.508 Y138.341 E0.0219
G1 X184.144 Y138.979 E0.0449
G1 X184.564 Y139.483 E0.0327
G1 X184.936 Y140.004 E0.0319
G1 X185.135 Y140.320 E0.0186
G1 X185.466 Y140.928 E0.0345
G1 X185.823 Y141.751 E0.0448
G1 X186.029 Y142.372 E0.0326
G1 X186.181 Y142.975 E0.0310
G1 X186.298 Y143.641 E0.0337
G1 X186.342 Y144.042 E0.0201
G1 X186.375 Y144.692 E0.0325
G1 X186.358 Y145.352 E0.0329
G1 X186.262 Y146.202 E0.0427
G1 X186.123 Y146.888 E0.0349
G1 X185.943 Y147.516 E0.0326
G1 X185.723 Y148.112 E0.0317
G1 X185.561 Y148.483 E0.0202
G1 X185.276 Y149.040 E0.0312
G1 X184.942 Y149.592 E0.0322
G1 X184.406 Y150.322 E0.0452
G1 X183.952 Y150.835 E0.0342
G1 X183.482 Y151.291 E0.0327
G1 X183.176 Y151.553 E0.0201
G1 X182.663 Y151.941 E0.0321
G1 X182.110 Y152.299 E0.0329
G1 X181.526 Y152.616 E0.0332
G1 X180.742 Y152.958 E0.0427
G1 X180.123 Y153.166 E0.0326
G1 X179.457 Y153.334 E0.0343
G1 X178.805 Y153.446 E0.0330
G1 X178.170 Y153.507 E0.0318
G1 X177.778 Y153.521 E0.0196
G1 X169.018 Y153.523 E0.4370
G1 X168.214 Y153.535 E0.0401
G1 X167.475 Y153.570 E0.0369
G1 X166.694 Y153.629 E0.0391
G1 X165.197 Y153.807 E0.0752
G1 X163.708 Y154.061 E0.0754
G1 X162.945 Y154.219 E0.0389
G1 X161.381 Y154.595 E0.0803
G1 X159.883 Y155.016 E0.0776
G1 X158.289 Y155.518 E0.0834
G1 X156.765 Y156.043 E0.0804
G1 X155.128 Y156.645 E0.0870
G1 X153.601 Y157.232 E0.0816
G1 X148.677 Y159.208 E0.2647
G1 X145.363 Y160.500 E0.1775
G1 X143.660 Y161.122 E0.0905
G1 X142.018 Y161.683 E0.0866
G1 X140.215 Y162.245 E0.0942
G1 X139.307 Y162.504 E0.0471
G1 X137.543 Y162.952 E0.0908
G1 X136.635 Y163.154 E0.0464
G1 X135.799 Y163.320 E0.0425
G1 X134.805 Y163.494 E0.0503
G1 X133.977 Y163.617 E0.0418
G1 X133.036 Y163.732 E0.0473
G1 X132.098 Y163.820 E0.0470
G1 X131.150 Y163.881 E0.0474
G1 X130.200 Y163.912 E0.0474
G1 X129.128 Y163.913 E0.0535
G1 X128.285 Y163.884 E0.0421
G1 X126.707 Y163.764 E0.0790
G1 X125.798 Y163.654 E0.0457
G1 X124.887 Y163.514 E0.0460
G1 X124.057 Y163.358 E0.0421
G1 X123.322 Y163.198 E0.0375
G1 X122.184 Y162.905 E0.0586
G1 X121.451 Y162.689 E0.0381
G1 X120.118 Y162.233 E0.0703
G1 X118.766 Y161.696 E0.0726
G1 X117.347 Y161.055 E0.0777
G1 X116.946 Y160.839 E0.0227
G1 X116.472 Y160.489 E0.0294
G1 X116.103 Y160.120 E0.0260
G1 X115.782 Y159.694 E0.0266
G1 X115.483 Y159.132 E0.0318
G1 X113.907 Y155.415 E0.2014
G1 X113.742 Y154.920 E0.0260
G1 X113.655 Y154.474 E0.0227
G1 X113.625 Y153.950 E0.0262
G1 X113.678 Y153.364 E0.0294
G1 X113.802 Y152.857 E0.0260
G1 X113.996 Y152.371 E0.0261
G1 X114.257 Y151.918 E0.0261
G1 X114.577 Y151.507 E0.0260
G1 X114.881 Y151.213 E0.0211
G0 F2400 X114.952 Y151.144
M204 S1300.00
G0 F7200 X115.179 Y151.450
G0 F7200 X115.238 Y151.530
M204 S1250.00
G1 F2400 X115.604 Y151.259 E0.0227
G1 X116.079 Y151.010 E0.0268
G1 X123.445 Y147.888 E0.3991
G1 X123.875 Y147.740 E0.0227
G1 X124.322 Y147.654 E0.0227
G1 X124.881 Y147.636 E0.0279
G1 X126.163 Y147.704 E0.0640
G1 X126.716 Y147.716 E0.0276
G1 X127.954 Y147.702 E0.0618
G1 X129.111 Y147.634 E0.0578
G1 X130.279 Y147.510 E0.0586
G1 X131.441 Y147.331 E0.0587
G1 X132.583 Y147.095 E0.0582
G1 X133.725 Y146.799 E0.0589
G1 X134.841 Y146.448 E0.0584
G1 X135.945 Y146.037 E0.0588
G1 X137.014 Y145.577 E0.0581
G1 X138.080 Y145.054 E0.0592
G1 X138.593 Y144.780 E0.0290
G1 X139.604 Y144.190 E0.0584
G1 X140.590 Y143.555 E0.0585
G1 X141.582 Y142.848 E0.0608
G1 X142.583 Y142.070 E0.0633
G1 X143.156 Y141.713 E0.0337
G1 X152.058 Y137.391 E0.4937
G1 X152.742 Y137.098 E0.0371
G1 X153.331 Y136.900 E0.0310
G1 X153.925 Y136.749 E0.0306
G1 X154.545 Y136.640 E0.0314
G1 X155.152 Y136.581 E0.0304
G1 X155.657 Y136.563 E0.0252
G1 X177.778 Y136.565 E1.1036
G1 X178.395 Y136.598 E0.0308
G1 X179.007 Y136.676 E0.0308
G1 X179.611 Y136.800 E0.0308
G1 X180.197 Y136.966 E0.0304
G1 X180.550 Y137.089 E0.0186
G1 X181.334 Y137.431 E0.0427
G1 X181.880 Y137.729 E0.0310
G1 X182.401 Y138.068 E0.0310
G1 X182.885 Y138.436 E0.0303
G1 X183.169 Y138.680 E0.0187
G1 X183.776 Y139.287 E0.0428
G1 X184.174 Y139.763 E0.0310
G1 X184.530 Y140.260 E0.0305
G1 X184.729 Y140.576 E0.0186
G1 X185.026 Y141.120 E0.0309
G1 X185.368 Y141.903 E0.0426
G1 X185.564 Y142.489 E0.0308
G1 X185.716 Y143.092 E0.0310
G1 X185.821 Y143.695 E0.0305
G1 X185.863 Y144.067 E0.0187
G1 X185.895 Y144.681 E0.0307
G1 X185.881 Y145.298 E0.0308
G1 X185.785 Y146.148 E0.0427
G1 X185.661 Y146.757 E0.0310
G1 X185.492 Y147.351 E0.0308
G1 X185.283 Y147.921 E0.0303
G1 X185.134 Y148.264 E0.0187
G1 X184.849 Y148.821 E0.0312
G1 X184.532 Y149.343 E0.0305
G1 X184.020 Y150.037 E0.0430
G1 X183.617 Y150.491 E0.0303
G1 X183.169 Y150.927 E0.0312
G1 X182.885 Y151.171 E0.0187
G1 X182.401 Y151.539 E0.0303
G1 X181.880 Y151.878 E0.0310
G1 X181.334 Y152.176 E0.0310
G1 X180.550 Y152.518 E0.0427
G1 X179.972 Y152.710 E0.0304
G1 X179.375 Y152.861 E0.0307
G1 X178.758 Y152.968 E0.0312
G1 X178.152 Y153.027 E0.0304
G1 X177.778 Y153.041 E0.0187
G1 X169.011 Y153.043 E0.4374
G1 X168.207 Y153.055 E0.0401
G1 X167.439 Y153.091 E0.0384
G1 X166.647 Y153.151 E0.0396
G1 X165.138 Y153.330 E0.0758
G1 X163.613 Y153.590 E0.0772
G1 X162.833 Y153.752 E0.0397
G1 X161.269 Y154.128 E0.0803
G1 X159.739 Y154.558 E0.0793
G1 X158.145 Y155.060 E0.0834
G1 X156.599 Y155.592 E0.0816
G1 X154.962 Y156.194 E0.0870
G1 X153.422 Y156.787 E0.0823
G1 X148.498 Y158.762 E0.2647
G1 X145.189 Y160.053 E0.1772
G1 X143.505 Y160.668 E0.0894
G1 X141.875 Y161.225 E0.0859
G1 X140.083 Y161.783 E0.0936
G1 X139.175 Y162.042 E0.0471
G1 X137.439 Y162.483 E0.0894
G1 X136.541 Y162.683 E0.0459
G1 X135.716 Y162.847 E0.0420
G1 X134.734 Y163.019 E0.0497
G1 X133.906 Y163.142 E0.0418
G1 X132.991 Y163.254 E0.0460
G1 X132.067 Y163.341 E0.0463
G1 X131.134 Y163.401 E0.0466
G1 X130.200 Y163.432 E0.0466
G1 X129.145 Y163.433 E0.0526
G1 X128.302 Y163.404 E0.0421
G1 X126.765 Y163.287 E0.0769
G1 X125.856 Y163.177 E0.0457
G1 X124.976 Y163.042 E0.0444
G1 X124.146 Y162.886 E0.0421
G1 X123.441 Y162.733 E0.0360
G1 X122.320 Y162.445 E0.0577
G1 X121.587 Y162.229 E0.0381
G1 X120.295 Y161.787 E0.0681
G1 X118.963 Y161.258 E0.0715
G1 X117.575 Y160.632 E0.0760
G1 X117.174 Y160.416 E0.0227
G1 X116.808 Y160.146 E0.0227
G1 X116.483 Y159.827 E0.0227
G1 X116.205 Y159.467 E0.0227
G1 X115.925 Y158.944 E0.0296
G1 X114.361 Y155.259 E0.1997
G1 X114.213 Y154.828 E0.0227
G1 X114.126 Y154.382 E0.0227
G1 X114.104 Y153.927 E0.0227
G1 X114.145 Y153.474 E0.0227
G1 X114.249 Y153.031 E0.0227
G1 X114.414 Y152.607 E0.0227
G1 X114.638 Y152.210 E0.0227
G1 X114.914 Y151.849 E0.0227
G1 X115.167 Y151.600 E0.0177
G0 F2400 X115.238 Y151.530
;PRINTING: Gripper 1 (1).stl
;PRINTING_ID: 0
G1 F2400 E-1.0000
M204 S1300.00
G0 F7200 X119.400 Y157.058
G0 F7200 X119.460 Y157.137
M204 S1000.00
M205 X6.00 Y6.00
;TYPE:WALL-INNER
;WIDTH:0.480
G1 F2400 E0.9700
G1 F2400 X118.287 Y154.375 E0.1497
G1 X124.836 Y151.599 E0.3549
G1 X126.021 Y151.662 E0.0592
G1 X126.712 Y151.676 E0.0345
G1 X128.077 Y151.661 E0.0681
G1 X129.445 Y151.581 E0.0684
G1 X130.791 Y151.438 E0.0675
G1 X132.146 Y151.229 E0.0684
G1 X133.478 Y150.954 E0.0679
G1 X134.816 Y150.607 E0.0690
G1 X136.128 Y150.194 E0.0686
G1 X137.418 Y149.715 E0.0687
G1 X138.673 Y149.174 E0.0682
G1 X139.896 Y148.575 E0.0679
G1 X140.502 Y148.250 E0.0343
G1 X141.676 Y147.566 E0.0678
G1 X142.823 Y146.826 E0.0681
G1 X143.937 Y146.033 E0.0682
G1 X144.950 Y145.245 E0.0640
G1 X153.772 Y140.962 E0.4893
G1 X154.092 Y140.821 E0.0174
G1 X154.381 Y140.719 E0.0153
G1 X154.700 Y140.633 E0.0165
G1 X155.011 Y140.573 E0.0158
G1 X155.340 Y140.536 E0.0165
G1 X155.676 Y140.523 E0.0168
G1 X177.639 Y140.523 E1.0957
G1 X177.986 Y140.536 E0.0173
G1 X178.285 Y140.570 E0.0150
G1 X178.611 Y140.632 E0.0166
G1 X178.916 Y140.714 E0.0158
G1 X179.224 Y140.821 E0.0163
G1 X179.516 Y140.950 E0.0159
G1 X179.795 Y141.096 E0.0157
G1 X180.065 Y141.266 E0.0159
G1 X180.331 Y141.463 E0.0165
G1 X180.568 Y141.666 E0.0156
G1 X180.788 Y141.886 E0.0155
G1 X181.009 Y142.143 E0.0169
G1 X181.188 Y142.386 E0.0151
G1 X181.365 Y142.667 E0.0166
G1 X181.509 Y142.938 E0.0153
G1 X181.644 Y143.248 E0.0169
G1 X181.744 Y143.534 E0.0151
G1 X181.830 Y143.852 E0.0164
G1 X181.890 Y144.173 E0.0163
G1 X181.924 Y144.475 E0.0152
G1 X181.937 Y144.800 E0.0162
G1 X181.924 Y145.132 E0.0166
G1 X181.890 Y145.434 E0.0152
G1 X181.830 Y145.755 E0.0163
G1 X181.745 Y146.069 E0.0162
G1 X181.644 Y146.359 E0.0153
G1 X181.511 Y146.664 E0.0166
G1 X181.365 Y146.940 E0.0156
G1 X181.190 Y147.218 E0.0164
G1 X181.009 Y147.464 E0.0152
G1 X180.788 Y147.721 E0.0169
G1 X180.568 Y147.941 E0.0155
G1 X180.331 Y148.144 E0.0156
G1 X180.065 Y148.341 E0.0165
G1 X179.795 Y148.511 E0.0159
G1 X179.516 Y148.657 E0.0157
G1 X179.224 Y148.786 E0.0159
G1 X178.916 Y148.893 E0.0163
G1 X178.611 Y148.975 E0.0158
G1 X178.297 Y149.035 E0.0159
G1 X177.975 Y149.070 E0.0162
G1 X177.639 Y149.083 E0.0168
G1 X168.956 Y149.083 E0.4332
G1 X168.082 Y149.096 E0.0436
G1 X167.195 Y149.137 E0.0443
G1 X166.313 Y149.205 E0.0441
G1 X165.431 Y149.298 E0.0442
G1 X164.576 Y149.410 E0.0430
G1 X163.690 Y149.550 E0.0448
G1 X162.844 Y149.705 E0.0429
G1 X161.980 Y149.885 E0.0440
G1 X160.276 Y150.294 E0.0874
G1 X158.583 Y150.770 E0.0877
G1 X156.917 Y151.294 E0.0871
G1 X155.264 Y151.863 E0.0872
G1 X153.589 Y152.479 E0.0890
G1 X151.965 Y153.105 E0.0868
G1 X147.056 Y155.074 E0.2639
