;Sliced by ideaMaker 4.2.3.5600, 2022-10-10 17:18:36 UTC+0200
;Dimension: 300.000 300.000 400.000 0.400
;Plate Shape: 0
;Origin Center: 0
;Extruder Offset #1: 25.000 0.000
;Filament Diameter #1: 1.750
;Filament Diameter #2: 1.750
;Filament Compensation #1: 100.00
;Filament Compensation #2: 90.00
;Filament Density #1: 1240.00
;Filament Density #2: 1240.00
;Filament Type #1: Sunlu
;Filament Type #2: 
;Filament Name #1: Sunlu Grey PLA
;Filament Name #2: 
;Firmware: Marlin
;Bounding Box: 106.048 195.270 137.794 160.646 0.000 18.050
;Model Gap: 0.000
M92 E415.00000
M221 T0 S100.00
M140 S60.00
M104 T0 S210.00
M109 T0 S210.00
T0
M190 S60.00
M107
G28 ; home all axes
G29 ; Autoleveling processing ; à commenter si M420 actif
;M420 S1 Z10 ; Autolevel enable ; à commenter si G29 actif
;vous avez 2 choix, soit activer le G29 pour faire un autoleveling du plateau avant chaque impression
;C'est la méthode recvommandé par ARtillery3Dexpert.fr
;soit activer la ligne qui commance par M420 pour faire un rappel de la derniere mesure du plateau
;pour gagner du temp ( non recommandé par artillery3Dexpert.fr )
M500 ; sauvegarde eeprom
M117 Purge extruder
G92 E0 ; reset extruder
G1 Z1.0 F3000 ; move z up little to prevent scratching of surface
G1 X2 Y20 Z0.3 F5000.0 ; move to start-line position
G1 X2 Y200.0 Z0.3 F1500.0 E15 ; draw 1st line
G1 X2 Y200.0 Z0.4 F5000.0 ; move to side a little
G1 X2 Y20 Z0.4 F1500.0 E30 ; draw 2nd line
G92 E0 ; reset extruder
G1 Z1.0 F3000 ; move z up little to prevent scratching of surface
;TOTAL_NUM: 1
;PRINTING_TIME: 0
;REMAINING_TIME: 1775
M83
;LAYER:0
;Z:0.250
;HEIGHT:0.250
M106 S0
;PRINTING: NON-OBJECT
;PRINTING_ID: -1
G1 F2400 E-1.0000
M204 S1300.00
M205 X7.00 Y7.00
G0 F7200 X109.278 Y145.428
G0 F900 Z0.250
G0 F7200 X109.338 Y145.507
M204 S1250.00
;TYPE:SKIRT
;WIDTH:0.480
G1 F2400 E0.9700
G1 F2400 X109.663 Y145.276 E0.0199
G1 X110.290 Y144.892 E0.0367
G1 X110.813 Y144.626 E0.0293
G1 X111.346 Y144.402 E0.0288
G1 X112.064 Y144.166 E0.0377
G1 X112.914 Y143.975 E0.0435
G1 X113.357 Y143.911 E0.0223
G1 X113.692 Y143.879 E0.0168
G1 X114.264 Y143.854 E0.0286
G1 X122.232 Y143.854 E0.3975
G1 X122.233 Y143.486 E0.0184
G1 X122.265 Y143.032 E0.0227
G1 X122.397 Y142.394 E0.0325
G1 X122.601 Y141.835 E0.0297
G1 X122.918 Y141.256 E0.0329
G1 X123.230 Y140.838 E0.0260
G1 X123.640 Y140.419 E0.0292
G1 X124.167 Y140.019 E0.0330
G1 X124.624 Y139.765 E0.0261
G1 X125.104 Y139.572 E0.0258
G1 X125.670 Y139.425 E0.0292
G1 X126.431 Y139.354 E0.0381
G1 X180.067 Y139.354 E2.6759
G1 X180.270 Y139.110 E0.0158
G1 X180.600 Y138.798 E0.0227
G1 X181.197 Y138.376 E0.0365
G1 X181.722 Y138.117 E0.0292
G1 X182.203 Y137.952 E0.0254
G1 X182.665 Y137.853 E0.0236
G1 X183.351 Y137.794 E0.0344
G1 X190.868 Y137.801 E0.3750
G1 X191.457 Y137.845 E0.0295
G1 X192.099 Y137.987 E0.0328
G1 X192.583 Y138.170 E0.0258
G1 X193.045 Y138.413 E0.0260
G1 X193.527 Y138.755 E0.0295
G1 X193.955 Y139.160 E0.0294
G1 X194.403 Y139.742 E0.0366
G1 X194.655 Y140.198 E0.0260
G1 X194.848 Y140.677 E0.0258
G1 X195.006 Y141.320 E0.0330
G1 X195.065 Y141.986 E0.0334
G1 X195.068 Y142.668 E0.0340
G1 X195.129 Y142.862 E0.0101
G1 X195.239 Y143.437 E0.0292
G1 X195.270 Y143.934 E0.0248
G1 X195.270 Y145.033 E0.0548
G1 X195.179 Y145.883 E0.0426
G1 X194.981 Y146.572 E0.0358
G1 X194.735 Y147.099 E0.0290
G1 X194.494 Y147.485 E0.0227
G1 X194.023 Y148.043 E0.0364
G1 X193.591 Y148.420 E0.0286
G1 X193.285 Y148.630 E0.0185
G1 X192.692 Y148.943 E0.0335
G1 X192.334 Y149.080 E0.0191
G1 X191.050 Y149.501 E0.0674
G1 X190.544 Y149.630 E0.0261
G1 X189.900 Y149.708 E0.0324
G1 X187.048 Y149.816 E0.1424
G1 X185.264 Y150.255 E0.0917
G1 X184.782 Y150.340 E0.0244
G1 X184.339 Y150.368 E0.0221
G1 X183.716 Y150.334 E0.0311
G1 X183.203 Y150.235 E0.0261
G1 X182.805 Y150.101 E0.0210
G1 X182.201 Y150.066 E0.0302
G1 X181.617 Y149.946 E0.0297
G1 X180.931 Y149.688 E0.0366
G1 X180.476 Y149.433 E0.0260
G1 X180.005 Y149.080 E0.0294
G1 X179.049 Y148.138 E0.0670
G1 X123.218 Y160.547 E2.8534
G1 X122.703 Y160.626 E0.0260
G1 X110.249 Y160.646 E0.6213
G1 X109.590 Y160.592 E0.0330
G1 X109.017 Y160.461 E0.0293
G1 X108.590 Y160.304 E0.0227
G1 X108.071 Y160.035 E0.0292
G1 X107.590 Y159.695 E0.0294
G1 X107.161 Y159.291 E0.0294
G1 X106.793 Y158.830 E0.0294
G1 X106.493 Y158.322 E0.0294
G1 X106.224 Y157.645 E0.0363
G1 X106.118 Y157.202 E0.0227
G1 X106.048 Y156.447 E0.0378
G1 X106.048 Y152.025 E0.2206
G1 X106.108 Y151.116 E0.0454
G1 X106.190 Y150.541 E0.0290
G1 X106.260 Y150.214 E0.0167
G1 X106.378 Y149.768 E0.0230
G1 X106.518 Y149.341 E0.0224
G1 X106.720 Y148.827 E0.0276
G1 X106.987 Y148.258 E0.0314
G1 X107.151 Y147.963 E0.0168
G1 X107.393 Y147.572 E0.0229
G1 X107.614 Y147.258 E0.0192
G1 X108.022 Y146.743 E0.0328
G1 X108.358 Y146.370 E0.0250
G1 X108.726 Y146.014 E0.0255
G1 X109.261 Y145.570 E0.0347
G0 F2400 X109.338 Y145.507
M204 S1300.00
G0 F7200 X109.559 Y145.817
G0 F7200 X109.617 Y145.898
M204 S1250.00
G1 F2400 X109.915 Y145.685 E0.0183
G1 X110.508 Y145.320 E0.0347
G1 X111.031 Y145.054 E0.0293
G1 X111.496 Y144.858 E0.0252
G1 X112.214 Y144.622 E0.0377
G1 X112.983 Y144.450 E0.0393
G1 X113.403 Y144.389 E0.0212
G1 X113.738 Y144.357 E0.0168
G1 X114.284 Y144.334 E0.0273
G1 X122.711 Y144.334 E0.4204
G1 X122.712 Y143.520 E0.0406
G1 X122.744 Y143.066 E0.0227
G1 X122.849 Y142.555 E0.0260
G1 X123.024 Y142.062 E0.0261
G1 X123.303 Y141.543 E0.0294
G1 X123.615 Y141.125 E0.0260
G1 X123.933 Y140.799 E0.0227
G1 X124.400 Y140.439 E0.0294
G1 X124.857 Y140.185 E0.0261
G1 X125.280 Y140.018 E0.0227
G1 X125.787 Y139.891 E0.0261
G1 X126.431 Y139.834 E0.0323
G1 X180.296 Y139.834 E2.6873
G1 X180.600 Y139.459 E0.0241
G1 X180.930 Y139.147 E0.0227
G1 X181.412 Y138.805 E0.0295
G1 X181.878 Y138.571 E0.0260
G1 X182.359 Y138.406 E0.0254
G1 X182.707 Y138.331 E0.0178
G1 X183.351 Y138.274 E0.0323
G1 X190.868 Y138.281 E0.3750
G1 X191.356 Y138.314 E0.0244
G1 X191.933 Y138.438 E0.0294
G1 X192.360 Y138.595 E0.0227
G1 X192.822 Y138.838 E0.0260
G1 X193.246 Y139.144 E0.0261
G1 X193.623 Y139.506 E0.0261
G1 X193.983 Y139.974 E0.0295
G1 X194.235 Y140.430 E0.0260
G1 X194.402 Y140.853 E0.0227
G1 X194.539 Y141.431 E0.0296
G1 X194.585 Y141.988 E0.0279
G1 X194.588 Y142.746 E0.0378
G1 X194.658 Y142.956 E0.0110
G1 X194.760 Y143.468 E0.0260
G1 X194.790 Y143.934 E0.0233
G1 X194.790 Y145.033 E0.0548
G1 X194.716 Y145.755 E0.0362
G1 X194.545 Y146.372 E0.0319
G1 X194.328 Y146.845 E0.0260
G1 X194.087 Y147.231 E0.0227
G1 X193.706 Y147.683 E0.0295
G1 X193.319 Y148.024 E0.0257
G1 X193.013 Y148.234 E0.0185
G1 X192.520 Y148.495 E0.0278
G1 X192.184 Y148.624 E0.0180
G1 X190.900 Y149.045 E0.0674
G1 X190.426 Y149.165 E0.0244
G1 X189.882 Y149.228 E0.0273
G1 X186.982 Y149.338 E0.1448
G1 X185.181 Y149.782 E0.0925
G1 X184.699 Y149.867 E0.0244
G1 X184.362 Y149.889 E0.0168
G1 X183.803 Y149.862 E0.0279
G1 X183.356 Y149.780 E0.0227
G1 X182.898 Y149.626 E0.0241
G1 X182.229 Y149.587 E0.0334
G1 X181.718 Y149.477 E0.0261
G1 X181.166 Y149.269 E0.0294
G1 X180.711 Y149.014 E0.0260
G1 X180.296 Y148.698 E0.0260
G1 X179.201 Y147.612 E0.0769
G1 X123.114 Y160.078 E2.8665
G1 X122.631 Y160.151 E0.0244
G1 X110.248 Y160.166 E0.6178
G1 X109.694 Y160.123 E0.0277
G1 X109.183 Y160.010 E0.0261
G1 X108.756 Y159.853 E0.0227
G1 X108.294 Y159.610 E0.0260
G1 X107.870 Y159.305 E0.0261
G1 X107.493 Y158.944 E0.0260
G1 X107.170 Y158.533 E0.0261
G1 X106.908 Y158.081 E0.0261
G1 X106.691 Y157.533 E0.0294
G1 X106.585 Y157.090 E0.0227
G1 X106.528 Y156.447 E0.0322
G1 X106.528 Y152.025 E0.2206
G1 X106.583 Y151.183 E0.0421
G1 X106.660 Y150.640 E0.0274
G1 X106.724 Y150.336 E0.0155
G1 X106.834 Y149.917 E0.0216
G1 X106.965 Y149.517 E0.0210
G1 X107.167 Y149.003 E0.0276
G1 X107.407 Y148.490 E0.0283
G1 X107.559 Y148.215 E0.0157
G1 X107.786 Y147.848 E0.0215
G1 X108.007 Y147.534 E0.0192
G1 X108.398 Y147.041 E0.0314
G1 X108.693 Y146.714 E0.0220
G1 X109.033 Y146.383 E0.0237
G1 X109.541 Y145.961 E0.0329
G0 F2400 X109.617 Y145.898
M204 S1300.00
G0 F7200 X109.839 Y146.207
G0 F7200 X109.897 Y146.288
M204 S1250.00
G1 F2400 X110.167 Y146.094 E0.0166
G1 X110.760 Y145.729 E0.0347
G1 X111.248 Y145.482 E0.0273
G1 X111.681 Y145.301 E0.0234
G1 X112.363 Y145.078 E0.0358
G1 X113.052 Y144.925 E0.0352
G1 X113.450 Y144.867 E0.0201
G1 X113.758 Y144.837 E0.0154
G1 X114.304 Y144.814 E0.0273
G1 X123.191 Y144.814 E0.4434
G1 X123.191 Y143.554 E0.0629
G1 X123.223 Y143.100 E0.0227
G1 X123.318 Y142.655 E0.0227
G1 X123.475 Y142.228 E0.0227
G1 X123.690 Y141.827 E0.0227
G1 X123.959 Y141.460 E0.0227
G1 X124.277 Y141.134 E0.0227
G1 X124.637 Y140.856 E0.0227
G1 X125.033 Y140.631 E0.0227
G1 X125.456 Y140.464 E0.0227
G1 X125.899 Y140.358 E0.0227
G1 X126.431 Y140.314 E0.0266
G1 X180.311 Y140.314 E2.6881
G1 X180.551 Y140.331 E0.0120
G1 X180.646 Y140.164 E0.0096
G1 X180.930 Y139.808 E0.0227
G1 X181.260 Y139.496 E0.0227
G1 X181.631 Y139.232 E0.0227
G1 X182.036 Y139.024 E0.0227
G1 X182.465 Y138.874 E0.0227
G1 X182.751 Y138.809 E0.0146
G1 X183.351 Y138.754 E0.0301
G1 X190.868 Y138.761 E0.3750
G1 X191.322 Y138.793 E0.0227
G1 X191.767 Y138.889 E0.0227
G1 X192.194 Y139.046 E0.0227
G1 X192.595 Y139.261 E0.0227
G1 X192.962 Y139.531 E0.0227
G1 X193.287 Y139.849 E0.0227
G1 X193.565 Y140.210 E0.0227
G1 X193.789 Y140.606 E0.0227
G1 X193.956 Y141.029 E0.0227
G1 X194.061 Y141.472 E0.0227
G1 X194.105 Y141.990 E0.0259
G1 X194.108 Y142.831 E0.0420
G1 X194.188 Y143.054 E0.0118
G1 X194.281 Y143.500 E0.0227
G1 X194.310 Y143.934 E0.0217
G1 X194.310 Y145.033 E0.0548
G1 X194.239 Y145.705 E0.0337
G1 X194.107 Y146.176 E0.0244
G1 X193.921 Y146.591 E0.0227
G1 X193.680 Y146.977 E0.0227
G1 X193.386 Y147.325 E0.0227
G1 X193.047 Y147.628 E0.0227
G1 X192.741 Y147.838 E0.0185
G1 X192.298 Y148.069 E0.0249
G1 X192.034 Y148.168 E0.0141
G1 X190.750 Y148.589 E0.0674
G1 X190.309 Y148.700 E0.0227
G1 X189.864 Y148.748 E0.0223
G1 X186.916 Y148.860 E0.1472
G1 X185.066 Y149.316 E0.0951
G1 X184.617 Y149.394 E0.0227
G1 X184.381 Y149.409 E0.0118
G1 X183.890 Y149.390 E0.0245
G1 X183.443 Y149.308 E0.0227
G1 X182.980 Y149.147 E0.0245
G1 X182.721 Y149.145 E0.0129
G1 X182.267 Y149.109 E0.0227
G1 X181.823 Y149.009 E0.0227
G1 X181.397 Y148.848 E0.0227
G1 X180.998 Y148.629 E0.0227
G1 X180.634 Y148.357 E0.0227
G1 X179.353 Y147.086 E0.0900
G1 X123.010 Y159.609 E2.8796
G1 X122.560 Y159.676 E0.0227
G1 X110.248 Y159.686 E0.6142
G1 X109.794 Y159.654 E0.0227
G1 X109.349 Y159.559 E0.0227
G1 X108.922 Y159.402 E0.0227
G1 X108.521 Y159.187 E0.0227
G1 X108.154 Y158.918 E0.0227
G1 X107.828 Y158.600 E0.0227
G1 X107.550 Y158.240 E0.0227
G1 X107.325 Y157.844 E0.0227
G1 X107.158 Y157.421 E0.0227
G1 X107.052 Y156.978 E0.0227
G1 X107.008 Y156.447 E0.0266
G1 X107.007 Y152.055 E0.2191
G1 X107.058 Y151.250 E0.0402
G1 X107.130 Y150.738 E0.0258
G1 X107.189 Y150.456 E0.0144
G1 X107.290 Y150.066 E0.0201
G1 X107.412 Y149.693 E0.0196
G1 X107.614 Y149.179 E0.0276
G1 X107.827 Y148.722 E0.0252
G1 X107.968 Y148.467 E0.0145
G1 X108.179 Y148.124 E0.0201
G1 X108.400 Y147.810 E0.0192
G1 X108.755 Y147.362 E0.0285
G1 X109.029 Y147.057 E0.0205
G1 X109.341 Y146.752 E0.0218
G1 X109.821 Y146.352 E0.0312
G0 F2400 X109.897 Y146.288
;PRINTING: Pata de Soporte.stl
;PRINTING_ID: 0
G1 F2400 E-1.0000
M204 S1300.00
G0 F7200 X110.957 Y155.627
G0 F7200 X110.968 Y155.726
M204 S1000.00
M205 X6.00 Y6.00
;TYPE:WALL-INNER
;WIDTH:0.480
G1 F2400 E0.9700
G1 F2400 X110.967 Y152.072 E0.1823
G1 X111.003 Y151.587 E0.0243
G1 X111.033 Y151.407 E0.0091
G1 X111.112 Y151.102 E0.0157
G1 X111.286 Y150.661 E0.0237
G1 X111.360 Y150.511 E0.0083
G1 X111.529 Y150.237 E0.0161
G1 X111.827 Y149.860 E0.0240
G1 X112.083 Y149.610 E0.0179
G1 X112.341 Y149.404 E0.0165
G1 X112.613 Y149.229 E0.0161
G1 X113.041 Y149.020 E0.0238
G1 X113.332 Y148.918 E0.0154
G1 X113.660 Y148.838 E0.0168
G1 X113.979 Y148.791 E0.0161
G1 X114.328 Y148.774 E0.0174
G1 X127.151 Y148.774 E0.6397
G1 X127.151 Y144.274 E0.2245
G1 X172.284 Y144.274 E2.2517
G1 X172.319 Y144.593 E0.0160
G1 X122.229 Y155.726 E2.5600
G1 X111.068 Y155.726 E0.5568
G0 F2400 X110.968 Y155.726
G1 F2400 E-1.0000
M204 S1300.00
M205 X7.00 Y7.00
G0 F7200 X110.558 Y156.136
G0 F7200 X110.488 Y156.206
M204 S1000.00
M205 X6.00 Y6.00
;TYPE:WALL-OUTER
;WIDTH:0.480
G1 F2400 E0.9700
G1 F2400 X110.487 Y152.054 E0.2071
G1 X110.526 Y151.530 E0.0262
G1 X110.563 Y151.307 E0.0113
G1 X110.655 Y150.953 E0.0182
G1 X110.847 Y150.466 E0.0261
G1 X110.940 Y150.278 E0.0105
G1 X111.135 Y149.961 E0.0186
G1 X111.470 Y149.538 E0.0269
G1 X111.765 Y149.250 E0.0206
G1 X112.061 Y149.014 E0.0189
G1 X112.377 Y148.810 E0.0188
G1 X112.856 Y148.576 E0.0266
G1 X113.195 Y148.457 E0.0179
G1 X113.568 Y148.366 E0.0192
G1 X113.933 Y148.313 E0.0184
G1 X114.316 Y148.294 E0.0191
G1 X126.671 Y148.294 E0.6164
G1 X126.671 Y143.794 E0.2245
G1 X178.126 Y143.794 E2.5671
G1 X122.282 Y156.206 E2.8541
G1 X110.588 Y156.206 E0.5834
G0 F2400 X110.488 Y156.206
M204 S1300.00
M205 X7.00 Y7.00
G0 F1200 X110.488 Y156.106
G0 F1200 X110.488 Y156.006
G0 F7200 X110.987 Y155.590
G0 F7200 X111.063 Y155.526
M204 S1250.00
;TYPE:SOLID-FILL
;WIDTH:0.480
G1 F2400 X111.095 Y155.558 E0.0023
G0 F2400 X111.166 Y155.629
M204 S1300.00
G0 F7200 X111.745 Y155.629
G0 F7200 X111.845 Y155.629
M204 S1250.00
G1 F2400 X111.133 Y154.917 E0.0502
G0 F2400 X111.063 Y154.847
M204 S1300.00
G0 F7200 X111.063 Y154.269
G0 F7200 X111.063 Y154.169
M204 S1250.00
G1 F2400 X112.454 Y155.559 E0.0981
G0 F2400 X112.524 Y155.629
M204 S1300.00
G0 F7200 X113.102 Y155.629
G0 F7200 X113.202 Y155.629
M204 S1250.00
G1 F2400 X111.133 Y153.559 E0.1460
G0 F2400 X111.063 Y153.489
M204 S1300.00
G0 F7200 X111.063 Y152.910
G0 F7200 X111.063 Y152.810
M204 S1250.00
G1 F2400 X113.811 Y155.559 E0.1939
G0 F2400 X113.881 Y155.629
M204 S1300.00
G0 F7200 X114.460 Y155.629
G0 F7200 X114.560 Y155.629
M204 S1250.00
G1 F2400 X111.133 Y152.201 E0.2418
G0 F2400 X111.063 Y152.131
M204 S1300.00
G0 F7200 X111.106 Y151.602
G0 F7200 X111.114 Y151.503
M204 S1250.00
G1 F2400 X115.169 Y155.559 E0.2861
G0 F2400 X115.239 Y155.629
M204 S1300.00
G0 F7200 X115.818 Y155.629
G0 F7200 X115.918 Y155.629
M204 S1250.00
G1 F2400 X111.334 Y151.045 E0.3234
G0 F2400 X111.264 Y150.975
M204 S1300.00
G0 F7200 X111.438 Y150.602
G0 F7200 X111.480 Y150.512
M204 S1250.00
G1 F2400 X116.526 Y155.559 E0.3561
G0 F2400 X116.596 Y155.629
M204 S1300.00
G0 F7200 X117.175 Y155.629
G0 F7200 X117.275 Y155.629
M204 S1250.00
G1 F2400 X111.823 Y150.176 E0.3847
G0 F2400 X111.753 Y150.106
M204 S1300.00
G0 F7200 X112.008 Y149.824
G0 F7200 X112.075 Y149.750
M204 S1250.00
G1 F2400 X117.884 Y155.559 E0.4099
G0 F2400 X117.954 Y155.629
M204 S1300.00
G0 F7200 X118.533 Y155.629
G0 F7200 X118.633 Y155.629
M204 S1250.00
G1 F2400 X112.521 Y149.517 E0.4312
G0 F2400 X112.451 Y149.447
M204 S1300.00
G0 F7200 X112.798 Y149.251
G0 F7200 X112.885 Y149.202
M204 S1250.00
G1 F2400 X119.242 Y155.559 E0.4485
G0 F2400 X119.312 Y155.629
M204 S1300.00
G0 F7200 X119.891 Y155.629
G0 F7200 X119.991 Y155.629
M204 S1250.00
G1 F2400 X113.439 Y149.077 E0.4623
G0 F2400 X113.369 Y149.007
M204 S1300.00
G0 F7200 X113.837 Y148.913
G0 F7200 X113.935 Y148.894
M204 S1250.00
G1 F2400 X120.599 Y155.559 E0.4702
G0 F2400 X120.669 Y155.629
M204 S1300.00
G0 F7200 X121.248 Y155.629
G0 F7200 X121.348 Y155.629
M204 S1250.00
G1 F2400 X114.658 Y148.939 E0.4720
G0 F2400 X114.588 Y148.869
M204 S1300.00
G0 F7200 X115.167 Y148.869
G0 F7200 X115.267 Y148.869
M204 S1250.00
G1 F2400 X121.957 Y155.559 E0.4720
G0 F2400 X122.027 Y155.629
M204 S1300.00
G0 F7200 X122.519 Y155.554
G0 F7200 X122.617 Y155.540
M204 S1250.00
G1 F2400 X116.016 Y148.939 E0.4657
G0 F2400 X115.946 Y148.869
M204 S1300.00
G0 F7200 X116.525 Y148.869
G0 F7200 X116.625 Y148.869
M204 S1250.00
G1 F2400 X123.102 Y155.346 E0.4570
G0 F2400 X123.172 Y155.416
M204 S1300.00
G0 F7200 X123.631 Y155.314
G0 F7200 X123.728 Y155.293
M204 S1250.00
G1 F2400 X117.374 Y148.939 E0.4483
G0 F2400 X117.304 Y148.869
M204 S1300.00
G0 F7200 X117.882 Y148.869
G0 F7200 X117.982 Y148.869
M204 S1250.00
G1 F2400 X124.213 Y155.099 E0.4396
G0 F2400 X124.283 Y155.169
M204 S1300.00
G0 F7200 X124.741 Y155.067
G0 F7200 X124.838 Y155.046
M204 S1250.00
G1 F2400 X118.731 Y148.939 E0.4309
G0 F2400 X118.661 Y148.869
M204 S1300.00
G0 F7200 X119.240 Y148.869
