;Sliced by ideaMaker 4.2.3.5600, 2022-10-10 17:20:52 UTC+0200
;Dimension: 300.000 300.000 400.000 0.400
;Plate Shape: 0
;Origin Center: 0
;Extruder Offset #1: 25.000 0.000
;Filament Diameter #1: 1.750
;Filament Diameter #2: 1.750
;Filament Compensation #1: 100.00
;Filament Compensation #2: 90.00
;Filament Density #1: 1240.00
;Filament Density #2: 1240.00
;Filament Type #1: Sunlu
;Filament Type #2: 
;Filament Name #1: Sunlu Grey PLA
;Filament Name #2: 
;Firmware: Marlin
;Bounding Box: 97.308 202.692 97.301 202.695 0.000 64.850
;Model Gap: 0.000
M92 E415.00000
M221 T0 S100.00
M140 S60.00
M104 T0 S210.00
M109 T0 S210.00
T0
M190 S60.00
M107
G28 ; home all axes
G29 ; Autoleveling processing ; à commenter si M420 actif
;M420 S1 Z10 ; Autolevel enable ; à commenter si G29 actif
;vous avez 2 choix, soit activer le G29 pour faire un autoleveling du plateau avant chaque impression
;C'est la méthode recvommandé par ARtillery3Dexpert.fr
;soit activer la ligne qui commance par M420 pour faire un rappel de la derniere mesure du plateau
;pour gagner du temp ( non recommandé par artillery3Dexpert.fr )
M500 ; sauvegarde eeprom
M117 Purge extruder
G92 E0 ; reset extruder
G1 Z1.0 F3000 ; move z up little to prevent scratching of surface
G1 X2 Y20 Z0.3 F5000.0 ; move to start-line position
G1 X2 Y200.0 Z0.3 F1500.0 E15 ; draw 1st line
G1 X2 Y200.0 Z0.4 F5000.0 ; move to side a little
G1 X2 Y20 Z0.4 F1500.0 E30 ; draw 2nd line
G92 E0 ; reset extruder
G1 Z1.0 F3000 ; move z up little to prevent scratching of surface
;TOTAL_NUM: 1
;PRINTING_TIME: 0
;REMAINING_TIME: 8168
M83
;LAYER:0
;Z:0.250
;HEIGHT:0.250
M106 S0
;PRINTING: NON-OBJECT
;PRINTING_ID: -1
G1 F2400 E-1.0000
M204 S1300.00
M205 X7.00 Y7.00
G0 F7200 X113.049 Y112.285
G0 F900 Z0.250
G0 F7200 X113.119 Y112.355
M204 S1250.00
;TYPE:SKIRT
;WIDTH:0.480
G1 F2400 E0.9700
G1 F2400 X114.470 Y111.077 E0.0928
G1 X115.779 Y109.922 E0.0871
G1 X117.292 Y108.678 E0.0977
G1 X118.799 Y107.529 E0.0945
G1 X120.516 Y106.324 E0.1047
G1 X121.759 Y105.506 E0.0742
G1 X123.432 Y104.487 E0.0977
G1 X124.968 Y103.626 E0.0878
G1 X126.604 Y102.779 E0.0919
G1 X128.408 Y101.927 E0.0995
G1 X130.118 Y101.194 E0.0928
G1 X131.837 Y100.529 E0.0920
G1 X133.501 Y99.949 E0.0879
G1 X135.353 Y99.376 E0.0967
G1 X137.184 Y98.882 E0.0946
G1 X138.992 Y98.463 E0.0926
G1 X140.688 Y98.129 E0.0862
G1 X142.658 Y97.816 E0.0995
G1 X144.504 Y97.589 E0.0928
G1 X146.225 Y97.437 E0.0862
G1 X148.216 Y97.330 E0.0995
G1 X150.093 Y97.301 E0.0937
G1 X152.164 Y97.348 E0.1033
G1 X153.679 Y97.430 E0.0757
G1 X155.645 Y97.605 E0.0985
G1 X157.488 Y97.836 E0.0927
G1 X159.213 Y98.112 E0.0872
G1 X161.117 Y98.487 E0.0968
G1 X162.961 Y98.920 E0.0945
G1 X164.647 Y99.376 E0.0871
G1 X166.499 Y99.949 E0.0967
G1 X168.289 Y100.576 E0.0946
G1 X169.914 Y101.208 E0.0870
G1 X171.610 Y101.935 E0.0921
G1 X173.642 Y102.904 E0.1123
G1 X175.060 Y103.640 E0.0797
G1 X176.553 Y104.478 E0.0854
G1 X178.270 Y105.524 E0.1003
G1 X179.808 Y106.540 E0.0920
G1 X181.336 Y107.629 E0.0936
G1 X182.722 Y108.689 E0.0871
G1 X184.221 Y109.922 E0.0968
G1 X185.639 Y111.179 E0.0945
G1 X186.905 Y112.379 E0.0870
G1 X188.210 Y113.707 E0.0929
G1 X189.543 Y115.164 E0.0985
G1 X190.747 Y116.581 E0.0928
G1 X191.821 Y117.935 E0.0862
G1 X193.002 Y119.537 E0.0993
G1 X194.053 Y121.076 E0.0930
G1 X195.044 Y122.646 E0.0926
G1 X195.927 Y124.153 E0.0871
G1 X196.864 Y125.894 E0.0986
G1 X197.684 Y127.561 E0.0927
G1 X198.388 Y129.121 E0.0854
G1 X199.108 Y130.878 E0.0947
G1 X199.836 Y132.875 E0.1060
G1 X200.367 Y134.495 E0.0851
G1 X200.844 Y136.140 E0.0855
G1 X201.308 Y137.974 E0.0944
G1 X201.725 Y139.908 E0.0987
G1 X202.047 Y141.736 E0.0926
G1 X202.288 Y143.431 E0.0854
G1 X202.501 Y145.431 E0.1003
G1 X202.630 Y147.285 E0.0927
G1 X202.690 Y149.028 E0.0870
G1 X202.692 Y150.890 E0.0929
G1 X202.622 Y152.864 E0.0985
G1 X202.499 Y154.588 E0.0862
G1 X202.288 Y156.569 E0.0994
G1 X202.025 Y158.408 E0.0927
G1 X201.725 Y160.093 E0.0854
G1 X201.331 Y161.931 E0.0938
G1 X200.844 Y163.860 E0.0993
G1 X200.323 Y165.646 E0.0928
G1 X199.789 Y167.272 E0.0854
G1 X199.094 Y169.157 E0.1002
G1 X198.386 Y170.881 E0.0930
G1 X197.612 Y172.589 E0.0936
G1 X196.672 Y174.467 E0.1048
G1 X195.909 Y175.877 E0.0800
G1 X194.976 Y177.466 E0.0919
G1 X194.033 Y178.954 E0.0879
G1 X193.002 Y180.463 E0.0912
G1 X191.811 Y182.080 E0.1002
G1 X190.663 Y183.522 E0.0920
G1 X189.530 Y184.850 E0.0871
G1 X188.186 Y186.319 E0.0993
G1 X186.881 Y187.645 E0.0928
G1 X185.530 Y188.923 E0.0928
G1 X184.221 Y190.078 E0.0871
G1 X182.708 Y191.322 E0.0977
G1 X181.201 Y192.471 E0.0945
G1 X179.484 Y193.676 E0.1047
G1 X178.241 Y194.494 E0.0742
G1 X176.568 Y195.513 E0.0977
G1 X175.032 Y196.374 E0.0878
G1 X173.396 Y197.221 E0.0919
G1 X171.592 Y198.073 E0.0995
G1 X169.882 Y198.806 E0.0928
G1 X168.178 Y199.466 E0.0912
G1 X166.499 Y200.051 E0.0887
G1 X164.647 Y200.624 E0.0967
G1 X162.816 Y201.118 E0.0946
G1 X161.008 Y201.537 E0.0926
G1 X159.294 Y201.874 E0.0871
G1 X157.342 Y202.184 E0.0986
G1 X155.496 Y202.411 E0.0928
G1 X153.758 Y202.564 E0.0870
G1 X151.765 Y202.670 E0.0996
G1 X149.671 Y202.695 E0.1045
G1 X148.216 Y202.670 E0.0726
G1 X146.323 Y202.570 E0.0946
G1 X144.355 Y202.395 E0.0986
G1 X142.512 Y202.164 E0.0927
G1 X140.805 Y201.891 E0.0862
G1 X138.960 Y201.529 E0.0938
G1 X137.039 Y201.080 E0.0984
G1 X135.353 Y200.624 E0.0871
G1 X133.485 Y200.045 E0.0976
G1 X131.711 Y199.424 E0.0938
G1 X130.086 Y198.792 E0.0870
G1 X128.372 Y198.057 E0.0930
G1 X126.358 Y197.096 E0.1113
G1 X124.940 Y196.360 E0.0797
G1 X123.432 Y195.513 E0.0863
G1 X121.730 Y194.476 E0.0994
G1 X120.192 Y193.460 E0.0920
G1 X118.664 Y192.371 E0.0936
G1 X117.278 Y191.311 E0.0871
G1 X115.766 Y190.066 E0.0977
G1 X114.361 Y188.821 E0.0937
G1 X113.095 Y187.621 E0.0870
G1 X111.802 Y186.307 E0.0920
G1 X110.534 Y184.924 E0.0936
G1 X109.337 Y183.521 E0.0920
G1 X108.097 Y181.959 E0.0995
G1 X106.998 Y180.463 E0.0926
G1 X106.031 Y179.051 E0.0854
G1 X105.024 Y177.465 E0.0937
G1 X104.017 Y175.745 E0.0994
G1 X103.138 Y174.108 E0.0927
G1 X102.364 Y172.541 E0.0872
G1 X101.566 Y170.772 E0.0968
G1 X100.850 Y169.016 E0.0946
G1 X100.212 Y167.274 E0.0926
G1 X99.667 Y165.616 E0.0871
G1 X99.152 Y163.844 E0.0921
G1 X98.669 Y161.931 E0.0984
G1 X98.275 Y160.092 E0.0938
G1 X97.953 Y158.264 E0.0926
G1 X97.712 Y156.569 E0.0854
G1 X97.499 Y154.569 E0.1003
G1 X97.370 Y152.715 E0.0927
G1 X97.310 Y150.972 E0.0870
G1 X97.308 Y149.110 E0.0929
G1 X97.378 Y147.136 E0.0985
G1 X97.501 Y145.412 E0.0862
G1 X97.712 Y143.431 E0.0994
G1 X97.975 Y141.592 E0.0927
G1 X98.275 Y139.907 E0.0854
G1 X98.669 Y138.069 E0.0938
G1 X99.156 Y136.140 E0.0993
G1 X99.677 Y134.350 E0.0930
G1 X100.249 Y132.618 E0.0910
G1 X100.864 Y130.950 E0.0887
G1 X101.607 Y129.135 E0.0978
G1 X102.388 Y127.411 E0.0944
G1 X103.328 Y125.533 E0.1048
G1 X104.091 Y124.123 E0.0800
G1 X105.024 Y122.534 E0.0919
G1 X105.967 Y121.046 E0.0879
G1 X106.998 Y119.537 E0.0912
G1 X108.189 Y117.920 E0.1002
G1 X109.337 Y116.478 E0.0920
G1 X110.470 Y115.150 E0.0871
G1 X111.814 Y113.681 E0.0993
G1 X113.049 Y112.426 E0.0878
G0 F2400 X113.119 Y112.355
M204 S1300.00
G0 F7200 X113.381 Y112.632
G0 F7200 X113.449 Y112.704
M204 S1250.00
G1 F2400 X114.788 Y111.437 E0.0920
G1 X116.084 Y110.293 E0.0862
G1 X117.583 Y109.060 E0.0968
G1 X119.075 Y107.922 E0.0936
G1 X120.780 Y106.725 E0.1039
G1 X122.009 Y105.916 E0.0734
G1 X123.667 Y104.906 E0.0969
G1 X125.189 Y104.052 E0.0871
G1 X126.825 Y103.205 E0.0919
G1 X128.597 Y102.368 E0.0978
G1 X130.291 Y101.642 E0.0919
G1 X132.010 Y100.977 E0.0920
G1 X133.643 Y100.408 E0.0863
G1 X135.495 Y99.835 E0.0967
G1 X137.293 Y99.350 E0.0929
G1 X139.085 Y98.934 E0.0918
G1 X140.781 Y98.600 E0.0862
G1 X142.717 Y98.292 E0.0978
G1 X144.546 Y98.067 E0.0919
G1 X146.251 Y97.916 E0.0854
G1 X148.223 Y97.810 E0.0985
G1 X150.082 Y97.781 E0.0928
G1 X152.153 Y97.828 E0.1033
G1 X153.637 Y97.908 E0.0741
G1 X155.585 Y98.081 E0.0976
G1 X157.412 Y98.310 E0.0919
G1 X159.120 Y98.583 E0.0863
G1 X161.024 Y98.958 E0.0968
G1 X162.836 Y99.383 E0.0929
G1 X164.505 Y99.835 E0.0863
G1 X166.357 Y100.408 E0.0967
G1 X168.115 Y101.023 E0.0929
G1 X169.725 Y101.649 E0.0862
G1 X171.403 Y102.368 E0.0911
G1 X173.421 Y103.330 E0.1115
G1 X174.825 Y104.059 E0.0789
G1 X176.318 Y104.897 E0.0854
G1 X178.005 Y105.925 E0.0986
G1 X179.543 Y106.941 E0.0920
G1 X181.044 Y108.010 E0.0919
G1 X182.417 Y109.060 E0.0862
G1 X183.916 Y110.293 E0.0968
G1 X185.309 Y111.527 E0.0928
G1 X186.563 Y112.716 E0.0862
G1 X187.856 Y114.031 E0.0920
G1 X189.177 Y115.475 E0.0976
G1 X190.371 Y116.879 E0.0920
G1 X191.445 Y118.233 E0.0862
G1 X192.606 Y119.808 E0.0976
G1 X193.647 Y121.332 E0.0921
G1 X194.630 Y122.889 E0.0919
G1 X195.504 Y124.381 E0.0863
G1 X196.433 Y126.106 E0.0977
G1 X197.246 Y127.758 E0.0919
G1 X197.950 Y129.318 E0.0854
G1 X198.657 Y131.042 E0.0930
G1 X199.380 Y133.025 E0.1053
G1 X199.906 Y134.629 E0.0842
G1 X200.383 Y136.274 E0.0855
G1 X200.839 Y138.075 E0.0927
G1 X201.252 Y139.991 E0.0978
G1 X201.572 Y141.804 E0.0918
G1 X201.813 Y143.499 E0.0854
G1 X202.022 Y145.464 E0.0986
G1 X202.150 Y147.302 E0.0919
G1 X202.210 Y149.029 E0.0862
G1 X202.212 Y150.873 E0.0920
G1 X202.143 Y152.830 E0.0977
G1 X202.022 Y154.537 E0.0854
G1 X201.813 Y156.501 E0.0985
G1 X201.552 Y158.324 E0.0919
G1 X201.252 Y160.009 E0.0854
G1 X200.862 Y161.830 E0.0929
G1 X200.383 Y163.726 E0.0976
G1 X199.867 Y165.496 E0.0920
G1 X199.333 Y167.122 E0.0854
G1 X198.650 Y168.975 E0.0985
G1 X197.949 Y170.683 E0.0921
G1 X197.183 Y172.374 E0.0926
G1 X196.250 Y174.239 E0.1040
G1 X195.495 Y175.634 E0.0791
G1 X194.571 Y177.209 E0.0911
G1 X193.637 Y178.683 E0.0871
G1 X192.606 Y180.192 E0.0912
G1 X191.435 Y181.781 E0.0985
G1 X190.298 Y183.210 E0.0911
G1 X189.165 Y184.538 E0.0871
G1 X187.844 Y185.982 E0.0976
G1 X186.551 Y187.296 E0.0920
G1 X185.212 Y188.563 E0.0920
G1 X183.916 Y189.707 E0.0862
G1 X182.417 Y190.940 E0.0968
G1 X180.925 Y192.078 E0.0936
G1 X179.220 Y193.275 E0.1039
G1 X177.991 Y194.084 E0.0734
G1 X176.318 Y195.103 E0.0977
G1 X174.811 Y195.948 E0.0862
G1 X173.175 Y196.795 E0.0919
G1 X171.403 Y197.632 E0.0978
G1 X169.709 Y198.358 E0.0919
G1 X168.005 Y199.018 E0.0912
G1 X166.357 Y199.592 E0.0871
G1 X164.505 Y200.165 E0.0967
G1 X162.707 Y200.650 E0.0929
G1 X160.915 Y201.066 E0.0918
G1 X159.219 Y201.400 E0.0862
G1 X157.283 Y201.708 E0.0978
G1 X155.454 Y201.933 E0.0919
G1 X153.733 Y202.085 E0.0862
G1 X151.759 Y202.190 E0.0986
G1 X149.679 Y202.215 E0.1038
G1 X148.224 Y202.190 E0.0726
G1 X146.365 Y202.092 E0.0929
G1 X144.415 Y201.919 E0.0977
G1 X142.588 Y201.690 E0.0919
G1 X140.897 Y201.420 E0.0854
G1 X139.069 Y201.062 E0.0929
G1 X137.164 Y200.617 E0.0976
G1 X135.495 Y200.165 E0.0863
G1 X133.643 Y199.592 E0.0967
G1 X131.885 Y198.977 E0.0929
G1 X130.275 Y198.351 E0.0862
G1 X128.579 Y197.624 E0.0921
G1 X126.579 Y196.670 E0.1106
G1 X125.175 Y195.941 E0.0789
G1 X123.667 Y195.094 E0.0863
G1 X121.995 Y194.075 E0.0977
G1 X120.457 Y193.059 E0.0920
G1 X118.956 Y191.990 E0.0919
G1 X117.583 Y190.940 E0.0862
G1 X116.071 Y189.695 E0.0977
G1 X114.691 Y188.473 E0.0920
G1 X113.437 Y187.284 E0.0862
G1 X112.144 Y185.970 E0.0920
G1 X110.899 Y184.612 E0.0919
G1 X109.713 Y183.223 E0.0911
G1 X108.484 Y181.675 E0.0986
G1 X107.394 Y180.192 E0.0918
G1 X106.427 Y178.780 E0.0854
G1 X105.429 Y177.208 E0.0929
G1 X104.440 Y175.518 E0.0977
G1 X103.568 Y173.895 E0.0919
G1 X102.802 Y172.344 E0.0863
G1 X102.004 Y170.575 E0.0968
G1 X101.301 Y168.851 E0.0929
G1 X100.668 Y167.124 E0.0918
G1 X100.128 Y165.482 E0.0862
G1 X99.613 Y163.710 E0.0921
G1 X99.138 Y161.830 E0.0967
G1 X98.748 Y160.009 E0.0929
G1 X98.428 Y158.196 E0.0918
G1 X98.187 Y156.501 E0.0854
G1 X97.978 Y154.536 E0.0986
G1 X97.850 Y152.698 E0.0919
G1 X97.790 Y150.971 E0.0862
G1 X97.788 Y149.127 E0.0920
G1 X97.857 Y147.170 E0.0977
G1 X97.978 Y145.463 E0.0854
G1 X98.187 Y143.499 E0.0985
G1 X98.448 Y141.676 E0.0919
G1 X98.748 Y139.991 E0.0854
G1 X99.138 Y138.170 E0.0929
G1 X99.617 Y136.274 E0.0976
G1 X100.133 Y134.501 E0.0921
G1 X100.705 Y132.769 E0.0910
G1 X101.308 Y131.132 E0.0870
G1 X102.051 Y129.317 E0.0978
G1 X102.817 Y127.626 E0.0926
G1 X103.750 Y125.761 E0.1040
G1 X104.505 Y124.366 E0.0791
G1 X105.429 Y122.791 E0.0911
G1 X106.363 Y121.317 E0.0871
G1 X107.394 Y119.808 E0.0912
G1 X108.565 Y118.219 E0.0985
G1 X109.702 Y116.790 E0.0911
G1 X110.835 Y115.462 E0.0871
G1 X112.156 Y114.018 E0.0976
G1 X113.379 Y112.775 E0.0870
G0 F2400 X113.449 Y112.704
M204 S1300.00
G0 F7200 X113.711 Y112.981
G0 F7200 X113.779 Y113.053
M204 S1250.00
G1 F2400 X115.106 Y111.797 E0.0912
G1 X116.389 Y110.664 E0.0854
G1 X117.888 Y109.431 E0.0968
G1 X119.351 Y108.315 E0.0918
G1 X121.044 Y107.126 E0.1032
G1 X122.259 Y106.326 E0.0726
G1 X123.917 Y105.316 E0.0969
G1 X125.410 Y104.478 E0.0854
G1 X127.030 Y103.639 E0.0910
G1 X128.786 Y102.809 E0.0969
G1 X130.464 Y102.090 E0.0911
G1 X132.168 Y101.430 E0.0912
G1 X133.785 Y100.867 E0.0854
G1 X135.637 Y100.294 E0.0967
G1 X137.402 Y99.818 E0.0912
G1 X139.178 Y99.405 E0.0910
G1 X140.857 Y99.074 E0.0854
G1 X142.776 Y98.768 E0.0969
G1 X144.588 Y98.545 E0.0911
G1 X146.293 Y98.394 E0.0854
G1 X148.231 Y98.290 E0.0968
G1 X150.071 Y98.261 E0.0918
G1 X152.142 Y98.308 E0.1033
G1 X153.595 Y98.386 E0.0726
G1 X155.525 Y98.557 E0.0967
G1 X157.336 Y98.784 E0.0911
G1 X159.027 Y99.054 E0.0854
G1 X160.931 Y99.429 E0.0968
G1 X162.710 Y99.846 E0.0912
G1 X164.363 Y100.294 E0.0854
G1 X166.215 Y100.867 E0.0967
G1 X167.941 Y101.470 E0.0912
G1 X169.536 Y102.090 E0.0854
G1 X171.214 Y102.809 E0.0911
G1 X173.200 Y103.756 E0.1098
G1 X174.590 Y104.478 E0.0781
G1 X176.083 Y105.316 E0.0854
G1 X177.741 Y106.326 E0.0969
G1 X179.265 Y107.332 E0.0911
G1 X180.752 Y108.391 E0.0911
G1 X182.112 Y109.431 E0.0854
G1 X183.611 Y110.664 E0.0968
G1 X184.979 Y111.875 E0.0911
G1 X186.221 Y113.053 E0.0854
G1 X187.502 Y114.355 E0.0911
G1 X188.811 Y115.786 E0.0968
G1 X189.995 Y117.177 E0.0911
G1 X191.059 Y118.518 E0.0854
G1 X192.210 Y120.079 E0.0968
G1 X193.241 Y121.588 E0.0912
G1 X194.216 Y123.131 E0.0911
G1 X195.081 Y124.609 E0.0854
G1 X196.002 Y126.318 E0.0969
G1 X196.808 Y127.955 E0.0910
G1 X197.512 Y129.515 E0.0854
G1 X198.206 Y131.207 E0.0912
G1 X198.924 Y133.175 E0.1045
G1 X199.445 Y134.763 E0.0834
G1 X199.922 Y136.408 E0.0855
G1 X200.370 Y138.176 E0.0910
G1 X200.779 Y140.075 E0.0969
G1 X201.097 Y141.872 E0.0910
G1 X201.338 Y143.567 E0.0854
G1 X201.543 Y145.497 E0.0968
G1 X201.670 Y147.319 E0.0911
G1 X201.730 Y149.030 E0.0854
G1 X201.732 Y150.856 E0.0911
G1 X201.664 Y152.796 E0.0968
G1 X201.543 Y154.503 E0.0854
G1 X201.338 Y156.433 E0.0968
G1 X201.079 Y158.240 E0.0911
G1 X200.779 Y159.925 E0.0854
G1 X200.397 Y161.712 E0.0912
G1 X199.922 Y163.592 E0.0967
G1 X199.411 Y165.346 E0.0911
G1 X198.877 Y166.972 E0.0854
G1 X198.206 Y168.793 E0.0968
G1 X197.512 Y170.485 E0.0912
G1 X196.754 Y172.159 E0.0917
G1 X195.828 Y174.011 E0.1033
G1 X195.081 Y175.391 E0.0783
G1 X194.157 Y176.966 E0.0911
G1 X193.241 Y178.412 E0.0854
G1 X192.210 Y179.921 E0.0912
G1 X191.059 Y181.482 E0.0968
G1 X189.922 Y182.911 E0.0911
G1 X188.811 Y184.214 E0.0854
G1 X187.502 Y185.645 E0.0968
G1 X186.221 Y186.947 E0.0911
G1 X184.894 Y188.203 E0.0912
G1 X183.611 Y189.336 E0.0854
G1 X182.112 Y190.569 E0.0968
G1 X180.649 Y191.685 E0.0918
G1 X178.956 Y192.874 E0.1032
G1 X177.741 Y193.674 E0.0726
G1 X176.083 Y194.684 E0.0969
G1 X174.590 Y195.522 E0.0854
G1 X172.970 Y196.361 E0.0910
G1 X171.214 Y197.191 E0.0969
G1 X169.536 Y197.910 E0.0911
G1 X167.832 Y198.570 E0.0912
G1 X166.215 Y199.133 E0.0854
G1 X164.363 Y199.706 E0.0967
G1 X162.598 Y200.182 E0.0912
G1 X160.822 Y200.595 E0.0910
G1 X159.143 Y200.926 E0.0854
G1 X157.224 Y201.232 E0.0969
G1 X155.412 Y201.455 E0.0911
G1 X153.707 Y201.606 E0.0854
G1 X151.753 Y201.710 E0.0976
G1 X149.687 Y201.735 E0.1031
G1 X148.232 Y201.710 E0.0726
G1 X146.407 Y201.614 E0.0912
G1 X144.475 Y201.443 E0.0968
G1 X142.664 Y201.216 E0.0911
G1 X140.973 Y200.946 E0.0854
G1 X139.178 Y200.595 E0.0912
G1 X137.290 Y200.154 E0.0967
G1 X135.637 Y199.706 E0.0854
G1 X133.785 Y199.133 E0.0967
G1 X132.059 Y198.530 E0.0912
G1 X130.464 Y197.910 E0.0854
G1 X128.786 Y197.191 E0.0911
G1 X126.800 Y196.244 E0.1098
G1 X125.410 Y195.522 E0.0781
G1 X123.917 Y194.684 E0.0854
G1 X122.259 Y193.674 E0.0969
